/* XPM */
static char *_83c7c663f1d4766b79bd1eda47c6505sC9HGrzCYG7DlOex[] = {
/* columns rows colors chars-per-pixel */
"599 599 256 2 ",
"   c #020305",
".  c #040509",
"X  c #07090C",
"o  c #060A13",
"O  c #121519",
"+  c #322413",
"@  c #3D381D",
"#  c #32250F",
"$  c #101128",
"%  c #3D3B20",
"&  c #3C3623",
"*  c #33393B",
"=  c #2A3436",
"-  c #271B25",
";  c #443615",
":  c #463729",
">  c #572533",
",  c #624E2B",
"<  c #391651",
"1  c #343447",
"2  c #3C1968",
"3  c #3C1D72",
"4  c #3C2677",
"5  c #39276A",
"6  c #162E4C",
"7  c #481959",
"8  c #541A58",
"9  c #4E194B",
"0  c #502852",
"q  c #6B3351",
"w  c #4A166A",
"e  c #441B6B",
"r  c #4C1A6B",
"t  c #471865",
"y  c #511C6D",
"u  c #531965",
"i  c #471C72",
"p  c #531E71",
"a  c #541A75",
"s  c #450E64",
"d  c #4A236A",
"f  c #53256C",
"g  c #482678",
"h  c #552273",
"j  c #592576",
"k  c #5A2C76",
"l  c #5D2B7B",
"z  c #572977",
"x  c #5C3279",
"c  c #4F3670",
"v  c #612D7E",
"b  c #63347C",
"n  c #6C3565",
"m  c #611E50",
"M  c #2C4C70",
"N  c #364F50",
"B  c #4C4F52",
"V  c #774D52",
"C  c #564E6D",
"Z  c #6D4E6F",
"A  c #6F7174",
"S  c #5D6767",
"D  c #31423D",
"F  c #8E4F3C",
"G  c #98693C",
"H  c #8C4E46",
"J  c #8D4E4A",
"K  c #854C48",
"L  c #914D46",
"P  c #8B5148",
"I  c #955346",
"U  c #895155",
"Y  c #946A54",
"T  c #B07251",
"R  c #90706E",
"E  c #AD7569",
"W  c #95575C",
"Q  c #C67C5D",
"!  c #813C50",
"~  c #388B65",
"^  c #58946C",
"/  c #B4883D",
"(  c #88833F",
")  c #B68544",
"_  c #BB8546",
"`  c #BC844B",
"'  c #B78848",
"]  c #B88555",
"[  c #B79453",
"{  c #959279",
"}  c #AC9D64",
"|  c #AA9C6A",
" . c #B3926D",
".. c #B4A46E",
"X. c #9E9E60",
"o. c #C1854C",
"O. c #DA864F",
"+. c #D6864D",
"@. c #C98758",
"#. c #D58653",
"$. c #DB8650",
"%. c #D78857",
"&. c #C39952",
"*. c #CB8F6B",
"=. c #CBB373",
"-. c #D0A45A",
";. c #E6CA76",
":. c #F1E87D",
">. c #D9C272",
",. c #9AC67C",
"<. c #492D82",
"1. c #4A3587",
"2. c #573789",
"3. c #583D92",
"4. c #532E84",
"5. c #622E81",
"6. c #653283",
"7. c #6D3B8B",
"8. c #693786",
"9. c #713D8E",
"0. c #6F3E92",
"q. c #2E598A",
"w. c #336596",
"e. c #3872AF",
"r. c #5D4D9D",
"t. c #5B4596",
"y. c #5D519D",
"u. c #5D5294",
"i. c #5A4C8A",
"p. c #73438E",
"a. c #624D9D",
"s. c #664898",
"d. c #754493",
"f. c #7D4B9A",
"g. c #794896",
"h. c #63519D",
"j. c #665698",
"k. c #6A4E8B",
"l. c #736E8F",
"z. c #5E4FA2",
"x. c #5F4FA8",
"c. c #5E50A1",
"v. c #5F51A8",
"b. c #624EA1",
"n. c #6A4CA2",
"m. c #6351A2",
"M. c #6953A4",
"N. c #7354A3",
"B. c #5673A3",
"V. c #3E2D81",
"C. c #814D9C",
"Z. c #875698",
"A. c #906B95",
"S. c #9274A5",
"D. c #AA76AD",
"F. c #8B579D",
"G. c #C17985",
"H. c #7B8686",
"J. c #688FAF",
"K. c #689BD2",
"L. c #7EC083",
"P. c #858C8B",
"I. c #88918C",
"U. c #868F90",
"Y. c #8A8C93",
"T. c #869191",
"R. c #8B9495",
"E. c #8E9898",
"W. c #949D9E",
"Q. c #959A96",
"!. c #97908B",
"~. c #AE938A",
"^. c #96A09C",
"/. c #90B290",
"(. c #B3A891",
"). c #969EA1",
"_. c #9B98A4",
"`. c #938BAF",
"'. c #AF8DB5",
"]. c #98A2A2",
"[. c #93ACB3",
"{. c #A7ABAA",
"}. c #ACB2AC",
"|. c #B5BAB6",
" X c #B9BAB6",
".X c #B6BBBA",
"XX c #BABCB9",
"oX c #B3B5B4",
"OX c #B0B1B1",
"+X c #CCB48F",
"@X c #C4BCB7",
"#X c #CAB8A8",
"$X c #C9998C",
"%X c #BDC2BD",
"&X c #B6C4B9",
"*X c #B0CDAF",
"=X c #9FDAA7",
"-X c #D2C38A",
";X c #D3C487",
":X c #D2C58F",
">X c #F0D78D",
",X c #EDE788",
"<X c #F4E686",
"1X c #F4E886",
"2X c #F4E68A",
"3X c #F4E989",
"4X c #FAE58A",
"5X c #F5E796",
"6X c #EBE696",
"7X c #C3C2BC",
"8X c #D2CDAD",
"9X c #F4E7A8",
"0X c #F4E9B6",
"qX c #EDE8B4",
"wX c #EAD5A9",
"eX c #B690C3",
"rX c #BCBEC3",
"tX c #BBBAC9",
"yX c #B5B1CF",
"uX c #92A8CB",
"iX c #C48EC7",
"pX c #C691C9",
"aX c #CD96D2",
"sX c #C3BCC8",
"dX c #C5BBD5",
"fX c #C8AFCB",
"gX c #C6BAE2",
"hX c #BEC2C4",
"jX c #BBC3C8",
"kX c #B5C9D4",
"lX c #BADDE5",
"zX c #C2C4C4",
"xX c #C3C4CA",
"cX c #C7C9CC",
"vX c #C9C9D3",
"bX c #CDD2D5",
"nX c #D5D8DA",
"mX c #D2CCCF",
"MX c #EEEACB",
"NX c #DADDE2",
"BX c #C7D8E6",
"VX c #C7E3EA",
"CX c #DCE3E6",
"ZX c #D6EBF4",
"AX c #E6EAED",
"SX c #EAEDEE",
"DX c #E3E5E8",
"FX c #EBF0EE",
"GX c #EBEEF2",
"HX c #E6EDF3",
"JX c #ECF0F3",
"KX c #E8F3F9",
"LX c #FDFEFE",
"PX c #F3F6F9",
"IX c #F2EEF1",
"UX c #E2DDE0",
/* pixels */
"% % % % % % % % % % % % % % % % @ @ @ @ @ @ : % % @ @ + # # # # + + + + + + + + + + + + + + + + + # # # # # # # # # # # # # # # ; , G T ] ` ` o.` ` _ ` ` ` ` ` ` ` ` ` ` ` ` ` ` ` ` ` ` ` ` ` ` ` ` ` ` ` ` ` ` ` ` ` ` ` ` ` _ ) ' ) [ ;.4X4X2X2X<X<X<X<X<X<X1X1X1X1X1X1X1X1X1X1X1X1X1X1X1X1X1X1X1X1X1X1X1X1X1X1X1X1X1X1X1X1X1X1X1X1X1X1X1X1X1X1X1X1X1X1X1X1X1X1X1X1X1X1X1X1X1X1X1X1X1X1X1X1X<X1X3X:.:.:.3X4X} G F P K L H H J J J J J J J J J J J J J J J J J J J J J K K P F F Y  .*.*.=.*.........=.+X:X-X-X-X-X-X-X-X-X-X-X-X-X-X-X-X-X-X-X-X-X-X-X-X-X-X-X-X-X-X:X:X:X:X-X-X-X-X-X-X-X-X-X-X+X+X+X-X:X:X:X-X:X:X:X-X-X-X;X;X;X;X-X-X-X-X-X-X:X:X:X:X:X:X:X:X:X:X+X-X-X-X-X-X-X-X-X-X;X-X-X-X-X-X-X-X-X-X-X;X-X-X-X-X-X-X-X;X;X;X;X;X-X;X;X;X-X-X-X-X-X-X-X-X-X-X-X-X-X-X-X-X-X-X-X-X-X-X-X-X-X-X-X-X-X-X-X-X-X-X-X-X-X-X-X-X-X-X-X-X-X-X-X-X-X-X-X-X-X-X-X-X-X-X-X-X-X-X-X-X-X-X-X-X-X-X-X-X-X-X-X-X-X-X-X-X-X-X-X-X-X-X-X-X-X-X-X-X-X-X-X-X-X-X-X-X-X-X-X-X-X-X-X-X-X-X-X-X-X-X-X-X-X-X-X-X-X-X-X-X-X-X-X-X-X-X-X-X-X-X-X-X-X-X-X-X-X-X-X-X-X-X-X-X-X-X-X-X-X-X-X-X-X-X-X-X-X-X-X-X-X-X-X-X-X-X-X-X-X-X-X-X-X-X-X-X-X-X-X-X-X-X-X-X-X-X-X-X-X-X-X-X-X-X-X-X-X-X-X-X-X-X-X-X-X-X-X-X-X-X-X-X-X-X-X-X-X-X-X-X-X-X-X-X-X-X-X-X-X-X-X-X-X",
"% % % % % % % % % % % % % % % % @ @ @ @ @ @ : : % @ @ + # # # # + + + + # # + + + + + + + + + + + # # # # # # # # # # # # ; # # ; F T T ] ] ` ` ` ` _ ` ` ` ` ` ` ` ` ` ` ` ` ` ` ` ` ` ` ` ` ` ` ` ` ` ` ` ` ` ` ` ` ` ` ` ` ` ` ) ' ) [ ;.4X4X2X2X<X<X<X<X<X<X1X1X1X1X1X1X1X1X1X1X1X1X1X1X1X1X1X1X1X1X1X1X1X1X1X1X1X1X1X1X1X1X1X1X1X1X1X1X1X1X1X1X1X1X1X1X1X1X1X1X1X1X1X1X1X1X1X1X1X1X1X1X1X1X<X1X1X:.:.:.4X>X[ F F P K L H H H J J J J J J J J J J J J J J J J J J J J K K P H P T *.=.*.*.*.........=.+X:X-X-X-X-X-X-X-X-X-X-X-X-X-X-X-X-X-X-X-X-X-X-X-X-X-X-X-X-X-X-X-X-X-X-X-X-X-X-X-X-X-X-X-X:X:X:X:X-X-X-X-X-X-X-X-X-X-X;X;X;X;X-X;X;X-X-X:X-X-X-X-X-X-X:X-X-X-X-X-X:X:X-X-X-X-X-X-X-X-X-X-X-X-X-X-X-X-X-X-X-X-X-X-X-X;X;X;X;X;X;X;X-X-X;X;X-X-X-X-X-X-X-X-X-X-X-X-X-X-X-X-X-X-X-X-X-X-X-X-X-X-X-X-X-X-X-X-X-X-X-X-X-X-X-X-X-X-X-X-X-X-X-X-X-X-X-X-X-X-X-X-X-X-X-X-X-X-X-X-X-X-X-X-X-X-X-X-X-X-X-X-X-X-X-X-X-X-X-X-X-X-X-X-X-X-X-X-X-X-X-X-X-X-X-X-X-X-X-X-X-X-X-X-X-X-X-X-X-X-X-X-X-X-X-X-X-X-X-X-X-X-X-X-X-X-X-X-X-X-X-X-X-X-X-X-X-X-X-X-X-X-X-X-X-X-X-X-X-X-X-X-X-X-X-X-X-X-X-X-X-X-X-X-X-X-X-X-X-X-X-X-X-X-X-X-X-X-X-X-X-X-X-X-X-X-X-X-X-X-X-X-X-X-X-X-X-X-X-X-X-X-X-X-X-X-X-X-X-X-X-X-X-X-X-X-X-X-X-X-X-X-X-X-X-X-X-X-X-X-X-X-X-X",
"% % % % % % % % % % % % % % % % @ @ @ @ @ @ % % % @ @ + # # # # + + # # # # # + + + + + + + + + + + + # # # # # # # # # # # # ; , G T ` @.@.` ` ` _ ` ` ` ` ` ` ` ` ` ` ` ` ` ` ` ` ` ` ` ` ` ` ` ` ` ` ` ` ` ` ` ` ` ` ` ` ` ` ` ) ' ) &.;.4X4X2X2X<X<X<X<X<X<X1X1X1X1X1X1X1X1X1X1X1X1X1X1X1X1X1X1X1X1X1X1X1X1X1X1X1X1X1X1X1X1X1X1X1X1X1X1X1X1X1X1X1X1X1X1X1X1X1X1X1X1X1X1X1X1X1X1X1X1X1X1X1X1X<X1X1X1X:.:.4X>X( , V P H H H K H J J J J J J J J J J J J J J J J J J J J K K P P I E *.=.*.............=.+X-X-X-X-X-X-X-X-X-X-X-X;X-X-X-X-X-X-X-X-X-X-X-X-X;X;X-X-X;X;X;X;X;X;X-X-X-X-X-X:X:X:X-X-X-X:X:X-X-X-X-X-X-X-X-X-X-X-X;X;X;X;X;X;X;X;X+X+X+X;X;X;X+X;X;X;X;X;X;X-X-X-X-X-X-X-X:X:X:X-X-X-X-X-X-X-X-X-X-X-X-X-X-X-X;X-X;X;X;X;X-X-X-X-X-X-X-X-X-X-X-X-X-X-X-X-X-X-X-X-X-X-X-X-X-X-X-X-X-X-X-X-X-X-X-X-X-X-X-X-X-X-X-X-X-X-X-X-X-X-X-X-X-X-X-X-X-X-X-X-X-X-X-X-X-X-X-X-X-X-X-X-X-X-X-X-X-X-X-X-X-X-X-X-X-X-X-X-X-X-X-X-X-X-X-X-X-X-X-X-X-X-X-X-X-X-X-X-X-X-X-X-X-X-X-X-X-X-X-X-X-X-X-X-X-X-X-X-X-X-X-X-X-X-X-X-X-X-X-X-X-X-X-X-X-X-X-X-X-X-X-X-X-X-X-X-X-X-X-X-X-X-X-X-X-X-X-X-X-X-X-X-X-X-X-X-X-X-X-X-X-X-X-X-X-X-X-X-X-X-X-X-X-X-X-X-X-X-X-X-X-X-X-X-X-X-X-X-X-X-X-X-X-X-X-X-X-X-X-X-X-X-X-X-X-X-X-X-X-X-X-X-X-X-X-X-X-X-X-X-X-X-X-X",
"% % % % % % % % % % % % % % % % @ @ @ @ @ @ % % % @ @ + # # # # + + + # # # # # + + + + + + + + + + + + # # # + # # # # ; # ; ; Y T ] ` @.@.` ` ` ` ` ` ` ` ` ` ` ` ` ` ` ` ` ` ` ` ` ` ` ` ` ` ` ` ` ` ` ` ` ` ` ` ` ` ` ` ` ` ` ) ) ' -.>X4X4X2X<X<X<X<X<X<X<X1X1X1X1X1X1X1X1X1X1X1X1X1X1X1X1X1X1X1X1X1X1X1X1X1X1X1X1X1X1X1X1X1X1X1X1X1X1X1X1X1X1X1X1X1X1X1X1X1X1X1X1X1X1X1X1X1X1X1X1X1X1X1X1X<X1X1X1X1X1X2X>.G , F P K H H H H J J J J J J J J J J J J J J J J J J J J K K P P Y  .*.*...............+X+X-X:X-X-X-X-X-X-X-X-X-X-X-X-X-X-X-X-X-X-X-X;X;X;X;X;X;X-X-X;X-X;X;X-X-X-X-X-X-X-X:X:X:X:X-X-X;X-X;X;X;X-X+X+X-X-X-X-X-X-X-X-X-X-X;X-X;X;X;X;X;X;X;X;X;X;X;X;X;X-X-X-X-X-X-X-X:X:X:X-X-X-X-X-X-X-X-X-X-X-X-X-X-X-X;X;X;X;X;X;X-X-X-X-X-X-X-X-X-X-X-X-X-X-X-X-X-X-X-X-X-X-X-X-X-X-X-X-X-X-X-X-X-X-X-X-X-X-X-X-X-X-X-X-X-X-X-X-X-X-X-X-X-X-X-X-X-X-X-X-X-X-X-X-X-X-X-X-X-X-X-X-X-X-X-X-X-X-X-X-X-X-X-X-X-X-X-X-X-X-X-X-X-X-X-X-X-X-X-X-X-X-X-X-X-X-X-X-X-X-X-X-X-X-X-X-X-X-X-X-X-X-X-X-X-X-X-X-X-X-X-X-X-X-X-X-X-X-X-X-X-X-X-X-X-X-X-X-X-X-X-X-X-X-X-X-X-X-X-X-X-X-X-X-X-X-X-X-X-X-X-X-X-X-X-X-X-X-X-X-X-X-X-X-X-X-X-X-X-X-X-X-X-X-X-X-X-X-X-X-X-X-X-X-X-X-X-X-X-X-X-X-X-X-X-X-X-X-X-X-X-X-X-X-X-X-X-X-X-X-X-X-X-X-X-X-X-X-X-X-X-X-X-X",
"% % % % % % % % % % % % % % % % % % @ @ @ @ % % % @ @ + # # # # # # # # # # # # + + + + + + + + + # # # + + + + # # # # ; # ; , ) ] ] ] ] ` ` ` ` ` ` ` ` ` ` ` ` ` ` ` ` ` ` ` ` ` ` ` ` ` ` ` ` ` ` ` ` ` ` ` ` ` ` ` ` ` ` ` ` ) ) ' =.4X4X4X<X<X<X<X<X<X<X<X1X1X1X1X1X1X1X1X1X1X1X1X1X1X1X1X1X1X1X1X1X1X1X1X1X1X1X1X1X1X1X1X1X1X1X1X1X1X1X1X1X1X1X1X1X1X1X1X1X1X1X1X1X1X1X1X1X1X1X1X1X1X1X1X,X1X1X1X1X<X4X=.G F F H K K H H H J J J J J J J J J J J J J J J J J J J J P P P F Y  .=.*...*.........=.+X+X-X-X-X-X-X-X-X-X-X-X-X-X-X-X:X:X:X:X+X-X;X;X;X;X>.;X-X-X-X-X-X-X-X;X-X-X-X-X-X:X-X:X:X;X;X;X-X;X-X+X-X-X:X:X:X:X:X:X:X:X:X:X:X:X:X:X:X-X-X-X-X-X-X-X-X-X-X-X-X-X-X;X-X-X-X-X-X-X-X-X-X-X-X-X:X:X:X:X-X-X-X-X;X;X;X;X;X-X-X-X-X-X;X;X;X;X-X-X-X-X-X-X-X-X-X-X-X-X-X-X-X-X-X-X-X-X-X-X-X-X-X-X-X-X-X-X-X-X-X-X-X-X-X-X-X-X-X-X-X-X-X-X-X-X-X-X-X-X-X-X-X-X-X-X-X-X-X-X-X-X-X-X-X-X-X-X-X-X-X-X-X-X-X-X-X-X-X-X-X-X-X-X-X-X-X-X-X-X-X-X-X-X-X-X-X-X-X-X-X-X-X-X-X-X-X-X-X-X-X-X-X-X-X-X-X-X-X-X-X-X-X-X-X-X-X-X-X-X-X-X-X-X-X-X-X-X-X-X-X-X-X-X-X-X-X-X-X-X-X-X-X-X-X-X-X-X-X-X-X-X-X-X-X-X-X-X-X-X-X-X-X-X-X-X-X-X-X-X-X-X-X-X-X-X-X-X-X-X-X-X-X-X-X-X-X-X-X-X-X-X-X-X-X-X-X-X-X-X-X-X-X-X-X-X-X-X-X-X-X-X-X-X-X-X-X-X-X-X-X-X-X-X-X",
"% % % % % % % % % % % % % % % % % % @ @ @ @ % % % @ @ + # # # # + + # # + # # # + + + + + + + + + # # # + + + # # # # # ; # ; F ] ] ] ] ] ` ` ` ` ` ` ` ` ` ` ` ` ` ` ` ` ` ` ` ` ` ` ` ` ` ` ` ` ` ` ` ` ` ` ` ` ` ` ` ` ` ` ` ` ) ) [ >.4X4X4X<X<X<X<X<X<X<X<X1X1X1X1X1X1X1X1X1X1X1X1X1X1X1X1X1X1X1X1X1X1X1X1X1X1X1X1X1X1X1X1X1X1X1X1X1X1X1X1X1X1X1X1X1X1X1X1X1X1X1X1X1X1X1X1X1X1X1X1X1X1X1X1X1X:.:.1X<X2X>X[ G F P P K H H F K J J J J J J J J J J J J J J J J J J J J P P K P Y  .=.*.*.=.........=.+X+X-X:X-X-X-X-X-X-X-X-X-X-X-X-X:X:X:X:X+X-X;X;X;X;X>.;X-X-X-X-X-X:X:X:X-X-X-X-X-X;X;X-X:X-X-X:X:X:X:X:X:X8X8X8X8X8X8X#X#X#X#X#X#X+X#X+X#X:X:X:X:X8XwXwX8X8X:X:X:X:X-X-X-X-X-X-X-X-X-X-X-X-X-X-X:X:X:X:X-X-X-X-X;X;X;X;X;X-X-X-X-X-X;X;X;X;X-X-X-X-X-X-X-X-X-X-X-X-X-X-X-X-X-X-X-X-X-X-X-X-X-X-X-X-X-X-X-X-X-X-X-X-X-X-X-X-X-X-X-X-X-X-X-X-X-X-X-X-X-X-X-X-X-X-X-X-X-X-X-X-X-X-X-X-X-X-X-X-X-X-X-X-X-X-X-X-X-X-X-X-X-X-X-X-X-X-X-X-X-X-X-X-X-X-X-X-X-X-X-X-X-X-X-X-X-X-X-X-X-X-X-X-X-X-X-X-X-X-X-X-X-X-X-X-X-X-X-X-X-X-X-X-X-X-X-X-X-X-X-X-X-X-X-X-X-X-X-X-X-X-X-X-X-X-X-X-X-X-X-X-X-X-X-X-X-X-X-X-X-X-X-X-X-X-X-X-X-X-X-X-X-X-X-X-X-X-X-X-X-X-X-X-X-X-X-X-X-X-X-X-X-X-X-X-X-X-X-X-X-X-X-X-X-X-X-X-X-X-X-X-X-X-X-X-X-X-X-X-X-X-X-X-X-X",
"% % % % % % % % % % % % % % % % % % % @ @ @ : : % @ @ + # # # # + + + + + + + # + + + + + + + + + # + + + + + # # # # ; ; ; , Y ] ] ] ] ] ` ` ` ` ` ` ` o.` ` ` ` ` ` ` ` ` ` ` ` ` ` ` ` ` ` ` ` ` ` ` ` ` ` ` ` ` ` ` ` ` ` ` ` ' ) [ ;.4X4X4X<X<X<X<X<X<X<X<X1X1X1X1X1X1X1X1X1X1X1X1X1X1X1X1X1X1X1X1X1X1X1X1X1X1X1X1X1X1X1X1X1X1X1X1X1X1X1X1X1X1X1X1X1X1X1X1X1X1X1X1X1X1X1X1X1X1X1X1X1X1X1X1X1X:.:.1X<X>X>X] F F P P K H H F K J J J J J J J J J J J J J J J J J J J J P P K P E *.=.*.*.=.........=.+X-X-X:X-X-X-X-X-X-X-X-X-X-X-X-X:X:X:X-X-X-X-X-X;X;X;X;X-X-X-X-X-X-X-X-X-X-X-X-X-X;X-X+X:X+X+X(.(.(.(.(.~.~.~.~.~.~.~.~.A.!.!.!.!.{ { { ~.~.~.(.(.+X#X#X+X#X#X#X:X:X:X:X:X:X:X-X-X-X-X-X-X-X-X-X-X-X-X-X-X-X-X-X-X;X;X;X-X-X-X-X-X-X-X-X-X-X-X-X-X-X-X-X-X-X-X-X-X-X-X-X-X-X-X-X-X-X-X-X-X-X-X-X-X-X-X-X-X-X-X-X-X-X-X-X-X-X-X-X-X-X-X-X-X-X-X-X-X-X-X-X-X-X-X-X-X-X-X-X-X-X-X-X-X-X-X-X-X-X-X-X-X-X-X-X-X-X-X-X-X-X-X-X-X-X-X-X-X-X-X-X-X-X-X-X-X-X-X-X-X-X-X-X-X-X-X-X-X-X-X-X-X-X-X-X-X-X-X-X-X-X-X-X-X-X-X-X-X-X-X-X-X-X-X-X-X-X-X-X-X-X-X-X-X-X-X-X-X-X-X-X-X-X-X-X-X-X-X-X-X-X-X-X-X-X-X-X-X-X-X-X-X-X-X-X-X-X-X-X-X-X-X-X-X-X-X-X-X-X-X-X-X-X-X-X-X-X-X-X-X-X-X-X-X-X-X-X-X-X-X-X-X-X-X-X-X-X-X-X-X-X-X-X-X-X-X-X-X-X-X-X-X-X-X",
"% % % % % % % % % % % % % % % % % % @ @ @ @ : : % & @ + # # # # + + + + + + + + + + + + + + + + + + + + # + # # # # ; ; # ; , ] ] ] ] ] ] ` ` ` ` ` ` ` o.` o.` ` ` ` ` ` ` ` ` ` ` ` ` ` ` ` ` ` ` ` ` ` ` ` ` ` ` ` ` ` ` ` ` _ ' ' [ ;.4X4X4X<X<X<X<X<X<X<X<X1X1X1X1X1X1X1X1X1X1X1X1X1X1X1X1X1X1X1X1X1X1X1X1X1X1X1X1X1X1X1X1X1X1X1X1X1X1X1X1X1X1X1X1X1X1X1X1X1X1X1X1X1X1X1X1X1X1X1X1X1X1X1X1X1X:.:.1X,X>X>XT , F P K K H F F K J J J J J J J J J J J J J J J J J J J J P P K Y  .$X$X*.=.*.........=.+X-X-X:X-X-X-X-X-X-X-X-X-X-X:X-X-X-X-X-X-X-X-X-X-X-X-X-X-X-X-X-X-X-X-X-X:X:X:X+X+X+X+X+X(.~.!.R R A V V V V V B q q q q 0 0 0 0 q q q q q q V V Z V Z Z R R !.~.(.(.#X#X#X#X+X+X:X:X:X-X:X-X-X-X-X-X-X-X;X;X-X-X-X-X-X-X-X-X-X-X-X-X-X-X-X-X-X-X-X-X-X-X-X-X-X-X-X-X-X-X-X-X-X-X-X-X-X-X-X-X-X-X-X-X-X-X-X-X-X-X-X-X-X-X-X-X-X-X-X-X-X-X-X-X-X-X-X-X-X-X-X-X-X-X-X-X-X-X-X-X-X-X-X-X-X-X-X-X-X-X-X-X-X-X-X-X-X-X-X-X-X-X-X-X-X-X-X-X-X-X-X-X-X-X-X-X-X-X-X-X-X-X-X-X-X-X-X-X-X-X-X-X-X-X-X-X-X-X-X-X-X-X-X-X-X-X-X-X-X-X-X-X-X-X-X-X-X-X-X-X-X-X-X-X-X-X-X-X-X-X-X-X-X-X-X-X-X-X-X-X-X-X-X-X-X-X-X-X-X-X-X-X-X-X-X-X-X-X-X-X-X-X-X-X-X-X-X-X-X-X-X-X-X-X-X-X-X-X-X-X-X-X-X-X-X-X-X-X-X-X-X-X-X-X-X-X-X-X-X-X-X-X-X-X-X-X-X-X-X-X-X-X-X",
"% % % % % % % % % % % % % % % % @ @ @ @ @ @ % % % % @ @ + # # # + # # # # # + + + + + + + + + + + # # # # # # # # # ; # ; , Y  .] ] ] ] ] ` ` ` ` ` ` ` ` ` o.o.` ` ` ` ` ` ` ` ` ` ` ` ` _ ) _ ` ` ` ` ` ` ` ` ` ` ` ` ` ` ` ` _ ) ' -.>X5X4X<X<X<X<X<X1X1X1X1X1X1X1X1X1X1X1X1X1X1X1X1X1X1X1X1X1X1X1X1X1X1X1X1X1X1X1X1X1X1X1X1X1X1X1X1X1X1X1X1X1X1X1X1X1X1X1X1X1X1X1X1X1X1X1X1X1X1X1X1X1X1X1X1X:.:.1X,X<X>X=.Y F K K K H F F F K J J J J J J J J J J J J J J J J J J J K P K F Y  .$X*.$X=.=..... ...+X-X-X-X-X-X-X-X-X-X-X-X-X-X:X-X-X-X;X+X=.;X;X-X-X:X:X:X:X-X-X-X+X+X+X+X+X+X+X(.~.{ R R R Z Z q 0 0 0 0 0 0 0 0 0 7 7 7 7 7 7 7 7 7 7 7 7 7 0 0 0 0 0 9 9 9 0 0 q Z Z R R ~.~.+X#X#X#X+X+X:X-X-X;X;X;X;X;X;X;X;X;X-X:X:X:X-X-X-X-X-X:X-X+X-X-X-X-X-X-X-X-X-X-X-X-X-X-X-X-X-X-X-X-X-X-X-X-X-X-X-X-X-X-X-X-X-X-X-X-X-X-X-X-X-X-X-X-X-X-X-X-X-X-X-X-X-X-X-X-X-X-X-X-X-X-X-X-X-X-X-X-X-X-X-X-X-X-X-X-X-X-X-X-X-X-X-X-X-X-X-X-X-X-X-X-X-X-X-X-X-X-X-X-X-X-X-X-X-X-X-X-X-X-X-X-X-X-X-X-X-X-X-X-X-X-X-X-X-X-X-X-X-X-X-X-X-X-X-X-X-X-X-X-X-X-X-X-X-X-X-X-X-X-X-X-X-X-X-X-X-X-X-X-X-X-X-X-X-X-X-X-X-X-X-X-X-X-X-X-X-X-X-X-X-X-X-X-X-X-X-X-X-X-X-X-X-X-X-X-X-X-X-X-X-X-X-X-X-X-X-X-X-X-X-X-X-X-X-X-X-X-X-X-X-X-X-X-X-X-X-X-X-X-X-X-X-X-X-X-X-X-X-X",
"% % % % % % % % % % % % % % % % @ @ @ @ @ @ % % % % @ @ + # # # + + # # # # + + + + + + + + + + + # # # # # # # # # # # ; , T ] ] ] ] ` ` ` ` ` ` ` ` ` ` ` o.o.` ` ` ` ` ` ` ` ` ` ) ` ` _ ) ) ` ` ` ` ` ` ` ` ` ` ` ` ` ` ` ` _ ) ) -.>X4X4X<X<X<X<X<X1X1X1X1X1X1X1X1X1X1X1X1X1X1X1X1X1X1X1X1X1X1X1X1X1X1X1X1X1X1X1X1X1X1X1X1X1X1X1X1X1X1X1X1X1X1X1X1X1X1X1X1X1X1X1X1X1X1X1X1X1X1X1X1X1X1X1X1X:.:.1X,X3X>X=.G F H K K H F F F K J J J J J J J J J J J J J J J J J J J K P K K Y  .$X*.$X=.=..... .=.+X:X-X-X-X-X-X-X-X-X-X-X-X-X-X-X-X;X;X;X;X:X:X-X:X:X:X:X8X8X8X+X+X(.~.{ { R A Z V B 0 0 9 0 9 9 7 0 0 7 d d d d d t r e t t t t t t t u t t t 7 7 7 7 7 7 < < < < 9 0 0 0 q V V R { ~.#X#X#X:X:X:X-X;X+X=.;X;X;X-X-X-X-X:X:X-X-X-X-X:X:X:X-X-X-X-X-X-X;X;X-X-X-X-X-X-X-X-X-X-X-X-X-X-X-X-X-X-X-X-X-X-X-X-X-X-X-X-X-X-X-X-X-X-X-X-X-X-X-X-X-X-X-X-X-X-X-X-X-X-X-X-X-X-X-X-X-X-X-X-X-X-X-X-X-X-X-X-X-X-X-X-X-X-X-X-X-X-X-X-X-X-X-X-X-X-X-X-X-X-X-X-X-X-X-X-X-X-X-X-X-X-X-X-X-X-X-X-X-X-X-X-X-X-X-X-X-X-X-X-X-X-X-X-X-X-X-X-X-X-X-X-X-X-X-X-X-X-X-X-X-X-X-X-X-X-X-X-X-X-X-X-X-X-X-X-X-X-X-X-X-X-X-X-X-X-X-X-X-X-X-X-X-X-X-X-X-X-X-X-X-X-X-X-X-X-X-X-X-X-X-X-X-X-X-X-X-X-X-X-X-X-X-X-X-X-X-X-X-X-X-X-X-X-X-X-X-X-X-X-X-X-X-X-X-X-X-X-X-X-X-X",
"% % % % % % % % % % % % % % % % @ @ @ @ @ @ % % % % & @ + # # # + + + + + + + + + + + + + + + + # # + + # # # # # # # ; , Y ] ] ] ] ] ] ` ` ` ` ` ` ` ` ` ` o.o.` ` ` ` ` ` ` ` ` ` ` ` ' ' ' ) ` ` ` ` ` ` ` ` ` ` ` ` ` ` ` ` _ ) ' =.>X2X2X2X<X<X<X1X1X1X1X1X1X1X1X1X1X1X1X1X1X1X1X1X1X1X1X1X1X1X1X1X1X1X1X1X1X1X1X1X1X1X1X1X1X1X1X1X1X1X1X1X1X1X1X1X1X1X1X1X1X1X1X1X1X1X1X1X1X1X1X1X1X1X1X1X1X1X1X,X2X6X .F F K K K H H F F K J J J J J J J J J J J J J J J J J J K J K K P E  .$X*.=.*.........=.+X-X-X:X-X-X-X-X-X-X-X-X-X-X-X-X-X-X:X:X-X-X-X:X:X8X8X8X8X(.(.!.R V V 0 0 * 9 9 9 9 9 7 < 7 7 7 d f f f f t t e e e e e t e t t t e e e e r r e e e e e e d e t 7 7 7 7 7 < 9 9 0 q Z R R ~.~.+X#X#X+X+X-X=.+X;X;X;X;X-X-X:X:X:X:X:X-X-X:X-X-X-X-X;X;X;X;X-X-X-X-X-X-X-X-X-X-X-X-X-X-X-X-X-X-X-X-X-X-X-X-X-X-X-X-X-X-X-X-X-X-X-X-X-X-X-X-X-X-X-X-X-X-X-X-X-X-X-X-X-X-X-X-X-X-X-X-X-X-X-X-X-X-X-X-X-X-X-X-X-X-X-X-X-X-X-X-X-X-X-X-X-X-X-X-X-X-X-X-X-X-X-X-X-X-X-X-X-X-X-X-X-X-X-X-X-X-X-X-X-X-X-X-X-X-X-X-X-X-X-X-X-X-X-X-X-X-X-X-X-X-X-X-X-X-X-X-X-X-X-X-X-X-X-X-X-X-X-X-X-X-X-X-X-X-X-X-X-X-X-X-X-X-X-X-X-X-X-X-X-X-X-X-X-X-X-X-X-X-X-X-X-X-X-X-X-X-X-X-X-X-X-X-X-X-X-X-X-X-X-X-X-X-X-X-X-X-X-X-X-X-X-X-X-X-X-X-X-X-X-X-X-X-X-X-X-X-X-X",
"% % % % % % % % % % % % % % % % @ @ @ @ @ @ % @ % % & @ + # # # + + + + + + + + + + + + + + + + # # # + # # # # # # # ; F T ] ] ] ] ] ` ` ` ` ` ` ` ` ` ` ` o.o.` ` ` ` ` ` ` ` ` ` ` ` ' ' ' ) ` ` ` ` ` ` ` ` ` ` ` ` ` ` ` ` ' ) ' >.4X,X2X<X<X<X<X1X1X1X1X1X1X1X1X1X1X1X1X1X1X1X1X1X1X1X1X1X1X1X1X1X1X1X1X1X1X1X1X1X1X1X1X1X1X1X1X1X1X1X1X1X1X1X1X1X1X1X1X1X1X1X1X1X1X1X1X1X1X1X1X1X1X1X1X1X1X,X,X,X6X>X] F F H K K K H F H K J J J J J J J J J J J J J J J J P J J J K K P E *.$X$X=.*... .....=.+X-X-X:X-X-X-X-X-X-X-X-X-X:X:X:X:X:X:X:X:X:X8X8X#X#X(.!.R Z Z 0 0 9 < < < < < 7 7 7 d t t d d d d t t t e t t t e e e e 2 e e e e e e e e i i i e i e e e i e e t t t t 7 < < 7 9 9 9 0 0 q Z R R ~.(.+X#X+X:X:X:X:X-X-X-X-X-X-X:X:X-X-X-X-X-X-X-X;X;X;X;X-X-X-X-X-X-X-X-X-X-X-X-X-X-X-X-X-X-X-X-X-X-X-X-X-X-X-X-X-X-X-X-X-X-X-X-X-X-X-X-X-X-X-X-X-X-X-X-X-X-X-X-X-X-X-X-X-X-X-X-X-X-X-X-X-X-X-X-X-X-X-X-X-X-X-X-X-X-X-X-X-X-X-X-X-X-X-X-X-X-X-X-X-X-X-X-X-X-X-X-X-X-X-X-X-X-X-X-X-X-X-X-X-X-X-X-X-X-X-X-X-X-X-X-X-X-X-X-X-X-X-X-X-X-X-X-X-X-X-X-X-X-X-X-X-X-X-X-X-X-X-X-X-X-X-X-X-X-X-X-X-X-X-X-X-X-X-X-X-X-X-X-X-X-X-X-X-X-X-X-X-X-X-X-X-X-X-X-X-X-X-X-X-X-X-X-X-X-X-X-X-X-X-X-X-X-X-X-X-X-X-X-X-X-X-X-X-X-X-X-X-X-X-X-X-X-X-X-X-X-X-X",
"% % % % % % % % % % % % % % % % @ @ @ @ @ @ @ @ % % & @ + # # # # # + + + + + + + + + + + + + + + + + + # # # # ; # # , Y ] ] ] ] ` ` ` ` ` ` ` ` ` ` ` ` ` o.o.` ` ` ` ` ` ` ` ` ` ' ' ' ' ) ) ` ` ` ` ` ` ` ` ` ` ` ` ` ` ` ` ' ) [ ;.4X,X2X<X<X<X1X1X1X1X1X1X1X1X1X1X1X1X1X1X1X1X1X1X1X1X1X1X1X1X1X1X1X1X1X1X1X1X1X1X1X1X1X1X1X1X1X1X1X1X1X1X1X1X1X1X1X1X1X1X1X1X1X1X1X1X1X1X1X1X1X1X1X1X1X1X1X,X,X,X6X;XT F F H K K K H H H K J J J J J J J J J J J J J J J J P J J P K P Y  .$X$X*.*...*. .....+X+X+X+X:X-X-X-X-X-X-X-X-X-X-X:X:X:X:X8X8X#X#X(.~.R R Z 0 0 0 0 7 < < < < < < 2 t d d d d d 2 t t t 7 t e e d d d d d g g g g g g g g g g g g g g g g g g g i i e e e e t t 2 2 7 7 7 7 t d 7 9 0 0 Z Z R ~.#X#X#X:X:X:X:X+X:X:X-X:X:X:X-X-X-X-X-X-X;X;X;X;X-X-X-X-X-X-X-X-X-X-X-X-X-X-X-X-X-X-X-X-X-X-X-X-X-X-X-X-X-X-X-X-X-X-X-X-X-X-X-X-X-X-X-X-X-X-X-X-X-X-X-X-X-X-X-X-X-X-X-X-X-X-X-X-X-X-X-X-X-X-X-X-X-X-X-X-X-X-X-X-X-X-X-X-X-X-X-X-X-X-X-X-X-X-X-X-X-X-X-X-X-X-X-X-X-X-X-X-X-X-X-X-X-X-X-X-X-X-X-X-X-X-X-X-X-X-X-X-X-X-X-X-X-X-X-X-X-X-X-X-X-X-X-X-X-X-X-X-X-X-X-X-X-X-X-X-X-X-X-X-X-X-X-X-X-X-X-X-X-X-X-X-X-X-X-X-X-X-X-X-X-X-X-X-X-X-X-X-X-X-X-X-X-X-X-X-X-X-X-X-X-X-X-X-X-X-X-X-X-X-X-X-X-X-X-X-X-X-X-X-X-X-X-X-X-X-X-X-X-X-X-X",
"% % % % % % % % % % % % % % % % @ @ @ @ @ @ @ @ & % & @ + # # # # # + + + + + + + + + + + + + + + + + + # # # # ; # ; F T ] ] ] ] ] ` ` ` ` ` ` ` ` ` ` ` ` o.o.o.` ` ` ` ` ` ` ` ` ' ' ' ' ) ) ` ` ` ` ` ` ` ` ` ` ` ` ` ` ` ` ) ) &.;.4X,X2X<X<X<X1X1X1X1X1X1X1X1X1X1X1X1X1X1X1X1X1X1X1X1X1X1X1X1X1X1X1X1X1X1X1X1X1X1X1X1X1X1X1X1X1X1X1X1X1X1X1X1X1X1X1X1X1X1X1X1X1X1X1X1X1X1X1X1X1X1X1X1X1X1X1X,X,X,X5X=.Y F F H K K K K H H K J J J J J J J J J J J J J J J J P J J K K P Y  .$X$X*.*.........=.+X+X+X+X-X;X-X-X-X-X-X-X-X-X:X:X8X8X#X(.~.!.R Z B 0 9 9 < 9 7 e d e t t e d d d d d d e 2 2 2 d g g g z x 2.2.2.2.2.2.2.3.3.t.t.t.t.t.t.t.t.3.3.3.3.3.2.2.2.1.4.g g i 2 2 2 2 2 2 2 e e e r t 7 7 7 7 0 0 V Z R R ~.+X#X#X#X+X:X:X-X-X-X:X-X-X-X-X-X;X;X;X;X-X-X-X-X-X-X-X-X-X-X-X-X-X-X-X-X-X-X-X-X-X-X-X-X-X-X-X-X-X-X-X-X-X-X-X-X-X-X-X-X-X-X-X-X-X-X-X-X-X-X-X-X-X-X-X-X-X-X-X-X-X-X-X-X-X-X-X-X-X-X-X-X-X-X-X-X-X-X-X-X-X-X-X-X-X-X-X-X-X-X-X-X-X-X-X-X-X-X-X-X-X-X-X-X-X-X-X-X-X-X-X-X-X-X-X-X-X-X-X-X-X-X-X-X-X-X-X-X-X-X-X-X-X-X-X-X-X-X-X-X-X-X-X-X-X-X-X-X-X-X-X-X-X-X-X-X-X-X-X-X-X-X-X-X-X-X-X-X-X-X-X-X-X-X-X-X-X-X-X-X-X-X-X-X-X-X-X-X-X-X-X-X-X-X-X-X-X-X-X-X-X-X-X-X-X-X-X-X-X-X-X-X-X-X-X-X-X-X-X-X-X-X-X-X-X-X-X-X-X-X-X",
"% % % % % % % % % % % % % % % % @ @ @ @ @ @ & & & % & @ @ + # # # # # # + + + + + + + + + + + + + + + + + # # # ; ; , G T ] ] ] ] ` ` ` ` o.` ` ` ` ` ` ` ` o.o.o.` ] ] ` ` ` ` ` ` ' ' ) ) ) ' ` ` ` ` ` ` ` ` ` ` ` ` ` ` ` ` ' ) -.>X4X2X<X<X<X<X1X1X1X1X1X1X1X1X1X1X1X1X1X1X1X1X1X1X1X1X1X1X1X1X1X1X1X1X1X1X1X1X1X1X1X1X1X1X1X1X1X1X1X1X1X1X1X1X1X1X1X1X1X1X1X1X1X1X1X1X1X1X1X1X1X1X1X1X1X1X1X,X,X6X6X..G F F H H K K K H H K J J J J J J J J J J J J J J J K P J J K K P Y $X$X$X*.*.........=.+X+X+X-X-X+X-X-X-X-X-X-X-X-X+X+X+X~.{ A V q 9 0 < < < < < < 2 t e e e d g z g g g g d e 2 2 2 g 2.3.2.3.3.3.t.t.t.s.s.a.a.a.b.b.b.b.b.b.b.m.M.M.M.m.b.b.a.a.s.s.t.3.2.4.g g g g 3 2 2 i i e e e e t t 7 7 9 9 0 q V R R ~.~.(.+X:X:X+X-X-X+X-X-X-X-X;X;X;X;X-X-X-X-X-X-X-X-X-X-X-X-X-X-X-X-X-X-X-X-X-X-X-X-X-X-X-X-X-X-X-X-X-X-X-X-X-X-X-X-X-X-X-X-X-X-X-X-X-X-X-X-X-X-X-X-X-X-X-X-X-X-X-X-X-X-X-X-X-X-X-X-X-X-X-X-X-X-X-X-X-X-X-X-X-X-X-X-X-X-X-X-X-X-X-X-X-X-X-X-X-X-X-X-X-X-X-X-X-X-X-X-X-X-X-X-X-X-X-X-X-X-X-X-X-X-X-X-X-X-X-X-X-X-X-X-X-X-X-X-X-X-X-X-X-X-X-X-X-X-X-X-X-X-X-X-X-X-X-X-X-X-X-X-X-X-X-X-X-X-X-X-X-X-X-X-X-X-X-X-X-X-X-X-X-X-X-X-X-X-X-X-X-X-X-X-X-X-X-X-X-X-X-X-X-X-X-X-X-X-X-X-X-X-X-X-X-X-X-X-X-X-X-X-X-X-X-X-X-X-X-X",
"% % % % % % % % % % % % % % % % @ @ @ @ @ @ & & & & % & @ + # # # # # # + + + + + + + + + + + + + + + + + # # # ; ; , Y ] ] ] ] ] ` ` ` ` ` ` ` ` ` ` ` ` ` o.o.` ` ] ` ` ` ` ` ` ' ' ' ) ) ) ' ` ` ` ` ` ` ` ` ` ` ` ` ` ` ` ` ) ) -.>X4X2X<X<X<X<X1X1X1X1X1X1X1X1X1X1X1X1X1X1X1X1X1X1X1X1X1X1X1X1X1X1X1X1X1X1X1X1X1X1X1X1X1X1X1X1X1X1X1X1X1X1X1X1X1X1X1X1X1X1X1X1X1X1X1X1X1X1X1X1X1X1X1X1X1X1X1X,X3X5X5X[ F F F H H K K K K K J J J J J K K K K J J J J J J J K U P K K K P E $X$X*.*.*...=.....=.+X+X+X-X-X+X-X-X-X+X+X+X+X+X~.{ R V 0 0 0 0 < 7 2 2 2 2 2 2 e e g g z z k z 2.2.2.4.x g d e g 2.s.s.t.t.t.t.t.s.r.r.a.a.a.a.M.m.m.m.M.m.M.m.M.M.M.m.m.m.b.a.a.a.a.a.a.s.t.t.2.1.<.g g i 3 2 e e e e e e t 2 t 7 7 9 0 0 Z Z { (.#X#X+X:X:X+X-X-X-X;X;X;X;X;X-X-X-X-X-X-X-X-X-X-X-X-X-X-X-X-X-X-X-X-X-X-X-X-X-X-X-X-X-X-X-X-X-X-X-X-X-X-X-X-X-X-X-X-X-X-X-X-X-X-X-X-X-X-X-X-X-X-X-X-X-X-X-X-X-X-X-X-X-X-X-X-X-X-X-X-X-X-X-X-X-X-X-X-X-X-X-X-X-X-X-X-X-X-X-X-X-X-X-X-X-X-X-X-X-X-X-X-X-X-X-X-X-X-X-X-X-X-X-X-X-X-X-X-X-X-X-X-X-X-X-X-X-X-X-X-X-X-X-X-X-X-X-X-X-X-X-X-X-X-X-X-X-X-X-X-X-X-X-X-X-X-X-X-X-X-X-X-X-X-X-X-X-X-X-X-X-X-X-X-X-X-X-X-X-X-X-X-X-X-X-X-X-X-X-X-X-X-X-X-X-X-X-X-X-X-X-X-X-X-X-X-X-X-X-X-X-X-X-X-X-X-X-X-X-X-X-X-X-X-X-X",
"% % % % % % % % % % % % % % % % % % @ @ @ @ % % @ @ & @ @ + # # + + # # # # + + + + # # + + + + + + + + + # # # # , Y ]  . .] ] ] ` ` ` ` ` ` ` ` ` ` ` ` ` ` ` ` ` ` ` ` ` ` ` ` ' ' ) ) ) / ) ' ' ' ' ` ` ` ` ` ` ` ` ` ` ` _ ) / -.4X2X<X<X,X<X1X<X<X1X1X1X1X1X1X1X1X1X1X1X1X1X1X1X1X1X1X1X1X1X1X1X1X1X1X1X1X1X1X1X1X1X1X1X1X1X1X1X1X1X1X1X1X1X1X1X1X1X1X1X1X<X<X<X<X<X<X<X<X<X<X<X<X<X<X<X1X1X,X2X5X:X] , F F F H H J J J J J J J J K H H H P K J J J J J J U U J J K K Y  .$X$X$X=.=.......=.=.+X+X-X+X-X:X:X:X8X#X+X(.{ R n c 0 0 7 7 d t e e e 2 2 2 3 e i g g z z 2.3.7.3.3.t.3.2.z g g g 3.s.a.r.a.a.t.a.a.a.a.a.a.r.r.r.r.r.z.z.z.z.z.z.r.z.r.z.r.r.r.a.a.a.a.a.a.a.a.t.t.t.t.2.1.g g 3 2 2 2 2 2 e e t t t 7 7 7 8 0 n Z R ~.(.#X#X:X:X-X-X;X;X;X>.;X-X-X-X-X-X-X-X-X-X-X-X-X-X-X-X-X-X-X-X-X-X-X-X-X;X;X;X;X-X-X-X-X-X-X-X-X-X-X-X-X-X-X-X-X-X-X-X-X-X-X-X-X-X-X-X-X-X-X-X-X-X-X-X-X-X-X-X-X-X-X-X-X-X-X-X-X-X-X-X-X-X-X-X-X-X-X-X-X-X-X-X-X-X-X-X-X-X-X-X-X-X-X-X-X-X-X-X-X-X-X-X-X-X-X-X-X-X-X-X-X-X-X-X-X-X-X-X-X-X-X-X-X-X-X-X-X-X-X-X-X-X-X-X-X-X-X-X-X-X-X-X-X-X-X-X-X-X-X-X-X-X-X-X-X-X-X-X-X-X-X-X-X-X-X-X-X-X-X-X-X-X-X-X-X-X-X-X-X-X-X-X-X-X-X-X-X-X-X-X-X-X-X-X-X-X-X-X-X-X-X-X-X-X-X-X-X-X-X-X-X-X-X-X-X-X-X-X-X-X-X-X",
"% % % % % % % % % % % % % % % % % % @ @ @ @ % % @ % & & @ + # # + + # # # # + + + + # # + + + + + + + + + # # # ; , Y  . .] ] ] ] ` ` ` ` ` ` ` ` ` ` ` ` ` ` ` ` ` ` ` ` ` ` ` ' ' ) ) ) ) / ) ' ' ' ' ` ` ` ` ` ` ` ` ` ` ` _ _ / =.4X<X,X,X,X1X1X<X1X1X1X1X1X1X1X1X1X1X1X1X1X1X1X1X1X1X1X1X1X1X1X1X1X1X1X1X1X1X1X1X1X1X1X1X1X1X1X1X1X1X1X1X1X1X1X1X1X1X1X1X1X<X<X<X<X<X<X<X<X<X<X<X<X<X<X<X1X1X1X2X5X+XY , F F H H H J J K K J J J J K K H H P P K J J J J J J J J J K K Y  .*.*.............=.+X+X+X+X+X+X#X8X#X+X~.R V B 0 7 e e e d d e e i i i i i g g g 4.2.2.2.3.3.s.s.s.s.t.2.1.g g g g t.a.a.r.a.a.r.r.a.a.a.a.r.r.r.a.b.b.b.b.b.b.b.b.b.b.b.b.b.b.b.r.r.r.r.r.r.a.a.a.a.a.a.t.t.2.2.4.<.g 3 2 2 e e e e e e r t t t 7 7 0 q Z R ~.(.+X+X:X-X+X+X;X;X-X:X-X-X-X-X-X;X;X;X-X-X-X-X-X;X-X-X-X-X-X-X-X-X;X;X;X;X-X-X-X-X-X-X-X-X-X-X-X-X;X;X-X-X-X-X-X-X-X-X-X-X-X-X-X-X-X-X-X-X-X-X-X-X-X-X-X-X-X-X-X-X-X-X-X-X-X-X-X-X-X-X-X-X-X-X-X-X-X-X-X-X-X-X-X-X-X-X-X-X-X-X-X-X-X-X-X-X-X-X-X-X-X-X-X-X-X-X-X-X-X-X-X-X-X-X-X-X-X-X-X-X-X-X-X-X-X-X-X-X-X-X-X-X-X-X-X-X-X-X-X-X-X-X-X-X-X-X-X-X-X-X-X-X-X-X-X-X-X-X-X-X-X-X-X-X-X-X-X-X-X-X-X-X-X-X-X-X-X-X-X-X-X-X-X-X-X-X-X-X-X-X-X-X-X-X-X-X-X-X-X-X-X-X-X-X-X-X-X-X-X-X-X-X-X-X-X-X-X-X-X",
"% % % % % % % % % % % % % % % % % % @ @ @ @ % % % % % & @ + # # + + + + # + + + + + # # + + + + + + + # + # # # : V ]  .] ] ] ] ] ` ` ` ` ` ` ` ` ` ` ` ` ` ` ` ` ` ` ` ` ` ` ` ' ' ' ' ) ) ) ) ' ' ' ' ` ` ` ` ` ` ` ` ` ` ` _ / ' =.4X<X<X,X,X1X1X<X1X1X1X1X1X1X1X1X1X1X1X1X1X1X1X1X1X1X1X1X1X1X1X1X1X1X1X1X1X1X1X1X1X1X1X1X1X1X1X1X1X1X1X1X1X1X1X1X1X1X1X1X1X<X<X<X<X<X<X<X<X<X<X<X<X<X<X<X1X1X1X5X5X=.Y F F F F H K K J K K J J J J J K H H P P K J J J J J J J J K P P T  .*.*.........=.=.+X+X:X+X+X#X#X#X(.!.R V 0 > < < < 2 2 2 2 e e 2 i g g <.1.2.2.3.s.s.s.s.s.s.s.s.n.s.3.1.4.g g g 1.t.b.a.r.a.a.a.r.r.a.a.a.a.r.r.m.m.m.m.m.m.m.m.m.m.m.m.m.m.m.m.r.r.r.r.r.r.a.a.b.b.m.m.b.a.a.t.3.3.2.4.g g 3 2 2 e e e e e t s 7 7 7 9 9 0 V V R { (.+X+X:X:X-X-X-X-X;X;X;X-X;X;X;X-X-X-X-X-X-X-X-X-X-X-X-X-X-X;X;X-X;X-X-X;X;X;X-X-X-X-X-X;X;X;X;X;X;X;X;X-X-X-X-X-X-X-X-X-X-X-X-X-X-X-X-X-X-X-X-X-X-X-X-X-X-X-X-X-X-X-X-X-X-X-X-X-X-X-X-X-X-X-X-X-X-X-X-X-X-X-X-X-X-X-X-X-X-X-X-X-X-X-X-X-X-X-X-X-X-X-X-X-X-X-X-X-X-X-X-X-X-X-X-X-X-X-X-X-X-X-X-X-X-X-X-X-X-X-X-X-X-X-X-X-X-X-X-X-X-X-X-X-X-X-X-X-X-X-X-X-X-X-X-X-X-X-X-X-X-X-X-X-X-X-X-X-X-X-X-X-X-X-X-X-X-X-X-X-X-X-X-X-X-X-X-X-X-X-X-X-X-X-X-X-X-X-X-X-X-X-X-X-X-X-X-X-X-X-X-X-X-X-X-X-X",
"% % % % % % % % % % % % % % % % % % @ @ @ @ % % % % % & @ + # # + + + + + + + + + + # # + + + + + + + + # # # ; , Y  . . .] ] ] ` ` ` ` ` ` ` ` ` ` ` ` ` ` ` ` ` ` ` ` ` ` ` ` ` ' ' ' ' ) ) ) ' ' ' ' ` ` ` ` ` ` ` ` ` ` ` _ / &.>.4X<X<X,X<X1X1X<X<X1X1X1X1X1X1X1X1X1X1X1X1X1X1X1X1X1X1X1X1X1X1X1X1X1X1X1X1X1X1X1X1X1X1X1X1X1X1X1X1X1X1X1X1X1X1X1X1X1X1X1X1X<X<X<X<X<X<X<X<X<X<X<X<X<X<X<X1X1X<X5X>X} G F F F F H H K P K K J J J J J H K H P P K K J J J J J J J K P I E  .*.*.*.*.*.*.*.=.$X+X#X#X#X+X~.R V q 0 9 < < < 7 t 2 2 2 3 d g g 4.4.2.3.s.s.s.s.s.s.s.s.n.n.N.M.s.t.2.g g g 1.2.3.r.b.a.a.a.m.m.r.r.a.a.a.a.r.r.m.m.m.m.m.m.m.m.m.m.m.m.m.m.m.m.r.r.r.r.r.r.a.a.a.a.b.b.b.b.b.a.a.a.s.t.2.1.g g e 3 e e e t t t r r r t u 7 0 0 q V R { (.#X#X#X+X+X+X-X-X;X-X-X;X;X-X-X-X-X-X-X-X-X-X-X-X-X-X-X-X-X-X-X-X-X;X;X;X-X-X-X-X-X-X;X;X;X;X;X;X;X;X-X-X-X-X-X-X-X-X-X-X-X-X-X-X-X-X-X-X-X-X-X-X-X-X-X-X-X-X-X-X-X-X-X-X-X-X-X-X-X-X-X-X-X-X-X-X-X-X-X-X-X-X-X-X-X-X-X-X-X-X-X-X-X-X-X-X-X-X-X-X-X-X-X-X-X-X-X-X-X-X-X-X-X-X-X-X-X-X-X-X-X-X-X-X-X-X-X-X-X-X-X-X-X-X-X-X-X-X-X-X-X-X-X-X-X-X-X-X-X-X-X-X-X-X-X-X-X-X-X-X-X-X-X-X-X-X-X-X-X-X-X-X-X-X-X-X-X-X-X-X-X-X-X-X-X-X-X-X-X-X-X-X-X-X-X-X-X-X-X-X-X-X-X-X-X-X-X-X-X-X-X-X-X-X",
"% % % % % % % % % % % % % % % % % % @ @ @ @ % % & % % & @ @ # # # # # + + + + + + + # # + + + + + + + + # # # ; V ]  .] ] ] ] ] ` ` ` ` ` ` ` ` ` ` ` ` ` ` ` ` ` ` ` ` ` ` ` ` ` _ _ ' ' ' ' ' ' ` ` ` ` ` ` ` ` ` ` ` ` ` ` _ / &.;.2X<X<X,X1X1X<X1X1X1X1X3X3X1X1X1X1X1X1X1X1X1X1X1X1X1X1X1X1X1X1X1X1X1X1X1X1X1X1X1X1X1X1X1X1X1X1X1X1X1X1X1X1X1X1X1X1X1X1X1X1X<X<X<X<X<X<X<X<X<X<X<X<X<X<X<X<X3X<X5X>X[ G F F F F F H H P K K J J J J K K K H K K K K J J J J K H K K K Y E  . . .~.~.~.~.$X$X$X~.~.{ R V V 0 9 < < < 2 2 2 3 d d g g g 2.2.3.s.s.s.s.s.s.s.s.s.s.s.s.n.n.n.M.t.2.g g g 1.2.3.t.r.b.a.r.a.m.m.a.a.a.a.h.h.m.c.z.z.c.c.c.m.m.m.m.m.m.m.m.m.m.m.z.z.z.r.b.b.b.b.r.b.b.b.b.b.b.a.a.b.b.b.a.t.3.2.g g g d e 2 2 2 2 e i p h f f d 0 0 0 q V R ~.$X+X+X:X:X+X+X;X-X;X;X;X;X-X-X-X-X-X-X-X-X-X-X-X-X-X-X-X-X;X;X;X;X;X;X-X-X-X-X;X;X;X;X;X;X;X;X;X;X-X-X-X-X-X-X-X-X-X-X-X-X-X-X-X-X-X-X-X-X-X-X-X-X-X-X-X-X-X-X-X-X-X-X-X-X-X-X-X-X-X-X-X-X-X-X-X-X-X-X-X-X-X-X-X-X-X-X-X-X-X-X-X-X-X-X-X-X-X-X-X-X-X-X-X-X-X-X-X-X-X-X-X-X-X-X-X-X-X-X-X-X-X-X-X-X-X-X-X-X-X-X-X-X-X-X-X-X-X-X-X-X-X-X-X-X-X-X-X-X-X-X-X-X-X-X-X-X-X-X-X-X-X-X-X-X-X-X-X-X-X-X-X-X-X-X-X-X-X-X-X-X-X-X-X-X-X-X-X-X-X-X-X-X-X-X-X-X-X-X-X-X-X-X-X-X-X-X-X-X-X-X-X",
"% % % % % % % % % % % % % % % % % % @ @ @ @ % % & % % & @ @ + # # # + + + + + # + + # # + + + + + + + # # # ; , Y  . .] ] ] ] ] ` ` ` ` ` ` ` ` ` ` ` ` ` ` ` ` ` ` ` ` ` ` ` ` ` ` _ ' ' ' ' ' ` ` ` ` ` ` ` ` ` ` ` ` ` ` ` _ / -.;.4X2X1X,X1X<X<X1X1X1X1X3X3X1X1X1X1X1X1X1X1X1X1X1X1X1X1X1X1X1X1X1X1X1X1X1X1X1X1X1X1X1X1X1X1X1X1X1X1X1X1X1X1X1X1X1X1X1X1X1X1X<X<X<X<X<X<X<X<X<X<X<X<X<X<X<X<X3X2X5X>X] F F F F F F F H K K K J J J J K K H H K K J J J J J J J P K K K Y E  . .~.~.~.~.~.$X$X~.R V q 0 9 < < < < < 2 2 3 i g g g 2.2.s.s.s.s.s.s.s.a.s.s.s.s.s.s.s.s.s.s.s.s.1.1.g g 1.2.t.t.a.a.a.a.a.a.m.m.a.a.a.a.a.a.m.c.z.z.z.z.z.z.z.z.z.z.z.z.z.z.z.z.z.z.r.r.b.b.b.b.b.b.b.b.b.b.b.b.m.m.m.m.a.a.a.a.t.3.1.g g d e 3 e 2 2 e w i i e d d 7 9 9 0 V V ~.~.+X#X:X:X-X;X;X;X;X;X-X-X-X-X-X-X:X-X-X-X-X-X-X-X-X-X;X;X;X;X;X;X-X-X-X-X;X;X;X;X;X-X;X;X-X-X-X-X-X-X-X-X-X-X-X-X-X-X-X-X-X-X-X-X-X-X-X-X-X-X-X-X-X-X-X-X-X-X-X-X-X-X-X-X-X-X-X-X-X-X-X-X-X-X-X-X-X-X-X-X-X-X-X-X-X-X-X-X-X-X-X-X-X-X-X-X-X-X-X-X-X-X-X-X-X-X-X-X-X-X-X-X-X-X-X-X-X-X-X-X-X-X-X-X-X-X-X-X-X-X-X-X-X-X-X-X-X-X-X-X-X-X-X-X-X-X-X-X-X-X-X-X-X-X-X-X-X-X-X-X-X-X-X-X-X-X-X-X-X-X-X-X-X-X-X-X-X-X-X-X-X-X-X-X-X-X-X-X-X-X-X-X-X-X-X-X-X-X-X-X-X-X-X-X-X-X-X-X-X",
"% % % % % % % % % % % % % % % % % % @ @ @ % % % & & % & @ @ + # # # + + + + # # + + + # + + + + + + # # # # : P ]  . .] ] ] ] ] ` ` ` ` ` ` ` ` ` ` ` ` ` ` ` ` ` ` ` ` ` ` ` ` _ _ _ ' ' ' _ _ ) ) ` ` ` ` ` ` ` ` ` ` ` ` ` _ / -.>X4X2X<X,X3X<X<X1X1X1X1X3X3X1X1X1X1X1X1X1X1X1X1X1X1X1X1X1X1X1X1X1X1X1X1X1X1X1X1X1X1X1X1X1X1X1X1X1X1X1X1X1X1X1X1X1X1X1X1X1X1X<X<X<X<X<X<X<X<X<X<X<X<X<X<X<X<X<X2X5X=.T F F F F F F F K K K K J K K J H H H H J J J J J J J J J J J K K R  .~.$X$X$X$X~.~.E R Z Z 0 9 9 9 7 7 < 2 2 2 g g 4.4.2.3.s.s.s.a.s.a.a.a.s.a.s.s.s.s.M.n.s.a.s.s.t.3.g g g <.3.t.a.a.a.a.r.b.m.a.c.m.b.b.a.a.a.a.a.a.z.z.z.z.z.z.z.z.z.z.z.z.z.z.z.z.z.z.z.z.b.b.b.b.m.m.b.b.b.b.b.b.m.b.m.m.m.m.m.h.a.a.t.t.2.2.<.<.g i e 2 e i i i e r r 7 7 9 9 9 0 V R ~.+X+X+X+X-X;X;X;X-X-X-X-X-X-X-X-X-X-X-X-X-X-X-X-X;X;X;X;X;X;X;X-X-X-X;X;X;X;X-X-X-X-X-X-X-X-X-X-X-X-X-X-X-X-X-X-X-X-X-X-X-X-X-X-X-X-X-X-X-X-X-X-X-X-X-X-X-X-X-X-X-X-X-X-X-X-X-X-X-X-X-X-X-X-X-X-X-X-X-X-X-X-X-X-X-X-X-X-X-X-X-X-X-X-X-X-X-X-X-X-X-X-X-X-X-X-X-X-X-X-X-X-X-X-X-X-X-X-X-X-X-X-X-X-X-X-X-X-X-X-X-X-X-X-X-X-X-X-X-X-X-X-X-X-X-X-X-X-X-X-X-X-X-X-X-X-X-X-X-X-X-X-X-X-X-X-X-X-X-X-X-X-X-X-X-X-X-X-X-X-X-X-X-X-X-X-X-X-X-X-X-X-X-X-X-X-X-X-X-X-X-X-X-X-X-X-X-X",
"% % % % % % % % % % % % % % % % % % @ @ @ % % % % % & & @ @ + # # # + + + + # # + + + + + + + + # # # # # # , Y ] ] ] ] ] ] ] ] ` ` ` ` ` ` ` ` ` ` ` ` ` ` ` ` ` ` ` ` ` ` ` ` _ _ _ _ _ ' _ _ ) ` ` ` ` ` ` ` ` ` ` ` ` ` ` _ / -.>X4X2X<X,X3X<X<X1X1X1X1X3X3X1X1X1X1X1X1X1X1X1X1X1X1X1X1X1X1X1X1X1X1X1X1X1X1X1X1X1X1X1X1X1X1X1X1X1X1X1X1X1X1X1X1X1X1X1X1X1X1X<X<X<X<X<X<X<X<X<X<X<X<X<X<X<X<X<X2X5X=.Y , F H F F H H K K K K K K K K H J J K J J U U U U U U U U U K U R ~.$X$X$X#X'.'.A.V q 7 7 7 7 7 7 7 2 2 2 g g g 2.3.3.s.s.s.a.s.a.a.h.M.n.b.s.s.s.a.b.M.n.a.a.a.t.2.1.g g g 1.t.a.a.a.a.a.a.b.m.b.r.r.m.b.a.a.a.a.a.a.z.z.z.z.c.c.c.c.c.c.c.c.c.c.c.c.z.z.z.z.b.b.b.b.b.b.b.b.a.b.b.b.z.c.m.m.m.m.r.r.m.m.m.h.a.s.t.t.2.4.g i i i i e i i w t t 7 7 8 9 9 0 V R ~.+X+X:X-X-X-X-X-X-X-X-X-X-X-X-X-X-X-X-X-X-X-X;X;X;X;X;X;X-X-X-X-X;X;X-X;X-X-X-X-X-X-X-X-X-X-X-X-X-X-X-X-X-X-X-X-X-X-X-X-X-X-X-X-X-X-X-X-X-X-X-X-X-X-X-X-X-X-X-X-X-X-X-X-X-X-X-X-X-X-X-X-X-X-X-X-X-X-X-X-X-X-X-X-X-X-X-X-X-X-X-X-X-X-X-X-X-X-X-X-X-X-X-X-X-X-X-X-X-X-X-X-X-X-X-X-X-X-X-X-X-X-X-X-X-X-X-X-X-X-X-X-X-X-X-X-X-X-X-X-X-X-X-X-X-X-X-X-X-X-X-X-X-X-X-X-X-X-X-X-X-X-X-X-X-X-X-X-X-X-X-X-X-X-X-X-X-X-X-X-X-X-X-X-X-X-X-X-X-X-X-X-X-X-X-X-X-X-X-X-X-X-X-X-X-X",
"% % % % % % % % % % % % % % % % % % % % @ @ % % % % % & & @ + # # # # + + + # # + + + + + + + + # # # # # : Y ]  .] ] ] ] ] ] ] ` ` ` ` ` ` ` ` ` ` ` ` ` ` ` ` ` ` ` ` ` ` ` ` ` ` ` ` _ _ _ _ ` ` ` ` ` ` ` ` ` ` ` ` ` ` ` ` ) >.4X2X2X<X<X3X<X<X1X1X1X1X1X1X1X1X1X1X1X1X1X1X1X1X1X1X1X1X1X1X1X1X1X1X1X1X1X1X1X1X1X1X1X1X1X1X1X1X1X1X1X1X1X1X1X1X1X1X1X1X1X1X<X<X<X<X<X<X<X<X<X<X<X<X<X<X<X2X2X5X5X=.Y F H F F H H H H K K J K K K J J J J U U K K K U U V V V q q q q V U W W R R A.A.Z q 0 7 t t t t e d d d d g 4.2.t.s.a.s.a.a.a.a.a.a.a.M.b.a.a.a.b.b.b.b.b.b.a.t.2.1.<.g 1.3.t.r.r.r.r.a.r.b.b.b.b.b.b.a.a.z.z.z.z.r.r.z.z.z.z.z.z.z.z.z.z.z.z.z.z.z.z.c.c.c.c.c.c.b.b.b.b.b.b.b.b.b.b.z.c.c.c.c.z.z.z.z.r.b.a.a.a.b.a.a.s.s.3.2.g g e 2 2 e w r r w t 8 8 8 9 0 V R ~.#X+X+X+X-X-X-X-X-X;X-X;X-X-X-X-X-X-X-X-X-X-X;X;X-X-X-X-X;X-X-X-X-X-X;X;X;X;X;X;X-X-X-X-X-X-X-X-X-X-X-X-X-X-X-X-X-X-X-X-X-X-X-X-X-X-X-X-X-X-X-X-X-X-X-X-X-X-X-X-X-X-X-X-X-X-X-X-X-X-X-X-X-X-X-X-X-X-X-X-X-X-X-X-X-X-X-X-X-X-X-X-X-X-X-X-X-X-X-X-X-X-X-X-X-X-X-X-X-X-X-X-X-X-X-X-X-X-X-X-X-X-X-X-X-X-X-X-X-X-X-X-X-X-X-X-X-X-X-X-X-X-X-X-X-X-X-X-X-X-X-X-X-X-X-X-X-X-X-X-X-X-X-X-X-X-X-X-X-X-X-X-X-X-X-X-X-X-X-X-X-X-X-X-X-X-X-X-X-X-X-X-X-X-X-X-X-X-X-X-X-X-X-X",
"% % % % % % % % % % % % % % % % % % % % @ @ % % % % % % & @ + # # # # + + + # + + + + + + + + + # # # # ; , Y ]  .] ] ] ] ] ] ] ` ` ` ` ` ` ` ` ` ` ` ` ` ` ` ` ` ` ` ` ` ` ` ` ` ` ` ` _ _ _ ` ` ` ` ` ` ` ` ` ` ` ` ` ` ` ` ` ' >.4X2X2X<X<X3X<X<X1X1X1X1X1X1X1X1X1X1X1X1X1X1X1X1X1X1X1X1X1X1X1X1X1X1X1X1X1X1X1X1X1X1X1X1X1X1X1X1X1X1X1X1X1X1X1X1X1X1X1X1X1X1X<X<X<X<X<X<X<X<X<X<X<X<X<X<X<X2X<X5X>X=.G F H K H H H H K K K J H K J J U U K U V V q q q q q q q m 9 9 9 9 > 9 9 9 0 n n n 0 7 t e e d d d g g x 2.2.3.t.t.s.s.a.a.a.a.a.a.a.a.M.b.a.a.a.b.b.M.b.b.a.t.2.1.<.<.1.2.t.r.r.r.r.a.r.r.b.b.b.b.b.b.a.a.z.z.z.z.r.r.z.z.z.z.z.z.z.z.z.z.z.z.z.z.z.z.c.c.c.c.c.c.b.b.b.b.b.b.b.b.b.c.c.c.c.c.c.c.z.z.z.z.b.b.b.a.b.b.a.a.a.s.t.2.4.g g e e e e e w e w u u 7 9 0 q V R ~.+X#X+X+X-X-X-X-X-X-X-X:X-X;X-X-X-X-X-X-X;X;X-X-X-X;X;X-X-X-X-X-X-X-X;X;X;X;X-X-X-X-X-X-X-X-X-X-X-X-X-X-X-X-X-X-X-X-X-X-X-X-X-X-X-X-X-X-X-X-X-X-X-X-X-X-X-X-X-X-X-X-X-X-X-X-X-X-X-X-X-X-X-X-X-X-X-X-X-X-X-X-X-X-X-X-X-X-X-X-X-X-X-X-X-X-X-X-X-X-X-X-X-X-X-X-X-X-X-X-X-X-X-X-X-X-X-X-X-X-X-X-X-X-X-X-X-X-X-X-X-X-X-X-X-X-X-X-X-X-X-X-X-X-X-X-X-X-X-X-X-X-X-X-X-X-X-X-X-X-X-X-X-X-X-X-X-X-X-X-X-X-X-X-X-X-X-X-X-X-X-X-X-X-X-X-X-X-X-X-X-X-X-X-X-X-X-X-X-X-X-X",
"% % % % % % % % % % % % % % % % % @ @ % @ @ % % % % % % & @ + # # # + + + + + + + + + + + + + + # # # # ; V T ]  .] ] ] ] ] ` ` ` ` ` ` ` ` ` ` ` ` ` ` ` ` ` ` ` ` ` ` ` ` ` ` ` ` ` ` ` ` ` ` ` ` ` ` ` ` ` ` ` ` ` ` ` ` ` ` [ >.4X2X<X<X<X1X<X<X1X1X1X1X1X1X1X1X1X1X1X1X1X1X1X1X1X1X1X1X1X1X1X1X1X1X1X1X1X1X1X1X1X1X1X1X1X1X1X1X1X1X1X1X1X1X1X1X1X1X1X1X1X1X<X<X<X<X<X<X<X<X<X<X<X<X<X<X<X2X2X5X>X[ F F K K J J H H K K K K K K K K U U V q q q q m m m m m 0 0 9 9 9 9 9 9 9 9 9 7 8 8 7 7 e d d d g x 2.2.t.t.t.t.s.s.s.a.a.a.a.a.a.a.b.b.b.a.a.a.b.M.M.b.a.a.t.3.<.<.1.1.t.t.r.r.r.r.r.a.r.r.b.b.b.z.c.c.z.z.z.z.z.z.z.z.z.z.z.z.z.z.z.z.z.z.z.z.z.z.z.z.c.c.c.c.c.c.c.c.c.c.c.c.c.c.c.c.c.c.c.c.c.c.c.c.z.z.z.z.z.z.c.b.b.b.n.b.a.s.t.t.2.x g i e 2 e w w w w t 7 7 7 9 0 Z R ~.+X+X:X+X-X-X-X-X-X-X-X-X-X-X-X-X-X-X;X;X-X-X;X;X;X;X-X-X-X-X-X-X-X-X;X-X-X-X-X-X-X-X-X-X-X-X-X-X-X-X-X-X-X-X-X-X-X-X-X-X-X-X-X-X-X-X-X-X-X-X-X-X-X-X-X-X-X-X-X-X-X-X-X-X-X-X-X-X-X-X-X-X-X-X-X-X-X-X-X-X-X-X-X-X-X-X-X-X-X-X-X-X-X-X-X-X-X-X-X-X-X-X-X-X-X-X-X-X-X-X-X-X-X-X-X-X-X-X-X-X-X-X-X-X-X-X-X-X-X-X-X-X-X-X-X-X-X-X-X-X-X-X-X-X-X-X-X-X-X-X-X-X-X-X-X-X-X-X-X-X-X-X-X-X-X-X-X-X-X-X-X-X-X-X-X-X-X-X-X-X-X-X-X-X-X-X-X-X-X-X-X-X-X-X-X-X-X-X-X",
"% % % % % % % % % % % % % % % % @ @ @ @ @ @ % % % % % % & @ + # # + + + + + + + + + + + + + + # # # # ; , Y ] ] ] ] ] ] ` ` ` ` ` ` ` ` ` ` ` ` ` ` ` ` ` ` ` ` ` ` ` ` ` ` ` ` ` ` ` ` ` ` ` ` ` ` ` ` ` ` ` ` ` ` ` ` ` ` ` ` &.;.4X2X2X<X<X<X<X<X1X1X1X1X1X1X1X1X1X1X1X1X1X1X1X1X1X1X1X1X1X1X1X1X1X1X1X1X1X1X1X1X1X1X1X1X1X1X1X1X1X1X1X1X1X1X1X1X1X1X1X1X1X1X<X<X<X<X<X<X<X<X<X<X<X<X<X<X<X2X2X5X;X) F F K K J J K K K J U U U U V V V q q q q m 9 9 9 9 9 9 9 9 9 9 7 8 8 8 f f f d t 7 t t d d g x 2.2.s.s.s.s.a.a.s.t.a.r.a.a.a.a.a.a.a.a.b.a.a.b.b.M.b.b.a.t.2.<.<.<.1.3.r.a.r.r.r.r.r.r.r.r.b.b.b.z.c.c.z.z.z.z.z.z.z.z.z.z.z.z.z.z.z.z.z.z.z.z.z.z.z.z.c.c.c.c.c.c.c.c.c.c.c.c.c.c.c.c.c.c.c.c.c.c.c.c.z.z.z.z.z.z.c.c.z.z.b.b.b.a.a.s.s.s.3.2.g g i 2 i w w w i e r t 7 0 0 V R ~.+X:X:X+X:X:X-X+X+X:X-X-X-X-X-X;X;X;X-X-X;X;X;X;X-X-X-X-X-X-X-X-X-X-X-X-X-X-X-X-X-X-X-X-X-X-X-X-X-X-X-X-X-X-X-X-X-X-X-X-X-X-X-X-X-X-X-X-X-X-X-X-X-X-X-X-X-X-X-X-X-X-X-X-X-X-X-X-X-X-X-X-X-X-X-X-X-X-X-X-X-X-X-X-X-X-X-X-X-X-X-X-X-X-X-X-X-X-X-X-X-X-X-X-X-X-X-X-X-X-X-X-X-X-X-X-X-X-X-X-X-X-X-X-X-X-X-X-X-X-X-X-X-X-X-X-X-X-X-X-X-X-X-X-X-X-X-X-X-X-X-X-X-X-X-X-X-X-X-X-X-X-X-X-X-X-X-X-X-X-X-X-X-X-X-X-X-X-X-X-X-X-X-X-X-X-X-X-X-X-X-X-X-X-X-X-X-X",
"% % % % % % % % % % % % % % % % @ @ @ @ @ @ % % % & % % & @ + # + + + + + + + + # # # # + + + # # # # ; V ]  .] ] ] ] ] ` ` ` ` ` ` ` ` ` ` ` ` ` ` ` ` ` ` ` ` _ _ _ _ ` ` ` ` ` ` ` ` ` ` ` ` ` ` ` ` ` ` ` ` ` ` ` ` ` ` ` ` -.;.4X2X2X1X<X<X<X<X1X1X1X1X1X1X1X1X1X1X1X1X1X1X1X1X1X1X1X1X1X1X1X1X1X1X1X1X1X1X1X1X1X1X1X1X1X1X1X1X1X1X1X1X1X1X1X1X1X1X1X1X1X1X<X<X<X<X<X<X<X<X<X<X<X<X<X<X<X2X2X5X=.Y F F H P J J J J U U U U U V q q q q m 8 8 8 9 9 7 7 7 7 7 7 7 7 t u u d f f d t t s t d g z 2.8.t.s.s.s.s.a.a.a.a.r.r.r.b.b.b.b.b.b.b.b.b.b.a.b.M.M.a.a.t.2.g 4 g 1.t.t.a.b.a.r.r.r.r.r.r.r.z.z.z.z.c.c.z.z.c.c.c.c.c.c.c.c.c.c.c.c.c.c.c.c.c.c.c.c.c.c.c.c.c.c.c.c.c.c.z.z.z.z.c.c.c.c.z.z.z.z.z.z.z.z.z.z.z.z.z.z.c.c.z.z.z.b.b.a.a.a.a.a.a.s.3.2.4.g g e e i i a i t t 7 9 9 q V { (.#X:X:X:X:X:X:X+X-X-X-X-X-X;X;X;X-X-X;X;X;X-X-X-X-X-X-X-X-X-X-X-X-X-X-X-X-X-X-X-X-X-X-X-X-X-X-X-X-X-X-X-X-X-X-X-X-X-X-X-X-X-X-X-X-X-X-X-X-X-X-X-X-X-X-X-X-X-X-X-X-X-X-X-X-X-X-X-X-X-X-X-X-X-X-X-X-X-X-X-X-X-X-X-X-X-X-X-X-X-X-X-X-X-X-X-X-X-X-X-X-X-X-X-X-X-X-X-X-X-X-X-X-X-X-X-X-X-X-X-X-X-X-X-X-X-X-X-X-X-X-X-X-X-X-X-X-X-X-X-X-X-X-X-X-X-X-X-X-X-X-X-X-X-X-X-X-X-X-X-X-X-X-X-X-X-X-X-X-X-X-X-X-X-X-X-X-X-X-X-X-X-X-X-X-X-X-X-X-X-X-X-X-X-X-X",
"% % % % % % % % % % % % % % % % @ @ @ @ @ @ % % & & % % & @ + # + + + + + + + + # # # # + + + # # # ; , Y ]  .] ] ] ] ' ` ` ` ` ` ` ` ` ` ` ` ` ` ` ` ` ` ` ` ` _ _ _ _ ` ` ` ` ` ` ` ` ` ` ` ` ` ` ` ` ` ` ` ` ` ` ` ` ` ` ` ` -.;.4X2X2X3X<X<X<X<X1X1X1X1X1X1X1X1X1X1X1X1X1X1X1X1X1X1X1X1X1X1X1X1X1X1X1X1X1X1X1X1X1X1X1X1X1X1X1X1X1X1X1X1X1X1X1X1X1X1X1X1X1X1X<X<X<X<X<X<X<X<X<X<X<X<X<X<X<X2X2X2X=.G F F H P J J J U U U U U n q q m m 8 8 8 7 7 7 7 t t t t t t t t u t t t t t t r t t r h z x t.s.s.s.s.s.n.n.b.b.b.m.m.b.b.b.b.b.b.b.a.a.a.b.b.b.M.a.a.t.2.<.4 4 <.t.r.a.a.b.b.a.r.r.r.r.r.r.z.z.z.z.c.c.z.z.c.c.c.c.c.c.c.c.c.c.c.c.c.c.c.c.c.c.c.c.c.c.c.c.c.c.c.c.c.c.z.z.z.z.c.c.c.c.z.z.z.z.z.z.z.z.z.z.z.z.z.z.c.c.z.z.b.b.b.b.b.a.a.a.b.a.a.s.t.t.2.z g i e e e e t t 7 0 0 0 V Z ~.+X8X8X+X:X:X+X:X-X-X-X;X;X;X;X;X-X;X;X;X;X-X-X-X-X-X-X-X-X-X-X-X-X-X-X-X-X-X-X-X-X-X-X-X-X-X-X-X-X-X-X-X-X-X-X-X-X-X-X-X-X-X-X-X-X-X-X-X-X-X-X-X-X-X-X-X-X-X-X-X-X-X-X-X-X-X-X-X-X-X-X-X-X-X-X-X-X-X-X-X-X-X-X-X-X-X-X-X-X-X-X-X-X-X-X-X-X-X-X-X-X-X-X-X-X-X-X-X-X-X-X-X-X-X-X-X-X-X-X-X-X-X-X-X-X-X-X-X-X-X-X-X-X-X-X-X-X-X-X-X-X-X-X-X-X-X-X-X-X-X-X-X-X-X-X-X-X-X-X-X-X-X-X-X-X-X-X-X-X-X-X-X-X-X-X-X-X-X-X-X-X-X-X-X-X-X-X-X-X-X-X-X-X-X",
"% % % % % % % % % % % % % % % % % % @ @ @ @ % % & & % % : @ @ # + + # # # # + + + + # # + + + # # # ; V ]  .] ] ] ] ] ` ` ` ` ` ` ` ` ` ` ` ` ` ` ` ` ` ` ` ` ` _ _ _ _ _ _ ` ` ` ` ` ` ` ` ` ` ` ` ` ` ` ` ` ` ` ` ` ` ` ` ` ' =.>X4X<X2X4X<X1X<X<X1X1X1X1X<X<X1X1X1X1X1X1X1X1X1X1X1X1X1X1X1X1X1X1X1X1X1X1X1X1X1X1X1X1X1X1X1X1X1X1X1X1X1X1X1X1X1X1X1X1X1X1X1X1X<X<X<X<X<X<X<X<X<X<X<X<X<X<X<X2X2X>X..G , F H J J J U K K q q q q 0 9 9 8 8 7 7 7 s t y p h r w s t t t t t t t 7 7 s t t t r h 2.8.s.s.s.s.s.n.n.n.b.b.b.b.b.b.b.b.b.b.b.b.a.a.a.b.b.b.b.a.t.3.<.g 4 <.2.t.a.a.a.b.b.b.a.r.r.r.z.z.z.z.z.z.c.c.c.c.c.c.c.c.c.c.c.c.c.c.c.c.c.c.c.c.c.c.c.c.c.c.c.c.c.c.c.c.c.c.z.z.z.z.z.z.z.z.z.z.b.b.b.b.z.z.z.z.z.z.z.z.z.c.m.h.h.m.h.m.m.m.a.b.b.a.b.b.b.s.s.3.4.g i i e e r r t d 7 7 7 0 V { #X#X#X#X:X:X:X-X-X;X;X;X;X;X;X-X;X;X;X;X;X;X-X-X;X-X;X;X;X;X-X-X-X-X-X-X-X-X-X-X-X-X-X-X-X-X-X-X-X-X-X-X-X-X-X-X-X-X-X-X-X-X-X-X-X-X-X-X-X-X-X-X-X-X-X-X-X-X-X-X-X-X-X-X-X-X-X-X-X-X-X-X-X-X-X-X-X-X-X-X-X-X-X-X-X-X-X-X-X-X-X-X-X-X-X-X-X-X-X-X-X-X-X-X-X-X-X-X-X-X-X-X-X-X-X-X-X-X-X-X-X-X-X-X-X-X-X-X-X-X-X-X-X-X-X-X-X-X-X-X-X-X-X-X-X-X-X-X-X-X-X-X-X-X-X-X-X-X-X-X-X-X-X-X-X-X-X-X-X-X-X-X-X-X-X-X-X-X-X-X-X-X-X-X-X-X-X-X-X-X-X-X-X",
"% % % % % % % % % % % % % % % % % % @ @ @ @ % % & % % % : @ @ # # # # # # # + + + # # # # # # # # # ; Y  . .] ] ] ] ` ` ` ` o.o.` ` ` ` ` ` ` ` ` ` ` ` ` ` ` ` ` _ ` _ ` ` ` ` ` ` ` ` ` ` ` ` ` ` ` ` ` ` ` ` ` ` ` ` ` ` ` ' =.>X4X<X2X4X<X1X<X<X1X1X1X1X1X<X1X1X1X1X1X1X1X1X1X1X1X1X1X1X1X1X1X1X1X1X1X1X1X1X1X1X1X1X1X1X1X1X1X1X1X1X1X1X1X1X1X1X1X1X1X1X1X<X2X3X<X1X1X<X2X2X2X2X<X1X1X1X<X<X4X>X[ G , F K K U U U V q q q m 8 9 7 7 7 t t 7 s t r h j h p w s t t r t t t t t t t e e e h z 2.s.s.s.s.s.n.n.b.b.z.z.z.z.r.r.b.b.b.b.b.b.a.a.a.b.b.b.a.a.3.2.4 4 g 1.t.a.a.r.a.b.m.m.b.b.b.b.z.z.z.z.z.z.c.c.c.c.c.c.c.c.c.c.c.c.c.c.c.c.c.c.c.c.c.c.c.c.c.c.c.c.c.c.c.c.c.c.z.z.z.z.z.z.z.z.z.b.b.b.b.b.b.b.z.z.z.z.z.z.z.c.m.h.h.a.h.m.b.b.b.b.b.b.b.z.r.t.t.t.t.2.4.g e e e t t t e e t < > V !.#X#X#X#X:X:X-X-X;X;X;X;X;X-X;X;X;X;X;X;X;X-X-X-X-X-X;X;X;X-X-X-X-X-X-X-X-X-X-X-X-X-X-X-X-X-X-X-X-X-X-X-X-X-X-X-X-X-X-X-X-X-X-X-X-X-X-X-X-X-X-X-X-X-X-X-X-X-X-X-X-X-X-X-X-X-X-X-X-X-X-X-X-X-X-X-X-X-X-X-X-X-X-X-X-X-X-X-X-X-X-X-X-X-X-X-X-X-X-X-X-X-X-X-X-X-X-X-X-X-X-X-X-X-X-X-X-X-X-X-X-X-X-X-X-X-X-X-X-X-X-X-X-X-X-X-X-X-X-X-X-X-X-X-X-X-X-X-X-X-X-X-X-X-X-X-X-X-X-X-X-X-X-X-X-X-X-X-X-X-X-X-X-X-X-X-X-X-X-X-X-X-X-X-X-X-X-X-X-X-X-X-X",
"% % % % % % % % % % % % % % % % % % % % % % % % : % % % & @ @ + # # # # # # + + + + # + + # + # # ; , T  .] ] ] ` ` ' ` _ _ _ _ ` ` ` ` ` ` ` ` ` ` ` ` ` ` ` ` ` ` ` ` ` ` ` ` ` ` ` ` ` ` ` ` ` ` ` _ ` ` ` ` ` T o.o.` ` _ ' >.4X4X2X<X2X3X<X<X1X1X1X1X1X1X1X1X1X1X1X1X1X1X1X1X1X1X1X1X1X1X1X1X1X1X1X1X1X1X1X1X1X1X1X1X1X1X1X1X1X1X1X1X1X1X1X1X1X1X1X1X1X1X1X3X3X1X1X1X<X2X5X5X2X<X:.:.:.:.4X4X>.' F V U U U Z n n m 0 8 8 8 7 t 7 t s s s t e p l 6.6.5.h p r r r r t t t t t e e e e e h 4.s.a.a.a.b.b.b.b.b.b.b.c.c.c.c.c.r.a.b.m.m.b.b.b.a.b.b.a.t.2.<.4 4 <.3.t.r.a.a.b.r.b.b.m.m.b.b.r.r.r.r.r.z.z.c.c.z.z.z.z.z.z.z.z.z.z.z.z.z.z.z.z.z.z.z.z.z.z.z.z.z.z.z.z.z.z.z.z.z.z.z.z.z.z.z.z.z.z.z.z.z.z.z.z.z.z.z.z.z.z.z.z.b.b.b.b.b.b.b.b.b.b.b.b.b.b.b.b.b.a.a.r.t.2.1.g i i e e e e e t d 0 n R (.#X8X+X-X;X;X;X;X+X+X-X-X-X;X;X;X;X;X;X;X-X-X-X-X-X-X-X-X-X-X-X-X-X-X-X-X-X-X-X-X-X-X-X-X-X-X-X-X-X-X-X-X-X-X-X-X-X-X-X-X-X-X-X-X-X-X-X-X-X-X-X-X-X-X-X-X-X-X-X-X-X-X-X-X-X-X-X-X-X-X-X-X-X-X-X-X-X-X-X-X-X-X-X-X-X-X-X-X-X-X-X-X-X-X-X-X-X-X-X-X-X-X-X-X-X-X-X-X-X-X-X-X-X-X-X-X-X-X-X-X-X-X-X-X-X-X-X-X-X-X-X-X-X-X-X-X-X-X-X-X-X-X-X-X-X-X-X-X-X-X-X-X-X-X-X-X-X-X-X-X-X-X-X-X-X-X-X-X-X-X-X-X-X-X-X-X-X-X-X-X-X-X-X-X-X-X-X-X-X-X",
"% % % % % % % % % % % % % % % % % % % % % % % % % % % % & @ @ + # # # # # # + + + + # # # # # # # ; G ] ] ] ] ' ` ' _ _ _ _ _ ` ` ` ` ` ` ` ` ` ` ` ` ` ` ` ` ` ` ` ` ` ` ` ` ` ` ` ` ` ` ` ` ` ` ` _ _ _ _ ` ` ` ` o.o.` ` ' ' >.4X4X<X<X<X3X<X<X<X1X1X1X1X1X1X1X1X1X1X1X1X1X1X1X1X1X1X1X1X1X1X1X1X1X1X1X1X1X1X1X1X1X1X1X1X1X1X1X1X1X1X1X1X1X1X1X1X1X1X1X1X1X1X3X3X1X1X1X<X2X5X2X2X<X:.:.:.:.<X4X=.T V K U Z n n n 8 8 8 7 7 t t t t t e e e r z 4.8.p.0.8.5.j r r t r t t r r e r e e e d z 2.a.r.r.a.b.b.b.b.b.b.c.c.c.c.c.c.b.b.b.m.m.b.b.b.a.b.b.r.3.<.g 4 g 1.t.r.a.a.a.b.a.b.b.m.m.b.b.r.r.r.r.r.z.z.c.c.z.r.z.z.z.z.r.r.z.z.z.z.z.z.z.z.z.z.z.z.z.z.z.z.z.z.z.z.z.z.z.z.z.z.z.z.z.z.z.z.z.z.z.z.z.z.z.z.z.z.z.z.z.z.z.z.b.b.b.b.b.b.b.b.b.b.b.b.b.b.b.b.z.z.b.r.t.3.2.2.g g 2 2 e i i i r t 7 n Z ~.+X:X+X+X-X-X;X-X-X:X-X-X;X;X;X;X;X;X-X-X-X-X-X-X-X-X-X-X-X-X-X-X-X-X-X-X-X-X-X-X-X-X-X-X-X-X-X-X-X-X-X-X-X-X-X-X-X-X-X-X-X-X-X-X-X-X-X-X-X-X-X-X-X-X-X-X-X-X-X-X-X-X-X-X-X-X-X-X-X-X-X-X-X-X-X-X-X-X-X-X-X-X-X-X-X-X-X-X-X-X-X-X-X-X-X-X-X-X-X-X-X-X-X-X-X-X-X-X-X-X-X-X-X-X-X-X-X-X-X-X-X-X-X-X-X-X-X-X-X-X-X-X-X-X-X-X-X-X-X-X-X-X-X-X-X-X-X-X-X-X-X-X-X-X-X-X-X-X-X-X-X-X-X-X-X-X-X-X-X-X-X-X-X-X-X-X-X-X-X-X-X-X-X-X-X-X-X-X-X",
"% % % % % % % % % % % % % % % % % % % % % % % % % % % % & & @ + # # # # # # + + + + # # # # # # # , Y  .] ] ] ] ' ' _ _ _ _ ` ` ` ` ` ` ` ` ` ` ` ` ` ` ` ` ` ` ` ` ` ` ` ` ` ` ` ` ` ` ` ` ` ` ` ` _ _ _ _ ` ` ` ` o.` ` ` _ [ ;.4X4X<X2X<X3X<X1X1X1X1X1X1X1X1X1X1X1X1X1X1X1X1X1X1X1X1X1X1X1X1X1X1X1X1X1X1X1X1X1X1X1X1X1X1X1X1X1X1X1X1X1X1X1X1X1X1X1X1X1X1X1X1X1X1X1X1X<X2X2X5X5X4X4X:.:.:.:.:.5X=.Y V V n q m 8 8 7 7 7 7 7 t t e e r r h z z 8.s.d.g.d.7.6.l w t t t w w w w r r r e r g 2.t.a.r.a.a.b.b.b.b.b.b.c.c.c.c.c.c.m.m.m.b.m.m.b.b.b.b.a.3.<.4 4 <.1.3.t.a.b.r.a.b.a.b.b.b.b.b.b.r.r.r.r.r.z.z.c.c.r.r.z.z.c.z.z.r.z.z.z.c.z.z.z.z.z.z.z.z.z.z.z.z.z.z.z.z.z.z.z.z.z.z.z.z.z.z.z.z.z.z.z.z.z.z.z.z.z.z.z.z.z.z.z.z.b.b.b.b.b.b.b.b.b.b.b.b.b.b.b.b.r.b.b.b.b.a.t.t.1.g g 2 2 i i g e t < < 0 V { #X:X+X+X-X-X-X-X-X-X;X;X;X;X;X;X;X-X-X-X-X-X-X-X-X-X-X-X-X-X-X-X-X-X-X-X-X-X-X-X-X-X-X-X-X-X-X-X-X-X-X-X-X-X-X-X-X-X-X-X-X-X-X-X-X-X-X-X-X-X-X-X-X-X-X-X-X-X-X-X-X-X-X-X-X-X-X-X-X-X-X-X-X-X-X-X-X-X-X-X-X-X-X-X-X-X-X-X-X-X-X-X-X-X-X-X-X-X-X-X-X-X-X-X-X-X-X-X-X-X-X-X-X-X-X-X-X-X-X-X-X-X-X-X-X-X-X-X-X-X-X-X-X-X-X-X-X-X-X-X-X-X-X-X-X-X-X-X-X-X-X-X-X-X-X-X-X-X-X-X-X-X-X-X-X-X-X-X-X-X-X-X-X-X-X-X-X-X-X-X-X-X-X-X-X-X-X-X",
"% % % % % % % % % % % % % % % % % % % % % % % % % % % % % & @ + # # # # # # + + + # + # # # # # # ,  . .] ] ] ` ' ' ' ' _ _ ` ` ` ` ` ` ` ` ` ` ` ` ` ` ` ` ` ` ` ` ` ` ` ` ` ` ` ` ` ` ` ` ` ` ` ` _ _ _ _ ` ` ` ` o.` ` _ _ &.;.4X4X2X2X<X3X<X1X1X1X1X1X1X1X1X1X1X1X1X1X1X1X1X1X1X1X1X1X1X1X1X1X1X1X1X1X1X1X1X1X1X1X1X1X1X1X1X1X1X1X1X1X1X1X1X1X1X1X1X1X1X1X1X:.:.1X<X2X2X5X5X4X4X1X1X:.:.:.4X9X$XY q q m 8 8 u u t t t t t e r r h z z 2.8.7.s.d.d.g.d.8.l h w t t t w w w r r e e e d z 8.s.a.a.a.b.b.b.b.b.b.b.c.c.c.c.c.c.m.m.b.b.m.m.m.m.b.a.t.<.4 4 g <.t.r.b.m.b.r.a.a.a.b.b.b.b.b.b.r.r.r.r.z.z.z.c.c.r.r.z.z.z.z.r.r.z.z.z.z.z.z.z.z.z.z.z.z.z.z.z.z.z.z.z.z.z.z.z.z.z.z.z.z.z.z.z.z.z.z.z.z.z.z.z.z.z.z.z.z.z.z.z.z.b.b.b.b.b.b.b.b.b.b.b.b.b.b.b.b.r.r.b.m.m.b.a.s.t.2.1.g g g i e e t t 7 < 9 V R #X#X+X+X+X-X-X;X;X;X-X-X-X-X-X;X-X;X;X;X-X-X-X-X-X-X-X-X-X-X-X-X-X-X-X-X-X-X-X-X-X-X-X-X-X-X-X-X-X-X-X-X-X-X-X-X-X-X-X-X-X-X-X-X-X-X-X-X-X-X-X-X-X-X-X-X-X-X-X-X-X-X-X-X-X-X-X-X-X-X-X-X-X-X-X-X-X-X-X-X-X-X-X-X-X-X-X-X-X-X-X-X-X-X-X-X-X-X-X-X-X-X-X-X-X-X-X-X-X-X-X-X-X-X-X-X-X-X-X-X-X-X-X-X-X-X-X-X-X-X-X-X-X-X-X-X-X-X-X-X-X-X-X-X-X-X-X-X-X-X-X-X-X-X-X-X-X-X-X-X-X-X-X-X-X-X-X-X-X-X-X-X-X-X-X-X-X-X-X-X-X-X-X-X-X-X-X",
"% % % % % % % % % % % % % % % % % % % % % % % % % % % % : & @ @ # # # # # # + + # # # # # # # # ; P  . .] ] ] ` ' ' ` ` ` ` ` ` ` ` ` ` ` ` ` ` ` ` ` ` ` ` ` ` ` ` ` ` ` ` ` ` ` ` ` ` ` ` ` ` ` ` _ _ _ _ ` ` ` ` o.` ` _ ' -.;.4X4X2X2X<X3X1X1X1X1X1X1X1X1X1X1X1X1X1X1X1X1X1X1X1X1X1X1X1X1X1X1X1X1X1X1X1X1X1X1X1X1X1X1X1X1X1X1X1X1X1X1X1X1X1X1X1X1X1X1X1X1X1X:.:.1X<X2X5X5X5X2X1X1X:.:.<X2X5XwX~.V > 9 8 u u y y r r r e e e z k 4.6.7.s.s.s.s.s.d.p.8.l h r w w r r r r e r r e t e g 2.s.s.a.b.b.b.b.b.b.b.b.b.b.b.c.c.c.c.b.b.a.b.m.M.m.m.a.t.<.4 4 g 1.3.a.b.m.m.m.b.a.a.b.a.a.a.z.z.r.b.z.z.z.z.z.c.c.c.z.z.z.c.z.z.z.z.z.z.z.z.z.z.z.z.z.z.z.z.z.z.z.z.z.z.z.z.z.z.z.z.z.z.z.z.z.z.z.z.z.z.z.z.z.z.z.z.z.z.z.z.z.z.z.z.b.b.b.b.b.b.b.b.b.b.b.b.b.b.b.b.r.r.b.b.m.b.b.a.a.s.t.3.2.4.g 3 e e e d 7 9 9 0 R ~.#X8X+X-X:X;X;X;X-X-X-X-X-X-X;X;X;X;X;X;X-X-X-X-X-X-X-X-X-X-X-X-X-X-X-X-X-X-X-X-X-X-X-X-X-X-X-X-X-X-X-X-X-X-X-X-X-X-X-X-X-X-X-X-X-X-X-X-X-X-X-X-X-X-X-X-X-X-X-X-X-X-X-X-X-X-X-X-X-X-X-X-X-X-X-X-X-X-X-X-X-X-X-X-X-X-X-X-X-X-X-X-X-X-X-X-X-X-X-X-X-X-X-X-X-X-X-X-X-X-X-X-X-X-X-X-X-X-X-X-X-X-X-X-X-X-X-X-X-X-X-X-X-X-X-X-X-X-X-X-X-X-X-X-X-X-X-X-X-X-X-X-X-X-X-X-X-X-X-X-X-X-X-X-X-X-X-X-X-X-X-X-X-X-X-X-X-X-X-X-X-X-X-X-X-X",
"% % % % % % % % % % % % % % % % % % % % % % % % % % % % : & @ @ # # # # # # + # + # # # # # # # , Y  .] ] ] ` ` ' ' ` ` ` ` ` ` ` ` ` ` ` ` ` ` ` ` ` ` ` ` ` ` ` ` ` ` ` ` ` ` ` ` ` ` ` ` ` ` ` ` _ _ _ _ ` ` ` ` ` ` ` ' ' -.;.4X4X2X2X<X1X1X1X1X1X1X1X1X1X1X1X1X1X1X1X1X1X1X1X1X1X1X1X1X1X1X1X1X1X1X1X1X1X1X1X1X1X1X1X1X1X1X1X1X1X1X1X1X1X1X1X1X1X1X1X1X1X1X:.:.<X<X2X5X5X2X4X1X:.<X5X9X>X+XR Z 0 9 7 u y r r e e r e r g g 2.2.t.s.s.d.d.d.s.s.p.8.2.z h e r w r r w e e e e e e d z 2.s.s.a.b.b.b.b.b.b.b.b.b.b.b.c.c.c.b.b.r.r.b.m.M.m.b.t.1.g 4 g 1.3.t.b.b.m.m.b.b.b.b.b.a.a.r.r.z.r.b.z.r.r.z.c.c.c.c.z.z.c.c.z.z.z.z.z.z.z.z.z.z.z.z.z.z.z.z.z.z.z.z.z.z.z.z.z.z.z.z.z.z.z.z.z.z.z.z.z.z.z.z.z.z.z.z.z.z.z.z.z.z.z.z.b.b.b.b.b.b.b.b.b.b.b.b.b.b.b.b.r.b.b.b.b.b.a.a.a.a.a.a.a.t.1.g g e e e t 7 7 9 0 Z ~.#X8X:X-X-X;X;X-X-X-X-X-X-X;X;X;X;X;X;X-X-X-X-X-X-X-X-X-X-X-X-X-X-X-X-X-X-X-X-X-X-X-X-X-X-X-X-X-X-X-X-X-X-X-X-X-X-X-X-X-X-X-X-X-X-X-X-X-X-X-X-X-X-X-X-X-X-X-X-X-X-X-X-X-X-X-X-X-X-X-X-X-X-X-X-X-X-X-X-X-X-X-X-X-X-X-X-X-X-X-X-X-X-X-X-X-X-X-X-X-X-X-X-X-X-X-X-X-X-X-X-X-X-X-X-X-X-X-X-X-X-X-X-X-X-X-X-X-X-X-X-X-X-X-X-X-X-X-X-X-X-X-X-X-X-X-X-X-X-X-X-X-X-X-X-X-X-X-X-X-X-X-X-X-X-X-X-X-X-X-X-X-X-X-X-X-X-X-X-X-X-X-X-X-X",
"% % % % % % % % % % % % % % % % % % % % % % % % % % % % : & @ @ # # # # # # # # + # # # # # # ; Y ]  .] ] ] ) ` ` _ _ _ ` ` ` ` ` ` ` ` ` ` ` ` ` ` ` ` ` ` ` ` ` ` ` ` ` ` ` ` ` ` ` ` ` ` ` ` ` ` _ _ _ _ ` ` ` ` ` ` ` ) ' -.>X4X4X2X3X,X1X3X1X1X1X1X1X1X1X1X1X1X1X1X1X1X1X1X1X1X1X1X1X1X1X1X1X1X1X1X1X1X1X1X1X1X1X1X1X1X1X1X<X<X<X<X<X<X<X<X<X<X<X<X<X<X<X1X<X<X<X<X2X2X2X2X4X<X2X5X9X:X{ V 0 9 9 7 t t w w i i i i g z 2.2.s.s.s.s.s.s.s.s.s.s.0.6.4.z p e r r r r e e e e e e e g 2.s.s.a.b.b.b.b.b.b.b.b.b.b.b.b.b.b.b.b.b.a.a.b.m.m.a.t.1.<.4 g 1.t.r.r.b.b.b.b.b.b.b.b.b.r.r.r.r.r.r.b.c.c.c.c.c.c.z.z.z.z.r.r.z.z.z.z.z.z.z.z.z.z.z.z.z.z.z.z.z.z.z.z.z.z.z.z.z.z.z.z.z.z.z.z.z.z.z.z.z.z.z.z.z.z.z.z.z.z.z.z.z.z.z.z.b.b.b.b.b.b.b.b.b.b.b.b.b.b.b.b.b.b.b.b.b.b.b.b.b.b.a.a.a.a.t.3.2.g i 2 e t t 7 9 9 V R (.+X+X:X-X-X-X-X-X-X-X-X;X;X;X;X;X-X-X-X-X-X-X-X-X-X-X-X-X-X-X-X-X-X-X-X-X-X-X-X-X-X-X-X-X-X-X-X-X-X-X-X-X-X-X-X-X-X-X-X-X-X-X-X-X-X-X-X-X-X-X-X-X-X-X-X-X-X-X-X-X-X-X-X-X-X-X-X-X-X-X-X-X-X-X-X-X-X-X-X-X-X-X-X-X-X-X-X-X-X-X-X-X-X-X-X-X-X-X-X-X-X-X-X-X-X-X-X-X-X-X-X-X-X-X-X-X-X-X-X-X-X-X-X-X-X-X-X-X-X-X-X-X-X-X-X-X-X-X-X-X-X-X-X-X-X-X-X-X-X-X-X-X-X-X-X-X-X-X-X-X-X-X-X-X-X-X-X-X-X-X-X-X-X-X-X-X-X-X-X-X-X-X",
"% % % % % % % % % % % % % % % % % % % % % % % : % % % % : % @ @ # # # # # # # # # # # # # # ; : Y  .] ] ] ] ) ` ` _ _ _ ` ` ` ` ` ` ` ` ` ` ` ` ` ` ` ` ` ` ` ` ` ` ` ` ` ` ` ` ` ` ` ` ` ` ` ` ` ` _ _ _ _ ` ` ` ` ` ` ` ) ' =.>X4X<X2X3X,X1X3X1X1X1X1X1X1X1X1X1X1X1X1X1X1X1X1X1X1X1X1X1X1X1X1X1X1X1X1X1X1X1X1X1X1X1X1X1X1X1X1X<X<X<X<X<X<X<X<X<X<X<X<X<X<X<X<X<X<X<X2X2X2X2X2X4X4X5XwX+XR 0 9 0 < < t t e i i i i g z 4.t.s.N.s.s.s.s.s.s.s.s.s.s.7.2.l g i e r r r r e e e e e e g z 3.s.s.a.b.b.b.b.b.b.b.b.b.b.b.b.b.b.b.b.b.b.b.m.M.b.t.3.g 4 4 <.3.r.a.a.b.b.r.r.a.b.b.b.b.r.r.r.r.r.r.b.c.c.c.c.c.c.z.z.z.z.r.r.r.r.z.z.z.z.z.z.z.z.z.z.z.z.z.z.z.z.z.z.z.z.z.z.z.z.z.z.z.z.z.z.z.z.z.z.z.z.z.z.z.z.z.z.z.z.z.z.z.z.z.z.b.b.b.b.b.b.b.b.b.b.b.b.b.b.b.b.b.b.b.b.b.m.m.m.m.m.a.a.a.a.a.r.t.2.4.g e e t s 7 7 9 q R (.#X8X:X-X-X-X-X-X;X;X-X;X;X-X-X-X-X-X-X-X-X-X-X-X-X-X-X-X-X-X-X-X-X-X-X-X-X-X-X-X-X-X-X-X-X-X-X-X-X-X-X-X-X-X-X-X-X-X-X-X-X-X-X-X-X-X-X-X-X-X-X-X-X-X-X-X-X-X-X-X-X-X-X-X-X-X-X-X-X-X-X-X-X-X-X-X-X-X-X-X-X-X-X-X-X-X-X-X-X-X-X-X-X-X-X-X-X-X-X-X-X-X-X-X-X-X-X-X-X-X-X-X-X-X-X-X-X-X-X-X-X-X-X-X-X-X-X-X-X-X-X-X-X-X-X-X-X-X-X-X-X-X-X-X-X-X-X-X-X-X-X-X-X-X-X-X-X-X-X-X-X-X-X-X-X-X-X-X-X-X-X-X-X-X-X-X-X-X-X-X-X",
"% % % % % % % % % % % % % % % % % % % % % % % % % % & % % % & @ + + + + + + + + # # # # # # ; Y ] ] ] ] ] ] ` ` ` _ _ _ ` ` ` ` ` ` ` ` ` ` ` ` ` ` ` ` ` ` ` ` ` ` ` ` ` ` ` ` ` ` ` ` ` ` ` ` ` ` o.o.o.` ` ` ` ` ` ` ` _ ) =.4X2X2X2X2X3X1X1X1X1X1X1X1X1X1X1X1X1X1X1X1X1X1X1X1X1X1X1X1X1X1X1X1X1X1X1X1X1X1X1X1X1X1X1X1X1X1X1X<X<X<X<X<X<X<X<X3X<X1X<X<X3X<X<X<X4X2X<X<X<X<X2X5X6X+X{ V 0 9 7 7 7 t e e e i i g 4.2.s.s.s.s.s.s.s.s.s.s.s.s.s.s.s.8.z p i y e e r w e e e e e i g g 2.s.s.a.a.a.a.a.b.b.b.a.b.b.b.b.b.b.b.b.b.b.b.b.b.a.t.1.<.4 <.1.t.a.b.b.b.a.a.a.a.r.a.a.a.a.a.a.b.b.z.r.r.m.m.m.c.c.r.r.r.z.z.z.z.r.r.r.z.z.z.z.z.z.z.z.z.z.z.z.z.z.z.z.z.z.z.z.z.z.z.z.z.z.z.z.z.z.z.z.z.z.z.z.z.z.z.z.z.z.z.z.z.z.z.z.z.c.c.c.c.c.c.c.c.c.c.c.c.c.c.c.c.b.b.b.b.b.b.m.m.m.m.h.h.a.a.a.a.a.s.3.4.g e e t t 7 7 9 0 Z !.@X8X+X+X:X-X;X;X;X;X;X;X;X-X-X-X-X-X-X-X-X-X-X-X-X-X-X-X-X-X-X-X-X-X-X-X-X-X-X-X-X-X-X-X-X-X-X-X-X-X-X-X-X-X-X-X-X-X-X-X-X-X-X-X-X-X-X-X-X-X-X-X-X-X-X-X-X-X-X-X-X-X-X-X-X-X-X-X-X-X-X-X-X-X-X-X-X-X-X-X-X-X-X-X-X-X-X-X-X-X-X-X-X-X-X-X-X-X-X-X-X-X-X-X-X-X-X-X-X-X-X-X-X-X-X-X-X-X-X-X-X-X-X-X-X-X-X-X-X-X-X-X-X-X-X-X-X-X-X-X-X-X-X-X-X-X-X-X-X-X-X-X-X-X-X-X-X-X-X-X-X-X-X-X-X-X-X-X-X-X-X-X-X-X-X-X-X-X-X-X",
"% % % % % % % % % % % % % % % % % % % % % % % % % % & % % % & @ + + + + + + + + # # # # # # , Y ] ] ] ] ] ` ` ` _ _ _ _ ` ` ` ` ` ` ` ` ` ` ` ` ` ` ` ` ` ` ` ` ` ` ` ` ` ` ` ` ` ` ` ` ` ` ` ` ` ` ` ` ` ` ` ` ` ` ` ` ` ' ' =.4X2X2X<X3X3X1X1X1X1X1X1X1X1X1X1X1X1X1X1X1X1X1X1X1X1X1X1X1X1X1X1X1X1X1X1X1X1X1X1X1X1X1X1X1X1X1X1X<X<X<X<X<X<X<X<X<X<X<X<X<X3X3X<X2X<X<X2X2X<X2X5XwX+XR B 0 0 d d d 2 2 2 3 g g g 3.7.s.s.s.s.s.s.s.s.s.s.s.s.s.s.s.s.6.z i i y e e r w e e e e e i g 4.3.s.a.a.a.a.b.b.b.b.b.r.z.b.b.b.b.b.b.b.b.b.b.b.a.t.3.<.g g 1.3.t.a.b.b.b.a.a.a.a.a.a.a.a.r.r.a.b.z.z.r.r.m.m.c.c.c.r.r.z.z.z.z.c.z.z.r.z.z.z.z.z.z.z.z.z.z.z.z.z.z.z.z.z.z.z.z.z.z.z.z.z.z.z.z.z.z.z.z.z.z.z.z.z.z.z.z.z.z.z.z.z.z.z.z.z.c.c.c.c.c.c.c.c.c.c.c.c.c.c.c.c.b.b.b.b.b.b.m.m.m.m.h.h.h.h.h.h.a.s.t.2.<.g i e t 7 7 7 0 0 Z A.#X+X#X:X:X+X+X;X;X;X-X-X-X-X-X-X+X+X;X;X;X;X+X;X-X-X-X-X-X-X-X-X-X-X-X-X-X-X-X-X-X-X-X-X-X-X-X-X-X-X-X-X-X-X-X-X-X-X-X-X-X-X-X-X-X-X-X-X-X-X-X-X-X-X-X-X-X-X-X-X-X-X-X-X-X-X-X-X-X-X-X-X-X-X-X-X-X-X-X-X-X-X-X-X-X-X-X-X-X-X-X-X-X-X-X-X-X-X-X-X-X-X-X-X-X-X-X-X-X-X-X-X-X-X-X-X-X-X-X-X-X-X-X-X-X-X-X-X-X-X-X-X-X-X-X-X-X-X-X-X-X-X-X-X-X-X-X-X-X-X-X-X-X-X-X-X-X-X-X-X-X-X-X-X-X-X-X-X-X-X-X-X-X-X-X-X-X-X-X",
"% % % % % % % % % % % % % % % % % % % % % % % % % % & % % % @ @ + + + + + + + + # # # # # ; F ] ] ] ] ] ] ` ` ` _ _ _ _ ` ` ` ` ` ` ` ` ` ` ` ` ` ` ` ` ` ` ` ` ` ` ` ` ` ` ` ` ` ` ` ` ` ` ` ` ` ` _ _ o.` ` ` ` ` ` ` ` ' [ =.4X2X2X<X3X3X1X1X1X1X1X1X1X1X1X1X1X1X1X1X1X1X1X1X1X1X1X1X1X1X1X1X1X1X1X1X1X1X1X1X1X1X1X1X1X1X1X1X<X2X2X2X2X2X2X2X<X2X2X2X2X2X3X3X2X4X4X<X2X5X5X:X{ A 0 < 7 d d 2 d 2 2 2 g g 2.2.s.s.s.s.j.s.s.s.a.a.t.t.s.s.s.s.s.0.2.g e e i y r e e e i i i e i g 2.t.a.a.a.a.a.z.z.z.b.z.z.z.b.b.b.b.b.b.b.b.b.b.b.t.2.<.<.<.<.1.t.r.z.b.b.b.b.b.b.b.z.z.b.z.r.r.r.r.z.r.r.r.c.c.c.c.r.r.z.z.z.z.z.z.z.z.c.c.z.z.z.z.z.z.z.z.z.z.z.z.z.z.z.z.z.z.z.z.z.z.z.z.z.z.z.z.z.z.z.z.z.z.z.z.z.z.z.z.z.z.z.z.z.z.z.z.c.c.c.c.c.c.c.c.c.c.c.c.c.c.c.c.b.b.b.b.b.b.m.m.m.m.h.h.h.h.h.h.a.s.s.t.t.2.g g t t t 7 7 7 0 0 R ~.#X+X+X+X=.=.=.=.=.=.=.=.=.=...=...=.=.=.=.=.=.=.=.=.=.=.=.=.=.=.=.=.=.=.=.=.=.=.=.=.=.=.=.=.=.=.=.=.=.=.=.=.=.=.=.=.=.=.=.=.=.=.=.=.=.=.=.=.=.=.=.=.=.=.=.=.=.=.=.=.=.=.=.=.=.=.=.=.=.=.=.=.=.=.=.=.=.=.=.=.=.=.=.=.=.=.=.=.=.=.=.=.=.=.=.=.=.=.=.=.=.=.=.=.=.=.=.=.=.=.=.=.=.=.=.=.=.=.=.=.=.=.=.=.=.=.=.=.=.=.=.=.=.=.=.=.=.=.=.=.=.=.=.=.=.=.=.=.=.=.=.=.=.=.=.=.=.=.=.=.=.=.=.=.=.=.=.=.=.=.=.=.=.=.=.",
"% % % % % % % % % % % % % % % % % % % % % % % % % % & % % & & @ + + + + + + + # # # # # # , T ] ] ] ] ] ` ` ` ` _ _ ` ` ` ` ` ` ` ` ` ` ` ` ` ` ` ` ` ` ` ` ` ` ` ` ` ` ` ` ` ` ` ` ` ` ` ` ` ` ` ` _ _ o.` ` ` ` ` ` ` ` ' [ ;.4X2X2X3X3X3X1X1X1X1X1X1X1X1X1X1X1X1X1X1X1X1X1X1X1X1X1X1X1X1X1X1X1X1X1X1X1X1X1X1X1X1X1X1X1X1X1X1X2X2X2X2X2X2X2X2X2X3X4X3X2X<X2X3X2X5X5X2X5X9X+XR 0 0 7 e d g d 2 2 3 d g g 2.t.s.s.s.s.s.s.s.j.j.h.r.t.t.s.s.s.s.s.8.4.p w w i i r e e e i i i i g 4.3.a.a.r.a.a.z.z.z.z.b.z.z.z.b.b.b.b.b.b.b.b.b.b.s.2.<.4 <.1.2.3.t.b.b.b.b.b.b.b.b.b.z.z.z.z.r.r.r.r.r.r.r.r.z.z.z.z.z.z.z.z.z.z.z.z.c.c.c.z.z.z.z.z.z.z.z.z.z.z.z.z.z.z.z.z.z.z.z.z.z.z.z.z.z.z.z.z.z.z.z.z.z.z.z.z.z.z.z.z.z.z.z.z.z.z.z.z.c.c.c.c.c.c.c.c.c.c.c.c.c.c.c.c.b.b.b.b.b.b.m.m.h.h.h.h.h.h.h.h.h.s.a.h.a.t.2.g 2 2 t t t t t 0 0 Z !.~.(.......| | ..............................................................} ..............................................................................................................} ..............................................} ..............................................................................................................} ..........................................",
"% % % % % % % % % % % % % % % % @ @ @ % % % % % % % & % : % & @ + + + + + + + # # # # # ; G ] ] ] ] ] ] ` ` ` _ _ _ _ ` ` ` ` ` ` ` ` ` ` ` ` ` ` ` ` ` ` ` ` ` ` ` ` ` ` ` ` ` ` ` ` ` ` ` ` ` ` ` _ _ _ _ ` ` ` ` ` ` ` ' &.;.4X2X2X3X3X3X,X1X1X1X1X1X1X1X1X1X1X1X1X1X1X1X1X1X1X1X1X1X1X1X1X1X1X1X1X1X1X1X1X1X1X1X1X1X1X1X1X1X2X2X2X2X2X2X2X2X2X4X4X4X2X<X<X2X5X>X6X9XwX+XV 0 9 7 d d 3 2 d d 3 g g 2.i.s.s.s.a.a.a.a.s.h.h.h.h.u.t.t.a.s.s.s.8.2.z i w w i a p y i i i i i g 4.2.s.a.a.r.r.y.z.z.z.z.z.z.b.b.b.b.b.b.b.b.b.b.b.a.3.<.4 4 1.1.t.t.a.m.m.b.b.b.b.b.b.b.b.z.b.b.z.z.z.r.r.r.r.z.z.z.z.z.z.z.z.z.r.r.z.z.z.z.z.z.z.z.z.z.z.z.z.z.z.z.z.z.z.z.z.z.z.z.z.z.z.z.z.z.z.z.z.z.z.z.z.z.z.z.z.z.z.z.z.z.z.z.z.z.z.z.z.z.c.c.c.c.c.c.c.c.c.c.c.c.c.c.c.c.b.b.b.b.b.b.h.h.m.m.h.h.a.a.a.h.a.a.a.h.h.a.t.2.g g e e e r r u 9 9 Z R ~. . .| } } } } } } | | } } } } } } } } } } } } } } } } } } } } } } } } } } } } } } } } } } } } } } } } } } } } } } } } } } } } } } } } } } } } } } } } } } } } } } } } } } } } } } } } } } } } } } } } } } } } } } } } } } } } } } } } } } } } } } } } } } } } } } } } } } } } } } } } } } } } } } } } } } } } } } } } } } } } } } } } } } } } } } } } } } } } } } } } } } } } } } } } } } } } } } } ",
"% % % % % % % % % % % % % % % % @ @ @ @ % % % % % % % % : % & @ + + + + + + + # # # # # , Y  .] ] ] ] ` ` ` _ _ _ _ ` ` ` ` ` ` ` ` ` ` ` ` ` ` ` ` ` ` ` ` ` ` ` ` ` ` ` ` ` ` ` ` ` ` ` ` ` ` ` ` _ _ _ _ ` ` ` ` ` ` ' ' -.>X4X2X2X3X3X3X,X,X1X1X1X1X1X1X1X1X1X1X1X1X1X1X1X1X1X1X1X1X1X1X1X1X1X1X1X1X1X1X1X1X1X1X1X1X1X1X1X1X2X2X2X2X2X2X2X2X2X2X2X2X2X<X<X2X5X6XwXwX~.V 0 < 7 e 3 3 3 3 2 3 g 1.i.t.a.h.s.s.h.h.a.a.h.h.h.y.h.t.t.t.a.s.s.7.2.z i i w w i y y y i i i i g g 2.3.s.a.b.a.r.c.z.r.z.z.z.z.b.b.b.b.b.b.b.b.b.b.b.t.1.g 4 <.1.t.t.a.b.m.m.b.b.b.b.b.b.b.b.b.b.b.z.z.z.r.r.r.r.z.r.r.r.r.z.z.z.z.z.r.z.z.r.z.z.z.z.z.z.z.z.z.z.z.z.z.z.z.z.z.z.z.z.z.z.z.z.z.z.z.z.z.z.z.z.z.z.z.z.z.z.z.z.z.z.z.z.z.z.z.z.z.z.z.c.c.c.c.c.c.c.c.c.c.c.c.c.c.c.c.b.b.b.b.b.b.h.h.m.m.h.h.a.a.a.a.a.a.r.a.a.r.t.t.2.1.g e e r r t 7 7 0 Z R ~. . .| } } } } } | | } } } } } } } } } } } } } } } } } } } } } } } } } } } } } } } } } } } } } } } } } } } } } } } } } } } } } } } } } } } } } } } } } } } } } } } } } } } } } } } } } } } } } } } } } } } } } } } } } } } } } } } } } } } } } } } } } } } } } } } } } } } } } } } } } } } } } } } } } } } } } } } } } } } } } } } } } } } } } } } } } } } } } } } } } } } } } } } } } } } } } } } ",
"% % % % % % % % % % % % % % % % % % % % : : % % % % % % : % & @ + + + + + + + # # # # ; F ]  .] ] ] ` ` ` ` _ _ _ _ ` ` ` ` ` ` ` ` ` ` ` ` ` ` ` ` ` ` ` ` ` ` ` ` ` ` ` ` ` ` ` ` ` ` ` ` ` ` o.o.o.o._ _ ` ` ` ` ` ` ' ' -.>X4X2X2X3X3X3X,X,X1X1X1X1X1X1X1X1X1X1X1X1X1X1X1X1X1X1X1X1X1X1X1X1X1X1X1X1X1X1X1X1X1X1X1X1X1X1X1X1X2X2X2X2X2X2X2X2X<X<X<X<X2X2X2X2X2X6X+X{ Z 0 7 d e 2 2 2 g g g g t.t.t.a.h.h.h.a.h.h.b.m.b.a.z.r.y.t.t.t.M.n.s.2.z g i y y i w y i i i i i i g g 3.s.s.b.b.a.y.c.r.r.z.r.z.z.b.b.b.b.b.b.b.b.b.b.t.3.<.g <.1.3.t.r.a.m.m.m.m.b.m.b.b.b.b.b.b.b.b.z.z.r.r.r.r.r.z.r.r.r.r.r.z.z.z.z.z.z.z.r.r.r.z.z.z.z.z.z.z.z.z.z.z.z.z.z.z.z.z.z.z.z.z.z.z.z.z.z.z.z.z.z.z.z.z.z.z.z.z.z.z.z.z.z.z.z.z.z.z.z.z.c.c.c.c.c.c.c.c.c.c.c.c.c.c.c.c.b.b.b.b.b.b.h.m.m.m.h.a.a.a.a.b.a.b.a.r.r.r.r.h.t.i.2.g d t t t e t 7 0 Z R {  .| } } } } } | | } } } } } } } } } } } } } } } } } } } } } } } } } } } } } } } } } } } } } } } } } } } } } } } } } } } } } } } } } } } } } } } } } } } } } } } } } } } } } } } } } } } } } } } } } } } } } } } } } } } } } } } } } } } } } } } } } } } } } } } } } } } } } } } } } } } } } } } } } } } } } } } } } } } } } } } } } } } } } } } } } } } } } } } } } } } } } } } } } } } } } } } ",
"% % % % % % % % % % % % % % % % % % % % : : % % % % % % : % & @ + + + + + + + # # # # : Y ] ] T ] ` ` ` ` ` _ _ _ _ ` ` ` ` ` ` ` ` ` ` ` ` ` ` ` ` ` ` ` ` ` ` ` ` ` ` ` ` ` ` ` ` ` ` ` ` ` ` o.o.o.o.` ` ` ` ` ` ` ` ' ' -.>X4X2X2X2X3X3X1X1X1X1X1X1X1X1X1X1X1X1X1X1X1X1X1X1X1X1X1X1X1X1X1X1X1X1X1X1X1X1X1X1X1X1X1X1X1X1X1X<X2X2X2X2X2X2X2X2X<X,X,X<X2X2X2X5X9X+XR q 7 d d 2 2 2 3 4 g <.3.a.a.a.a.h.h.h.h.h.r.a.a.m.b.r.r.r.r.t.t.a.M.N.s.2.g i e y a i w i i i i i i i g g s.a.a.b.b.m.m.c.a.a.b.z.z.z.z.b.b.b.b.b.b.b.b.b.t.1.g <.1.3.t.t.r.a.m.m.m.m.b.m.b.b.b.b.b.b.b.b.z.r.r.r.r.r.r.r.r.r.r.r.r.z.z.c.z.z.z.z.r.r.r.z.z.z.z.z.z.z.z.z.z.z.z.z.z.z.z.z.z.z.z.z.z.z.z.z.z.z.z.z.z.z.z.z.z.z.z.z.z.z.z.z.z.z.z.z.z.z.z.z.c.c.c.c.c.c.b.b.b.b.b.b.b.b.b.b.b.b.b.b.b.b.b.b.m.m.m.a.a.a.h.b.a.m.m.m.r.r.y.h.a.a.t.2.g d e t e e t 7 0 q R ~. .| } } } } | | | } } } } } } } } } } } } } } } } } } } } } } } } } } } } } } } } } } } } } } } } } } } } } } } } } } } } } } } } } } } } } } } } } } } } } } } } } } } } } } } } } } } } } } } } } } } } } } } } } } } } } } } } } } } } } } } } } } } } } } } } } } } } } } } } } } } } } } } } } } } } } } } } } } } } } } } } } } } } } } } } } } } } } } } } } } } } } } } } } } } } } } ",
"% % % % % % % % % % % % % % % % % % % % % % % % & % % % & & & & & + + + + + + + # # ; F ] ] ] ] ] ] ` ` ` ` ` ` ` ` ` ` ` ` ` ` ` ` ` ` ` ` ` ` ` ` ` ` ` ` ` ` ` ` ` ` ` ` ` ` ` ` ` ` ` ` ` ` _ ` ` ` ` ` ` ` ` ` ` ` ` ) =.>X4X2X2X2X2X3X1X1X<X<X1X1X1X1X1X1X1X1X1X1X1X1X1X1X1X1X1X1X1X1X1X1X1X1X1X1X1X1X1X1X<X<X<X<X<X<X<X2X3X3X<X<X<X<X2X2X4X<X<X<X<X5X5XwX(.R 0 7 7 2 2 2 2 2 4 g 1.t.a.M.a.a.a.r.r.r.r.r.y.h.a.a.a.a.a.a.a.t.s.h.N.s.2.z p i w w w r y p p p i i e i 4.2.b.b.b.b.b.b.b.b.b.b.b.b.c.c.c.c.m.m.m.m.m.m.a.t.1.<.<.1.3.t.t.a.b.b.b.b.b.b.b.c.m.m.c.c.c.c.y.y.y.y.y.y.y.y.y.z.z.z.z.z.z.z.z.z.z.z.z.z.z.z.z.z.z.z.z.z.z.z.z.z.z.z.z.z.z.z.z.z.c.c.c.c.c.c.z.z.z.z.z.z.z.z.z.z.r.r.r.r.b.b.b.m.b.b.b.b.b.b.z.b.b.b.b.b.b.m.a.a.r.a.b.b.m.n.n.b.b.b.b.b.b.b.b.m.b.a.m.m.m.m.m.z.t.y.z.r.m.r.r.r.a.a.b.s.3.4.g 2 e e e t 7 7 n R ~. . .| } } } } } } } } } } } } } } } } } } } } } } } } } } } } } } } } } } } } } } } } } } } } } } } } } } } } } } } } } } } } } } } } } } } } } } } } } } } } } } } } } } } } } } } } } } } } } } } } } } } } } } } } } } } } } } } } } } } } } } } } } } } } } } } } } } } } } } } } } } } } } } } } } } } } } } } } } } } } } } } } } } } } } } } } } } } } } } } } } } } } } } } } } } } ",
"% % % % % % % % % % % % % % % % % % % % % % % % & & % % & & & & & - + + + + + + # # , Y ] ] ] T ] ` ` ` ` ` ` ` ` ` ` ` ` ` ` ` ` ` ` ` ` ` ` ` ` ` ` ` ` ` ` ` ` ` ` ` ` ` ` ` ` ` ` ` ` ` ` ` _ _ ` ` ` ` ` ` ` ` o.` ` ) =.>X4X2X2X2X2X2X<X<X<X<X1X1X1X1X1X1X1X1X1X1X1X1X1X1X1X1X1X1X1X1X1X1X1X1X1X1X1X1X1X1X<X<X<X<X<X<X2X2X3X3X<X<X<X2X2X2X<X4X4X,X>X>X-X~.Z f 7 7 d 2 2 2 2 4 1.3.t.a.a.a.a.r.r.r.r.r.r.r.y.y.a.a.a.a.a.a.a.t.s.h.N.s.2.z i e w w w r y p p p i i e g 4.3.b.b.b.b.b.b.b.b.b.b.b.b.b.c.c.c.c.z.z.b.m.b.t.t.<.<.<.2.t.t.s.a.b.b.b.b.b.b.c.c.m.m.c.c.c.c.y.y.y.y.c.y.y.y.y.z.z.z.z.z.z.z.z.z.z.z.z.z.z.z.z.z.z.z.z.z.z.z.z.z.z.z.z.z.z.z.z.z.c.c.c.c.c.c.z.z.z.z.z.z.z.z.z.z.r.r.r.b.b.b.b.b.b.b.b.b.b.b.z.b.z.z.z.r.a.a.a.a.a.a.a.b.b.n.n.n.n.b.b.b.b.b.a.a.m.m.h.h.m.h.r.r.h.m.m.r.m.b.r.b.n.b.M.n.s.2.g d e e r d t 7 0 n R { ~...| } } } } } } } } } } } } } } } } } } } } } } } } } } } } } } } } } } } } } } } } } } } } } } } } } } } } } } } } } } } } } } } } } } } } } } } } } } } } } } } } } } } } } } } } } } } } } } } } } } } } } } } } } } } } } } } } } } } } } } } } } } } } } } } } } } } } } } } } } } } } } } } } } } } } } } } } } } } } } } } } } } } } } } } } } } } } } } } } } } } } } } } } } } ",
"% % % % % % % % % % % % % % % % % % % % % % % % & & & & & & & & & + + + + + + # # ; V ] ] ] ] T ] ` ` ` ` ` ` ` ` ` ` ` ` ` ` ` ` ` ` ` ` ` ` ` ` ` ` ` ` ` ` ` ` ` ` ` ` ` ` ` ` ` ` ` ` ` ` ` _ _ ` ` ` ` ` ` ` ` o.` ` ' =.4X4X2X2X2X2X2X<X<X<X<X1X1X1X1X1X1X1X1X1X1X1X1X1X1X1X1X1X1X1X1X1X1X1X1X1X1X1X1X1X1X<X<X<X<X2X2X2X2X3X3X2X2X2X2X5X5X2X5X3X>X>X+XR V 9 7 7 d d 2 2 3 g <.t.a.M.b.a.r.a.r.a.r.y.y.y.r.y.y.a.a.a.a.a.a.t.t.a.h.h.s.4.h i e w w w e r p p p g g i g 2.s.a.a.b.b.b.b.b.b.b.b.b.b.b.b.c.c.r.r.r.b.b.a.t.2.g <.<.3.t.t.a.b.b.b.b.b.b.b.c.c.c.c.c.c.c.c.r.r.z.z.z.z.r.r.z.z.z.z.z.z.z.z.z.z.z.z.z.z.z.z.z.z.z.z.z.z.z.z.z.z.z.z.z.z.z.z.z.z.c.c.c.c.z.z.z.z.z.z.z.z.z.z.b.b.b.b.b.b.b.b.r.r.r.r.r.r.r.r.r.z.b.b.b.b.b.b.a.b.m.b.b.b.b.b.n.n.M.h.a.a.a.a.t.t.u.u.u.t.t.u.h.h.y.h.r.r.m.m.b.m.a.b.M.M.n.s.3.2.g e e r r 7 7 0 q U {  ...| } } } } } } | } } } } } } } } } } } } } } } } } } } } } } } } } } } } } } } } } } } } } } } } } } } } } } } } } } } } } } } } } } } } } } } } } } } } } } } } } } } } } } } } } } } } } } } } } } } } } } } } } } } } } } } } } } } } } } } } } } } } } } } } } } } } } } } } } } } } } } } } } } } } } } } } } } } } } } } } } } } } } } } } } } } } } } } } } } } } } } } } } } ",
"% % % % % % % % % % % % % % % % @ @ % % % % % % & & & & & & & & + + + & + + + # # , Y  .] ] ] T ` ` ` ` ` ` ` ` ` ` ` ` ` ` ` ` ` ` ` ` ` ` ` ` ` ` ` ` ` ` ` ` ` ` ` ` ` ` ` ` ` ` ` ` ` ` ` ` _ _ ` ` ` ] ` ` ` ` o._ ` ' >.4X4X2X2X2X2X2X<X<X<X<X1X1X1X1X1X1X1X1X1X1X1X1X1X1X1X1X1X1X1X1X1X1X1X1X1X1X1X1X1X1X<X<X<X<X2X2X2X2X3X3X3X3X3X5X5X5X5X5X5X>X+XY > 9 f d 7 d d 2 2 g <.3.a.M.M.a.a.a.a.r.r.r.y.y.y.y.y.h.a.a.a.a.a.a.t.s.a.h.s.2.z h e e w w w e r p p p i g g 4.3.s.a.a.b.b.b.b.b.b.b.b.b.b.b.b.b.c.r.r.z.z.r.t.2.<.g <.2.t.t.a.b.b.b.b.b.b.b.b.c.c.c.c.c.c.c.c.r.r.z.z.z.z.r.r.r.z.z.z.z.z.z.z.z.z.z.z.z.z.z.z.z.z.z.z.z.z.z.z.z.z.z.z.z.z.z.z.z.z.c.c.c.c.z.z.z.z.z.z.z.z.z.z.b.b.m.m.b.b.b.r.r.r.r.r.r.r.r.r.r.r.r.r.r.r.r.z.b.b.b.b.m.m.n.n.b.m.h.j.j.h.j.N.N.j.j.N.N.N.j.j.k.u.u.t.t.r.r.b.a.b.a.b.M.M.M.b.s.s.4.g e e e t 7 7 9 q V {  .| | ....} } } | | } } } } } } } } } } } } } } } } } } } } } } } } } } } } } } } } } } } } } } } } } } } } } } } } } } } } } } } } } } } } } } } } } } } } } } } } } } } } } } } } } } } } } } } } } } } } } } } } } } } } } } } } } } } } } } } } } } } } } } } } } } } } } } } } } } } } } } } } } } } } } } } } } } } } } } } } } } } } } } } } } } } } } } } } } } } } } } } } } ",
"% % % % % % % % % % % % % % % % @ @ % % % % % % % % % & & & & & + + + + + + # # ; V ]  .] T T ] ` ` ` ` ` ` ` ` ` ` ` ` ` ` ` ` ` ` ` ` ` ` ` ` ` ` ` ` ` ` ` ` ` ` ` ` ` ` ` ` ` ` ` ` ` ` ` ` _ _ ` ` ` ` ` ` ` ` ` _ ' [ ;.4X4X2X2X2X2X2X<X<X<X<X1X1X1X1X1X1X1X1X1X1X1X1X1X1X1X1X1X1X1X1X1X1X1X1X1X1X1X1X<X<X<X<X<X<X2X2X2X2X3X3X3X3X4X4X5X5X5X9XwX+XY > - 7 d d 2 t d 2 2 g 3.s.a.h.a.a.a.h.a.r.r.r.y.y.r.r.y.y.a.a.a.a.a.a.t.s.a.h.s.4.h e e e w w w w e r p e i g 4.3.s.m.b.b.b.c.b.b.b.b.b.b.b.b.b.b.b.c.r.c.c.r.t.2.g i <.1.3.t.a.b.b.m.b.b.b.b.c.c.c.c.m.m.c.c.c.c.z.z.z.z.z.r.r.z.z.z.z.z.z.z.z.z.z.z.z.z.z.z.z.z.z.z.z.z.z.z.z.z.z.z.z.z.z.z.z.z.z.z.c.c.z.z.z.z.z.z.z.z.z.z.b.b.b.b.m.m.m.b.b.b.r.r.r.r.r.r.r.r.r.r.r.r.r.r.r.r.z.z.z.b.m.m.m.m.h.h.i.k.j.l.`.`.eXeX`.eXeXeXeXS.j.C k.i.2.t.t.r.a.a.r.a.b.b.M.b.a.s.2.z g e t t t 7 9 9 0 V R  . .....} } } | | | } } } } } } } } } } } } } } } } } } } } } } } } } } } } } } } } } } } } } } } } } } } } } } } } } } } } } } } } } } } } } } } } } } } } } } } } } } } } } } } } } } } } } } } } } } } } } } } } } } } } } } } } } } } } } } } } } } } } } } } } } } } } } } } } } } } } } } } } } } } } } } } } } } } } } } } } } } } } } } } } } } } } } } } } } } } } } } } } ",
"% % % % % % % % % % % % % % % % @ @ % % % % % % % % % & & & & & + + + + + + # ; , Y ] ] ] T T ] ` ` ` ` ` ` ` ` ` ` ` ` ` ` ` ` ` ` ` ` ` ` ` ` ` ` ` ` ` ` ` ` ` ` ` ` ` ` ` ` ` ` ` ` ` ` ` ` ` _ ` ` ` ` ` ` ` ` ` _ ' &.;.4X4X2X2X2X2X2X<X<X<X<X1X1X1X1X1X1X1X1X1X1X1X1X1X1X1X1X1X1X1X1X1X1X1X1X1X1X1X1X<X<X<X<X<X<X2X2X2X2X3X3X3X3X3X2X5X5X9XwX(.V 0 < 7 d 2 2 2 d g 2 2 1.t.t.a.a.a.a.a.a.r.r.r.r.y.y.r.r.y.y.a.a.a.a.a.a.s.s.s.s.8.z e w e e w w w w e e i e i z 3.s.s.a.b.m.c.c.b.z.b.b.b.b.b.b.b.b.b.c.z.c.z.t.1.g g g 2.3.t.r.a.b.m.m.b.b.b.b.c.c.c.c.m.m.c.c.c.c.z.z.z.z.r.r.z.r.z.z.z.z.z.z.z.z.z.z.z.z.z.z.z.z.z.z.z.z.z.z.z.z.z.z.z.z.z.z.z.z.z.z.c.c.z.z.z.z.z.z.z.z.z.z.b.b.b.b.m.m.b.b.b.b.b.b.r.r.r.r.r.r.r.r.h.h.h.m.m.m.b.b.b.b.m.a.u.u.j.j.l.S.`.eXyXdXgXdXdXyXyXgXgXyX`.l.i.1.2.t.b.b.a.a.r.r.a.b.b.a.a.s.t.2.x g d e t t 7 7 9 0 V R {  .| } } | | | | } } } } } } } } } } } } } } } } } } } } } } } } } } } } } } } } } } } } } } } } } } } } } } } } } } } } } } } } } } } } } } } } } } } } } } } } } } } } } } } } } } } } } } } } } } } } } } } } } } } } } } } } } } } } } } } } } } } } } } } } } } } } } } } } } } } } } } } } } } } } } } } } } } } } } } } } } } } } } } } } } } } } } } } } } } } } } } } } ",
"% % % % % % % % % % % % % % % % @ @ % % % % % % % % % % & & & & @ + + + + # # ; V Y  .] ] ] T ] ` ` ` ` ` ` ` ` ` ` ` ` ` ` ` ` ` ` ` ` ` ` ` ` ` ` ` ` ` ` ` ` ` ` ` ` ` ` ` ` ` ` ` ` ` ` ` ` ` _ ` ` ` ` ` ` ` ` ` _ ' &.;.4X4X2X2X2X2X2X<X<X<X<X1X1X1X1X1X1X1X1X1X1X1X1X1X1X1X1X1X1X1X1X1X1X1X1X1X1X<X<X<X<X<X<X2X2X2X2X2X2X3X3X3X3X3X2X5XwX:X{ V 0 9 7 d 2 2 d d g x g g 2.t.t.s.a.a.h.u.u.r.r.r.r.r.r.r.r.y.y.a.a.a.a.a.a.s.a.s.s.2.g e e w w w w e e e e e e g 2.s.h.a.a.b.m.c.z.b.b.b.b.b.b.b.b.b.b.b.b.b.z.t.1.4 3 g 4.t.b.b.r.a.b.m.b.b.b.b.c.c.c.c.c.m.m.c.c.c.c.z.z.z.z.z.z.z.z.z.z.z.z.z.z.z.z.z.z.z.z.z.z.z.z.z.z.z.z.z.z.z.z.z.z.z.z.z.z.z.z.z.z.z.z.z.z.z.z.z.z.b.b.b.b.z.b.b.b.b.b.b.b.b.m.b.b.b.b.b.b.m.m.c.c.m.h.m.m.m.m.m.m.z.r.t.i.i.j.l.S.'.yXyXdXdXdXdXdXdXdXtXdXvXvXyX'.k.i.t.m.M.M.M.a.a.a.a.a.a.r.a.a.s.s.3.2.g g d t t 7 7 9 0 V R {  .} | | | | | | | | } } } } } } } } } } } } } } } } } } } } } } } } } } } } } } } } } } } } } } } } } } } } } } } } } } } } } } } } } } } } } } } } } } } } } } } } } } } } } } } } } } } } } } } } } } } } } } } } } } } } } } } } } } } } } } } } } } } } } } } } } } } } } } } } } } } } } } } } } } } } } } } } } } } } } } } } } } } } } } } } } } } } } } } } } } } } } ",
"% % % % % % % % % % % % % % % % @ @ % % % % % % % % % % & & & & @ + + + # # ; ; Y ]  .] ] ] ] ] ` ` ` ` ` ` ` ` ` ` ` ` ` ` ` ` ` ` ` ` ` ` ` ` ` ` ` ` ` ` ` ` ` ` ` ` ` ` ` ` ` ` ` ` ` ` ` ` ` ` ` ` ` ` ` ` ` ` ` _ ' &.;.5X4X2X2X2X2X2X<X<X<X<X1X1X1X1X1X1X1X1X1X1X1X1X1X1X1X1X1X1X1X1X1X1X1X1X1X1X<X<X<X<X<X<X2X2X2X2X2X2X3X3X3X3X2X5XwXwX~.V > 7 d d 2 2 d g g c t.2.g 2.i.t.t.s.a.a.s.u.r.r.r.r.r.r.r.r.y.y.a.a.a.a.a.a.a.s.h.s.4.i e e w w w e e e e e e e g 3.s.h.a.r.m.m.c.z.b.b.b.b.b.b.b.b.b.b.b.b.b.r.t.<.2 3 <.3.m.M.m.r.r.m.m.b.b.b.c.c.c.c.c.c.m.m.c.c.c.c.z.z.z.z.z.z.z.z.z.z.z.z.z.z.z.z.z.z.z.z.z.z.z.z.z.z.z.z.z.z.z.z.z.z.z.z.z.z.z.z.z.z.z.z.z.z.z.z.z.z.b.b.b.b.z.z.b.b.r.b.b.b.m.m.m.m.m.m.m.m.m.m.m.m.r.r.r.r.r.z.z.r.t.i.1.c i.l.`.yXyXsXxXvXsXsXsXsXsXsXsXxXsXsXsXdXS.N.h.M.m.m.M.M.h.h.h.a.a.a.r.a.a.s.s.i.2.z g d i e s 7 < 0 Z R  . .| | | } } } | | | } } } } } } } } } } } } } } } } } } } } } } } } } } } } } } } } } } } } } } } } } } } } } } } } } } } } } } } } } } } } } } } } } } } } } } } } } } } } } } } } } } } } } } } } } } } } } } } } } } } } } } } } } } } } } } } } } } } } } } } } } } } } } } } } } } } } } } } } } } } } } } } } } } } } } } } } } } } } } } } } } } } } } } } } } } } } ",
"% % % % % % % % % % % % % % % % @ @ % % % % % % & & & & & & & & @ + + + # # ; , ] ] ] ] ] ] ] ] ` ` ` ` ` ` ` ` ` ` ` ` ` ` ` ` ` ` ` ` ` ` ` ` ` ` ` ` ` ` ` ` ` ` ` ` ` ` ` ` ` ` ` ` ` ` ` ` ` ` ` ` ` ` ` ` ` ` ` _ / -.;.4X4X2X2X2X2X2X<X<X<X<X1X1X1X1X1X1X1X1X1X1X1X1X1X1X1X1X1X1X1X1X1X1X<X<X<X<X<X<X2X2X<X<X<X2X3X2X3X3X1X1X4X5X5X9X:X{ V 0 < d g 2 2 3 4.2.2.t.s.2.g 2.i.t.t.s.a.a.y.r.a.r.r.r.y.y.y.y.y.y.a.a.a.a.a.a.a.a.h.s.g e e e e e e e e e e e e g 1.s.h.a.a.h.a.y.z.z.b.b.b.z.a.b.m.b.r.r.b.m.b.t.<.3 3 <.3.n.b.b.b.b.b.b.b.b.b.z.z.r.r.r.r.z.z.z.z.z.z.z.z.z.z.z.z.z.z.z.z.z.z.z.z.z.z.z.z.z.z.z.z.z.z.z.z.z.z.z.z.z.z.z.z.z.z.z.z.z.z.z.z.z.c.c.c.c.c.c.c.c.m.m.m.m.b.b.b.b.b.r.r.r.r.b.m.m.M.M.m.z.t.t.1.1.1.<.V.1.1.1.<.<.g 4 c i.l.'.yXdXsXzXzXzXzXzXxXzXzXzXsXzXzXsXXXtXyXN.1.t.a.a.m.M.M.h.h.a.r.r.a.a.m.M.h.s.t.2.<.g i i e 7 < < 0 V R  ...| } } } } } } } } } } } } } } } } } } } } } } } } } } } } } } } } } } } } } } } } } } } } } } } } } } } } } } } } } } } } } } } } } } } } } } } } } } } } } } } } } } } } } } } } } } } } } } } } } } } } } } } } } } } } } } } } } } } } } } } } } } } } } } } } } } } } } } } } } } } } } } } } } } } } } } } } } } } } } } } } } } } } } } } } } } } } } } } } } } } ",
"% % % % % % % % % % % % % % % % @ @ % % % % % % & & & & & & & & @ + + + # # ; F ] ] ] ] ] ] ` ` ` ` ` ` ` ` ` ` ` ` ` ` ` ` ` ` ` ` ` ` ` ` ` ` ` ` ` ` ` ` ` ` ` ` ` ` ` ` ` ` ` ` ` ` ` ` ` ` ` ` ` ` ` ` ` ` ` ` ` _ / -.>X4X4X2X2X2X2X2X<X<X<X<X1X1X1X1X1X1X1X1X1X1X1X1X1X1X1X1X1X1X1X1X1X1X<X<X<X<X<X<X2X2X3X3X3X3X3X3X2X3X1X1X4X5XwX#X!.Z 0 0 2 d 2 2 2 g 3.s.3.t.s.1.5 2.t.t.t.u.a.h.y.r.a.r.r.r.y.y.y.y.y.y.a.a.a.a.a.a.s.s.s.t.g e e e e e e e e e e e e g 2.s.h.a.a.y.y.y.z.z.b.b.b.z.b.m.b.r.r.z.b.a.t.2.g g g 2.s.n.b.b.b.b.b.b.b.b.z.z.z.z.r.r.z.z.z.z.z.z.z.z.z.z.z.z.z.z.z.z.z.z.z.z.z.z.z.z.z.z.z.z.z.z.z.z.z.z.z.z.z.z.z.z.z.z.z.z.z.z.z.z.z.z.c.c.c.c.c.c.c.c.z.b.m.b.b.b.b.m.r.r.r.r.r.r.r.r.r.t.t.3.1.<.4 4 5 4 4 4 4 4 4 5 5 c j.`.eXyXdXxXsXsXzXzXzXzXsXsXsXXXXXXXsXsXXXsXyXN.c 1.2.3.t.a.h.a.h.h.m.m.a.a.h.h.h.h.s.3.2.4.<.g i s < < 0 0 Z R ~.(...} } } } } } } } } } } } } } } } } } } } } } } } } } } } } } } } } } } } } } } } } } } } } } } } } } } } } } } } } } } } } } } } } } } } } } } } } } } } } } } } } } } } } } } } } } } } } } } } } } } } } } } } } } } } } } } } } } } } } } } } } } } } } } } } } } } } } } } } } } } } } } } } } } } } } } } } } } } } } } } } } } } } } } } } } } } } } } } } } } ",
"% % % % % % % % % % % % % % % % @ @ % % % % % % % % & & & & % % @ @ + + # ; , Y  .] ] ] ] ] ] ` ` ` ` ` ` ` ` ` ` ` ` ` ` ` ` ` ` ` ` ` ` ` ` ` ` ` ` ` ` ` ` ` ` ` ` ` ` ` ` ` ` ` ` ` ` ` ` ` ` ` ` ` ` ` ` ` ` ` ` _ / -.>X4X4X2X2X2X2X2X<X<X<X<X1X1X1X1X1X1X1X1X1X1X1X1X1X1X1X1X1X1X1X1X1X1X<X<X<X<X2X2X2X2X3X3X3X<X3X2X<X2X1X4X5XwX#XA.Z 0 7 d e 2 2 3 g 2.n.n.s.t.t.g 3 2.t.t.s.u.a.r.y.r.r.r.r.r.y.y.r.r.y.y.a.a.a.a.a.a.s.s.s.2.d e e w w w e e e e e e e z s.a.h.h.h.h.y.y.z.z.b.b.b.b.m.m.b.r.z.b.r.3.1.g g g 2.s.n.b.b.c.b.c.c.c.c.c.z.z.c.c.c.c.c.c.z.z.z.z.z.z.z.z.z.z.z.z.z.z.z.z.z.z.z.z.z.z.z.z.z.z.z.z.z.z.z.z.z.z.z.z.z.z.z.z.z.z.z.z.z.z.z.z.c.c.c.c.b.b.b.b.b.b.b.z.z.z.z.b.b.b.b.r.r.t.3.1.1.<.V.4 4 4 4 4 4 4 4 4 4 g g c i.l.`.yXdXdXxXxXxXsXsXsXrXrXrXrXrXrXXXrXsXsXsXsXgXN.c g 4 4 1.1.t.i.t.t.r.a.a.a.h.m.M.M.M.n.s.3.4.<.i t < < 7 0 0 Z R ~.(.| } } } } } } } } } } } } } } } } } } } } } } } } } } } } } } } } } } } } } } } } } } } } } } } } } } } } } } } } } } } } } } } } } } } } } } } } } } } } } } } } } } } } } } } } } } } } } } } } } } } } } } } } } } } } } } } } } } } } } } } } } } } } } } } } } } } } } } } } } } } } } } } } } } } } } } } } } } } } } } } } } } } } } } } } } } } } } } } } } ",
"% % % % % % % % % % % % % % % % @ @ % % % % % % % & & & % % % % @ @ # # # ; P ]  .] ] ] ] ` ` ` ` ` ` ` ` ` ` ` ` ` ` ` ` ` ` ` ` ` ` ` ` ` ` ` ` ` ` ` ` ` ` ` ` ` ` ` ` ` ` ` ` ` ` ` ` ` ` ` ` ` ` ` ` ` ` ` ` ` _ _ / -.>X4X4X2X2X2X2X2X<X<X<X<X1X1X1X1X1X1X1X1X1X1X1X1X1X1X1X1X1X1X1X1X1X1X<X<X<X<X2X2X2X2X<X4X2X<X3X2X2X<X2X5XwX+XA.C 7 7 d d d 3 g <.t.s.N.M.s.t.3.g 5 2.t.u.u.u.r.r.r.r.r.r.r.r.r.r.r.r.y.y.a.a.a.a.a.a.s.s.s.x e e e w r w e e e e e e g 2.s.M.a.h.h.y.y.y.z.z.b.b.b.b.m.m.b.r.m.b.t.1.g g g 2.s.n.b.b.b.c.c.c.c.c.c.c.z.z.c.c.c.c.c.c.z.z.z.z.z.z.z.z.z.z.z.z.z.z.z.z.z.z.z.z.z.z.z.z.z.z.z.z.z.z.z.z.z.z.z.z.z.z.z.z.z.z.z.z.z.z.z.z.c.c.c.c.b.b.b.b.m.b.z.r.z.z.z.z.r.r.r.t.3.1.<.4 4 4 4 4 4 <.1.1.t.t.t.u.i.i.j.l.uXyXdXvXsXtXrXxXxXxXsXrXrXzXxXxXcXcXcXzXsXzXzXsXgXS.i.1.g 4 4 5 g g 1.2.t.t.r.r.a.m.M.M.M.M.n.s.2.4.g e 2 < < 7 d 0 Z R ~.~.| } } } } } } } } | } } } } } } } } } } } } } } } } } } } } } } } } } } } } } } } } } } } } } } } } } } } } } } } } } } } } } } } } } } } } } } } } } } } } } } } } } } } } } } } } } } } } } } } } } } } } } } } } } } } } } } } } } } } } } } } } } } } } } } } } } } } } } } } } } } } } } } } } } } } } } } } } } } } } } } } } } } } } } } } } } } } } } } } ",
"% % % % % % % % % % % % % % % % @ @ % % % % % % % % & & & & % % @ @ # # # ; Y  . .] ] T T ` ` o.` ` ` ` ` ` ` ` ` ` ` ` ` ` ` ` ` ` ` ` ` ` ` ` ` ` ` ` ` ` ` ` ` ` ` ` ` ` ` ` ` ` ` ` ` ` ` ` ` ` ` ` ` ` ` ` ` _ _ _ / =.4X4X4X2X2X2X2X2X<X<X<X<X1X1X1X1X1X1X1X1X1X1X1X1X1X1X1X1X1X1X1X1X1X1X<X<X<X<X2X2X2X2X<X3X3X2X2X3X2X5X5XwX+XR Z 0 2 d e d g g 2.3.s.N.M.b.t.t.3.4 4 t.a.a.a.r.r.r.r.y.r.r.r.r.y.y.r.r.y.y.a.a.a.a.a.a.s.s.8.g e e e w w w e e e e e e g t.M.M.a.y.y.y.y.y.z.z.z.z.z.b.b.b.b.b.b.a.2.g 3 g 2.0.n.n.b.b.z.c.c.c.c.c.c.y.c.y.c.c.c.c.c.y.z.z.z.z.z.z.z.z.z.z.z.z.z.z.z.z.z.z.z.z.z.z.z.z.z.z.z.z.z.z.z.z.z.z.z.z.z.z.z.z.z.z.z.z.z.z.z.z.c.c.b.b.b.b.b.b.b.z.r.z.b.b.r.t.1.1.1.1.1.1.<.<.<.<.1.1.1.t.t.r.y.h.j.j.j.l.`.eXtXdXvXxXxXxXxXvXxXxXsXzXcXbXnXnXNXNXnXcXxXzXzXsXgX`.N.s.3.<.4 5 5 5 4 g 1.1.3.t.t.r.a.m.M.M.n.n.s.3.z r t t t 7 t 7 0 Z R ~.~.| } } } } } } | | } } } } } } } } } } } } } } } } } } } } } } } } } } } } } } } } } } } } } } } } } } } } } } } } } } } } } } } } } } } } } } } } } } } } } } } } } } } } } } } } } } } } } } } } } } } } } } } } } } } } } } } } } } } } } } } } } } } } } } } } } } } } } } } } } } } } } } } } } } } } } } } } } } } } } } } } } } } } } } } } } } } } } } } ",
"% % % % % % % % % % % % % % % % @ @ % % % % % % % % & & & & % % ; @ # # ; , T  . .] ] ] T ` ` ` ` ` ` ` ` ` ` ` ` ` ` ` ` ` ` ` ` ` ` ` ` ` ` ` ` ` ` ` ` ` ` ` ` ` ` ` ` ` ` ` ` ` ` ` ` ` ` ` ` ` ` ` ` ` ` ` ` _ _ _ / >.4X4X4X2X2X2X2X2X<X<X<X<X1X1X1X1X1X1X1X1X1X1X1X1X1X1X1X1X1X1X1X1X1X1X<X<X<X<X2X2X2X2X<X3X3X<X2X3X5X5XwX+XR B 0 d d 2 2 2 g t.s.t.s.M.a.t.t.t.2.4 g i.h.h.a.r.r.r.r.y.a.a.r.r.y.y.r.r.y.y.a.a.a.a.a.a.s.s.2.d e e e e w w e e e e e e 2.s.M.h.h.y.y.r.y.y.z.z.z.z.z.z.r.r.a.b.a.3.<.i i 4.3.n.n.b.b.z.z.c.c.c.c.c.c.c.y.c.c.c.c.c.y.y.z.z.z.z.z.z.z.z.z.z.z.z.z.z.z.z.z.z.z.z.z.z.z.z.z.z.z.z.z.z.z.z.z.z.z.z.z.z.z.z.z.z.z.z.z.z.z.z.c.c.b.b.b.b.b.b.b.b.b.b.b.t.1.1.4 4 4 V.1.1.3.3.t.t.t.r.r.r.r.a.u.u.i.i.l.`.yXyXdXsXsXxXcXcXxXxXxXxXcXvXnXNXAXGXSXGXDXbXxXzXzXsXgXeXN.M.t.3.3.1.g g g g g g 1.1.1.1.3.t.z.n.M.M.s.s.2.z f d e t 2 t d 0 Z R ~.~.| } } } } } | | } } } } } } } } } } } } } } } } } } } } } } } } } } } } } } } } } } } } } } } } } } } } } } } } } } } } } } } } } } } } } } } } } } } } } } } } } } } } } } } } } } } } } } } } } } } } } } } } } } } } } } } } } } } } } } } } } } } } } } } } } } } } } } } } } } } } } } } } } } } } } } } } } } } } } } } } } } } } } } } } } } } } } } } ",
"% % % % % % % % % % % % % % % % @ @ % % % % % % % % % & & & % % ; @ # # : Y ] ] ] ] ] ] ` ` ` ` ` ` ` ` ` ` ` ` ` ` ` ` ` ` ` ` ` ` ` ` ` ` ` ` ` ` ` ` ` ` ` ` ` ` ` ` ` ` ` ` ` ` ` ` ` ` ` ` ` ` ` ` ` ` ` ` ` _ _ _ / >.4X4X4X2X2X2X2X2X<X<X<X<X1X1X1X1X1X1X1X1X1X1X1X1X1X1X1X1X1X1X1X1X1X1X1X1X2X2X2X2X2X3X<X<X3X2X,X3X5X6X+XR V 0 7 d e 2 2 i 1.n.n.t.t.h.r.t.t.r.2.4 g i.h.h.h.r.r.r.r.c.a.a.a.r.y.r.r.r.y.y.a.a.a.a.a.a.s.s.z e e e e e w w e e e e e e 3.s.M.h.y.y.y.r.y.y.z.z.z.z.z.z.c.r.r.a.t.4.g g 4.2.s.n.b.b.b.m.z.c.c.c.c.c.c.c.y.y.c.c.c.c.y.c.z.z.z.z.z.z.z.z.z.z.z.z.z.z.z.z.z.z.z.z.z.z.z.z.z.z.z.z.z.z.z.z.z.z.z.z.z.z.z.z.z.z.z.z.z.z.z.z.c.c.b.b.b.b.b.b.m.m.b.t.t.1.1.1.1.1.1.1.t.t.r.z.m.m.m.m.b.a.r.r.u.u.j.l.`.yXdXtXxXxXrXsXrXxXxXsXvXbXnXNXDXHXGXJXGXIXDXbXzXsXzXsXgXeXN.M.r.r.h.s.i.i.2.1.1.1.<.<.g <.1.1.3.3.t.s.s.s.7.x k z g e e t t 7 0 Z R !. .| } } } } } } } } } } } } } } } } } } } } } } } } } } } } } } } } } } } } } } } } } } } } } } } } } } } } } } } } } } } } } } } } } } } } } } } } } } } } } } } } } } } } } } } } } } } } } } } } } } } } } } } } } } } } } } } } } } } } } } } } } } } } } } } } } } } } } } } } } } } } } } } } } } } } } } } } } } } } } } } } } } } } } } } } } } } } } ",
"% % % % % % % % % % % % % % % % @ @ @ @ % % % % % % % % & & % & ; ; ; ; , T ] ] ] ] ] ` ` ` ` ` ` ` ` ` ` ` ` ` ` ` ` ` ` ` ` ` ` ` ` ` ` ` ` ` ` ` ` ` ` ` ` ` ` ` ` ` ` ` ` ` ` ` ` ` ` ` ` ` ` ` ` ` ` ` ` ` ` _ _ _ ) >.4X4X2X2X2X2X2X2X<X<X<X<X1X1X1X1X1X1X1X1X1X1X1X1X1X1X1X1X1X1X1X1X1X1X<X2X2X2X2X2X3X2X<X,X2X<X;.>X5XwX{ Z 0 0 d 2 2 e g g 1.s.n.t.t.a.r.t.r.a.3.4 g t.h.h.h.r.r.r.r.c.a.a.r.r.y.y.r.y.y.y.a.a.a.a.a.a.N.s.z e e e e p w w e e e e e e s.a.h.h.y.y.y.t.y.y.z.z.z.b.b.b.m.r.r.a.2.g i g 2.3.s.b.b.b.b.m.r.c.c.c.c.c.c.c.c.y.c.c.c.c.c.c.z.z.z.z.z.z.z.z.z.z.z.z.z.z.z.z.z.z.z.z.z.z.z.z.z.z.z.z.z.z.z.z.z.z.z.z.z.z.z.z.z.z.z.z.z.z.z.z.c.b.b.b.b.b.b.b.z.r.t.1.1.1.1.t.r.r.z.z.z.b.m.m.r.r.b.c.m.y.r.u.i.u.S.uXyXdXxXxXrXrXrXrXrXxXvXvXnXNXDXHXJXJXGXSXSXGXDXbXsXrXzXsXgXeXS.M.r.r.M.h.s.s.s.t.i.3.1.1.<.g <.1.1.1.2.2.3.t.s.8.2.4.z d d 2 2 t t 0 Z R ~. .| } } } } } } } } } [ [ [ [ [ [ [ [ } } [ [ [ [ [ [ [ [ [ [ [ [ [ [ [ [ [ [ } [ [ } } } [ [ [ } } [ [  . . . . .} } } } } } } } } } } } } } | | | | | | } } } } } } } } } } } } } } } } } } } } } } } } } } } } } } } } } } } } } } } } } } } } } } } } } } } } } } } } } } } } } } } } } } } } } } } } } } } } } } } } } } } } } } } } } } } } } } } } } ",
"% % % % % % % % % % % % % % % % % @ @ @ @ @ @ % @ @ % % : @ @ @ ; ; # ; G ] ] ] ] ` ` ` ` ` o.o.` ` ` ` ` ` ` ` ` ` ` ` ` ` ` ` ` ` ` ` ` ` ` ` ` ` ` ` ` ` ` ` ` ` ` ` ` ` ` ` ` ` ` ` ` ` ` ` ` ` ` ` ` ` ] ` ` ` ` _ &.>.4X4X2X2X2X2X2X2X<X<X<X<X1X1X1X1X1X1X<X<X<X<X<X<X<X<X<X<X<X<X<X<X<X<X3X3X<X3X2X2X2X2X<X:.:.,X5X5X-X .Z f < < 2 2 2 d g g 2.s.M.t.t.a.a.t.r.r.1.4 <.t.a.a.a.r.r.r.r.r.r.r.r.r.r.r.y.y.y.y.y.h.a.a.s.s.s.2.g e e e e e e w e e e e g 4.a.a.a.a.y.y.y.y.r.r.r.b.b.b.b.b.r.r.t.3.<.3 g 2.s.s.b.b.b.b.m.m.z.z.z.z.z.z.z.z.z.z.z.z.z.z.z.z.z.z.z.z.z.z.z.z.z.z.z.z.z.z.z.z.c.c.c.c.c.c.z.z.z.z.z.z.z.z.z.z.b.b.b.b.b.b.b.b.z.z.b.m.m.m.b.z.r.r.m.M.M.m.r.t.1.1.<.1.1.3.t.r.M.M.m.m.m.z.z.z.c.z.y.y.y.y.y.u.k.Y.OXyXtXrXxXxXzXzXxXzXxXvXnXNXJXJXHXGXHXGXGXGXHXGXDXbXzXXXXXsXgX`.N.h.t.t.h.M.h.h.a.a.a.a.a.a.t.t.3.2.1.<.g g g g 4.4.2.2.2.2.f t 2 e 2 2 7 0 R { ~...} [ [ [  .[ [ [ [ [ [ [ *.*.[ [ [ [ &.&.&.&.&.&.[ [ [ [ [ [ [ &.[ [ [ [ [ [ [ [ [ [ [ [ [ *. .] T T T ] ] ] ] ] ] ] ] ] ] ] ] ] ] ] ] ] ] ] T ]  . . . .| } } } } ....................................................................................................................................................................................",
"% % % % % % % % % % % % % % % % % @ @ @ @ @ @ @ @ @ % % : @ @ ; ; ; ; , Y ] ] ] ` ` o.o.` ` o.o.` ` ` ` ` ` ` ` ` ` ` ` ` ` ` ` ` ` ` ` ` ` ` ` ` ` ` ` ` ` ` ` ` ` ` ` ` ` ` ` ` ` ` ` ` ` ` ` ` ` ` ` ` ` ] ` ` ` ` _ &.;.4X4X2X2X2X2X2X2X<X<X<X<X1X1X1X1X1X1X<X<X<X<X<X<X<X<X<X<X<X<X<X<X<X<X1X3X<X3X2X2X2X2X1X:.>X>X>XwX .V 0 d 2 2 2 2 g c g g 2.a.M.r.t.a.r.t.r.r.1.4 1.t.a.a.a.a.r.r.a.a.r.r.r.r.r.y.y.y.y.y.y.y.a.a.a.s.s.4.g e e e e e e e e e w e g 2.a.a.a.a.y.y.y.y.r.r.r.b.b.b.b.b.b.r.t.1.g 3 <.3.s.a.b.z.c.c.m.m.z.z.z.z.z.z.z.z.z.z.z.z.z.z.z.z.z.z.z.z.z.z.z.z.z.z.z.z.z.z.z.z.c.c.c.c.c.c.z.z.z.z.z.z.z.z.z.z.b.b.b.b.b.b.b.b.z.z.b.b.b.m.m.m.m.m.m.b.t.3.1.1.<.1.1.t.t.r.m.m.m.m.m.m.m.m.m.c.r.y.y.y.u.u.h.j.Y._.tXrXrXrXhXzXxXzXzXxXvXnXNXAXJXJXHXGXGXGXGXGXGXHXUXmXsXXXXXsXgX`.N.a.t.t.h.M.h.h.a.a.a.a.a.a.r.t.t.t.3.2.1.1.<.4.4.4.g 4.4.z d t 2 2 e e t 0 n R ~. . .[ [ [ [ [ &.&.&.&.@.@.@.@.@.&.&.&.@.@.@.@.@.@.@.@.@.@.@.@.@.@.@.&.@.&.@.&.&.&.&.&.@.@.@.*.] T Y Y Y Y I I I I Y I I I Y Y Y Y I Y I Y Y Y Y Y  . . .....} | } ....=.=.=.=.=.=.=.=.=.=.=.=.=.=.=.=.=.=.=.=.=.=.=.=.=.=.=.=.=.=.=.=.=.=.=.=.=.=.=.=.=.=.+X+X+X+X=.=.=.=.=.=.=.=.+X+X+X+X=.=.=.=.=.=.=.=.+X+X+X+X=.=.=.=.+X+X+X+X=.=.=.=.+X+X+X+X=.=.=.",
"% % % % % % % % % % % % % % % % @ @ @ @ @ @ @ @ @ @ % % : : @ ; ; ; ; F T ] ] ` ` ` ` ` ` ` o.o.` ` ` ` ` ` ` ` ` ` ` ` ` ` ` ` ` ` ` ` ` ` ` ` ` ` ` ` ` ` ` ` ` ` ` ` ` ` ` ` ` ` ` ` ` ` ` ` ` ` ` ` ` ` ` ` ` ` _ _ &.;.4X4X2X2X2X2X2X2X<X<X1X<X1X1X1X1X1X1X<X<X<X<X<X<X<X<X<X<X<X<X<X<X<X<X<X<X2X2X2X2X2X2X<X,X>X>XwX+XY > 7 t e 2 2 d x 2.2.g 1.s.n.a.t.a.r.t.r.r.1.4 1.t.a.a.a.a.r.r.r.a.r.r.r.r.r.y.y.y.y.y.y.y.a.a.a.a.s.g e e e w e e e e e e e e z 3.a.a.a.a.y.y.y.y.r.r.b.b.b.b.b.b.b.r.2.<.g g 2.t.b.b.b.b.c.c.c.c.z.z.z.z.z.z.z.z.z.z.z.z.z.z.z.z.z.z.z.z.z.z.z.z.z.z.z.z.z.z.z.z.c.c.c.c.z.z.z.z.z.z.z.z.z.z.b.b.b.b.b.b.b.b.b.b.b.b.z.b.b.b.b.b.m.b.t.1.1.<.<.1.3.t.r.b.m.m.m.b.m.c.c.m.m.m.m.m.y.m.y.u.i.u.N.S.OXtXsXxXrXrXhXxXxXzXxXbXNXDXHXHXJXHXHXGXGXGXGXGXGXSXnXcX@XXXsXsXgX`.j.t.t.t.M.M.h.h.a.a.a.a.a.a.h.a.a.a.t.t.t.t.2.1.4.g g g g g g d e e e e t < < q R  . .} [ [ [ &.@.&.@.@.@.@.@.@.@.@.@.@.@.@.@.@.@.@.@.@.@.@.@.@.@.@.@.@.@.@.@.@.@.@.@.@.@.@.*.*.T I F F F F L L L H H P H H H P H P P H P P P P F Y  . . .............=.+X+X+X+X+X+X;X;X+X+X+X+X+X+X+X+X+X+X+X+X+X+X+X+X;X;X;X;X;X;X-X-X-X;X-X-X-X-X-X-X-X-X-X-X-X-X-X-X-X-X-X-X-X-X-X-X-X-X-X-X-X-X-X-X-X-X-X-X-X-X-X-X-X-X-X-X-X-X-X-X-X-X-X-X-X-X-X-X-X",
"% % % % % % % % % % % % % % % % @ @ @ @ @ @ @ @ & % % % : : % ; ; ; , Y ] ] ] ` ` ` ` ` ` ` ` o.` ` ` ` ` ` ` ` ` ` ` ` ` ` ` ` ` ` ` ` ` ` ` ` ` ` ` ` ` ` ` ` ` ` ` ` ` ` ` ` ` ` ` ` ` ` ` ` ` ` ` ` ` ` ` ` ` ` _ _ &.;.4X4X2X2X2X2X2X2X<X<X<X<X1X1X1X1X1X1X<X<X<X<X<X<X<X<X<X<X<X<X<X<X<X<X1X1X2X2X2X2X2X2X2X>X6XwX+XY > > 7 2 2 2 d x 2.2.2.g <.s.M.a.t.a.a.r.r.r.1.4 1.r.a.a.a.a.r.r.r.a.r.r.r.r.r.y.y.y.y.y.y.y.a.a.s.s.t.g e e e e e e e e e e e d 4.s.a.a.a.a.y.y.y.y.y.y.b.b.b.b.b.b.b.t.<.4 4 4.t.b.b.b.b.b.c.c.c.c.z.z.z.z.z.z.z.z.z.z.z.z.z.z.z.z.z.z.z.z.z.z.z.z.z.z.z.z.z.z.z.z.c.c.c.c.z.z.z.z.z.z.z.z.z.z.b.b.b.b.b.b.b.b.b.b.r.z.m.m.m.b.r.t.3.1.1.4 4 1.3.t.m.m.m.m.m.m.b.r.z.z.z.c.m.m.m.m.y.h.j.u.u.l.`.yXyXtXsXsXrXrXxXxXxXcXnXNXSXGXJXJXJXHXHXGXGXGXGXGXJXDXnXzXXXsXzXxXgXS.j.i.t.r.M.M.h.h.a.a.a.a.a.a.m.m.h.a.a.a.a.a.t.t.3.2.1.4.4.4.z z z d e t t t < 9 V R  . .[ [ &.@.@.@.@.@.@.@.@.@.%.@.@.@.%.@.@.@.@.@.@.@.@.@.@.@.@.@.@.@.@.@.@.@.#.#.#.#.@.@.@.@.T I F F F F L L I I P P P P H H H H H H K K K F F Y  . . .............+X-X:X-X-X-X-X-X-X-X-X-X-X-X-X-X-X-X-X-X-X-X-X-X-X-X-X-X-X-X-X-X-X-X-X-X-X-X-X-X-X-X-X-X-X-X-X-X-X-X-X-X-X-X-X-X-X-X-X-X-X-X-X-X-X-X-X-X-X-X-X-X-X-X-X-X-X-X-X-X-X-X-X-X-X-X-X-X-X-X",
"% % % % % % % % % % % % % % % % @ @ @ @ @ @ % % % % % % : % ; ; ; ; , T ] ] ] ` ` ` ` ` ` ` ` ` ` ` ` ` ` ` ` ` ` ` ` ` ` ` ` ` ` ` ` ` ` ` ` ` ` ` ` ` ` ` ` ` ` ` ` ` ` ` ` ` ` ` ` ` ` ` ` ` ` ` ` ` ` ` ` ` ` ` _ _ -.;.4X4X2X2X2X2X2X2X<X<X<X<X1X1X1X1X1X1X<X<X<X<X<X<X<X<X<X<X<X<X<X<X<X1X1X<X<X2X2X2X2X2X5X6XwX+XY > > 0 7 2 2 g x 2.2.3.3.g g t.M.b.r.r.r.r.r.r.1.4 <.r.a.b.a.a.r.r.a.a.r.r.r.r.r.y.y.y.y.y.y.y.a.a.a.s.2.g 2 e e e e e e e e w e g 8.s.a.a.h.a.y.y.y.y.a.a.b.b.b.b.b.b.a.2.4 3 g 3.s.b.b.b.b.b.z.z.z.z.z.z.z.z.z.z.z.z.z.z.z.z.z.z.z.z.z.z.z.z.z.z.z.z.z.z.z.z.z.z.z.z.c.c.z.z.z.z.z.z.z.z.z.z.b.b.b.b.b.b.b.b.b.b.b.b.r.z.m.m.z.t.3.1.4 4 4 <.1.t.r.m.m.m.m.b.b.b.b.m.b.c.z.c.c.m.c.y.y.u.u.j.l.`.yXdXtXtXrXrXrXsXxXcXbXnXDXSXGXJXGXJXJXGXGXGXGXGXGXGXGXNXmXzXrXzXxXdXyXS.s.t.t.a.M.h.h.h.a.a.a.a.a.a.a.a.a.a.a.a.a.a.a.s.s.s.s.3.3.2.4.z g e 2 2 t t e 7 0 Z R  .| [ &.@.@.%.%.%.@.@.%.%.%.%.%.%.%.%.@.@.@.@.@.@.@.@.@.@.@.@.%.@.%.@.@.@.@.@.#.#.@.@.@.@.T I I L F L L L L H J J J H H K K H H H H K K K F Y  .*. .............+X+X:X-X-X-X-X-X-X-X-X-X-X-X-X-X-X-X-X-X-X-X-X-X-X-X-X-X-X-X-X-X-X-X-X-X-X-X-X-X-X-X-X-X-X-X-X-X-X-X-X-X-X-X-X-X-X-X-X-X-X-X-X-X-X-X-X;X;X;X;X-X-X-X-X;X;X;X;X-X-X-X-X;X;X;X;X-X-X-X",
"% % % % % % % % % % % % % % % % @ @ @ @ @ @ % % % % % % % % ; ; ; , F T ] ] ` ` ` ` ` ` ` ` ` ` ` ` ` ` ` ` ` ` ` ` ` ` ` ` ` ` ` ` ` ` ` ` ` ` ` ` ` ` ` ` ` ` ` ` ` ` ` ` ` ` ` ` ` ` ` ` ` ` ` ` ` ` ` ` ` ` ` ` _ _ -.;.4X4X2X2X2X2X2X2X<X<X<X<X1X1X1X1X1X1X<X<X<X<X<X<X<X<X<X<X<X<X<X<X<X1X1X<X1X<X2X2X2X5X6XwX+XY > > 9 7 < 2 d x 2.3.i.s.t.4.g t.M.M.a.r.b.r.r.r.<.4 <.r.a.a.a.a.a.r.a.a.r.r.a.a.r.y.y.y.y.y.y.y.a.a.s.s.4.e 2 e w e e e e e w w i 4.s.s.a.a.a.a.y.y.y.y.m.m.b.b.b.b.a.a.3.<.4 4 2.a.b.b.b.b.b.b.z.z.z.z.z.z.z.z.z.z.z.z.z.z.z.z.z.z.z.z.z.z.z.z.z.z.z.z.z.z.z.z.z.z.z.z.c.c.z.z.z.z.z.z.z.z.z.z.b.b.b.b.b.b.b.b.b.b.b.b.m.m.z.r.t.1.V.4 <.<.1.t.r.b.z.r.r.r.b.a.b.b.b.b.c.c.c.c.z.z.c.y.u.i.j.l.'.yXdXtXsXrXrXxXsXxXcXbXNXDXSXGXGXGXGXJXJXGXGXGXGXGXGXGXGXNXxXrXzXxXxXdXeXN.t.r.a.a.M.h.h.h.h.a.a.a.a.a.r.r.a.a.a.a.a.a.a.a.a.s.s.s.s.s.3.4.d t 2 2 2 t e t 7 0 Z {  ...&.@.%.%.%.%.%.#.#.#.#.%.%.%.%.%.@.@.%.%.%.%.#.#.#.#.#.%.%.%.%.%.#.#.#.+.+.#.#.#.@.Q T I I L L L J J J J J P J P J P P P I P I P K K F Y  .*.............=.+X+X:X-X-X-X-X-X-X-X-X-X-X-X-X-X-X-X-X-X-X-X-X-X-X-X-X-X-X-X-X-X-X-X-X-X-X-X-X-X-X-X-X-X-X-X-X-X-X-X-X-X-X-X-X-X-X-X-X-X-X-X-X-X-X-X-X-X-X-X-X-X-X-X-X-X-X-X-X-X-X-X-X-X-X-X-X-X-X-X",
"% % % % % % % % % % % % % % % % % @ @ @ @ @ % % % % % @ % ; ; ; ; G T T ] ` ` ` ` ` ` ` _ ` ` ` ` ` ` ` ` ` ` ` ` ` ` ` ` ` ` ` ` ` ` ` ` ` ` ` ` ` ` ` ` ` ` ` ` ` ` ` ` ` ` ` ` ` ` ` ` ` ` ` ` ` ` ` ` ` ` ` ` ` _ _ -.>X4X4X2X2X2X2X2X2X<X<X<X<X1X1X1X1X1X1X<X<X<X<X<X<X<X<X<X<X<X<X<X<X<X1X<X1X<X<X2X2X5X5X9X+XR B > 9 d 2 2 d x 2.i.i.s.s.s.<.g t.M.M.a.r.b.r.a.r.<.4 <.r.b.b.b.b.a.a.a.a.r.r.a.a.r.y.y.y.y.y.y.y.a.a.t.t.g e 2 e e e e e e e e e g 2.s.s.a.a.a.a.y.y.y.y.m.m.b.b.b.a.s.n.<.4 4 <.t.b.b.b.b.m.b.b.z.z.r.r.z.z.z.z.z.z.z.z.z.z.z.z.z.z.z.z.z.z.z.z.z.z.z.z.z.z.z.z.z.z.z.z.z.z.z.z.z.z.z.z.b.b.b.b.z.b.b.b.b.b.b.b.b.b.b.b.z.r.t.1.1.V.V.<.t.t.r.r.m.b.r.r.r.r.r.r.r.r.r.r.c.z.z.z.c.c.y.u.u.j.l.'.yXxXjXtXxXrXrXsXsXxXvXnXAXAXSXGXGXGXGXGXGXGXGXGXGXGXGXGXGXnXzXrXxXxXsXdX`.N.t.a.b.b.m.a.h.h.h.a.b.a.a.h.r.r.r.r.a.a.a.a.a.a.a.a.a.a.s.s.s.3.z g d t t e e e t 7 0 Z R  .*.@.%.%.%.%.#.#.#.#.#.%.%.#.%.#.%.%.%.%.%.%.%.%.#.#.#.#.#.#.#.#.#.+.+.+.+.+.#.#.%.Q T I L L L L H H H H H H H H H K K H K H K K K K F Y  .$X*.*... .....=.+X:X:X-X-X-X-X-X-X-X-X-X-X-X-X-X-X-X-X-X-X-X-X-X-X-X-X-X-X-X-X-X-X-X-X-X-X-X-X-X-X-X-X-X-X-X-X-X-X-X-X-X-X-X-X-X-X-X-X-X-X-X-X-X-X-X-X-X-X-X-X-X-X-X-X-X-X-X-X-X-X-X-X-X-X-X-X-X-X-X",
"% % % % % % % % % % % % % % % % % % @ @ @ @ % % % % @ @ ; ; ; ; , ) [ ' ` ] ` ) ` ` _ _ _ ' ` ` ` ` ` ` ` ` ` ` ` ` ` ` ` ` ` ` ` ` ` ` ` ` ` ` ` ` ` ` ` ` ` ` ` ` ` ` ` ` ` ` ` ` ` ` ` ` ` ` ` ` ` ` ` ` ` ` ` ` ) ' -.>X4X4X2X2X2X2X2X2X<X<X<X<X1X1X1X1X1X1X<X<X<X<X<X<X<X<X<X<X<X<X<X<X<X1X<X<X1X<X2X2X5X9XwX{ B > < < 2 2 2 g 2.i.t.s.s.t.s.<.g 3.M.M.a.r.b.r.a.r.<.5 <.r.b.b.b.b.a.a.a.a.r.r.r.a.r.y.y.y.y.y.y.y.a.a.t.t.g e e e e e e e e w e e g 8.s.s.a.a.a.a.y.y.y.y.m.m.b.b.n.b.n.n.g 4 4 2.a.b.b.m.m.m.b.b.z.z.r.r.z.z.z.z.z.z.z.z.z.z.z.z.z.z.z.z.z.z.z.z.z.z.z.z.z.z.z.z.z.z.z.z.z.z.z.z.z.z.z.z.b.b.b.b.z.z.b.b.b.b.b.b.b.b.b.b.3.1.V.4 4 1.3.t.z.m.m.m.b.r.z.m.b.b.r.r.r.r.b.m.z.z.z.c.c.y.y.u.u.l.'.yXtXrXjXxXrXrXrXrXrXxXbXNXAXAXAXGXJXJXGXHXHXHXGXGXGXGXGXGXGXnXsXrXxXcXdXdXS.j.t.M.M.m.b.a.h.h.h.a.b.b.a.h.a.y.a.a.a.h.h.a.h.a.a.a.a.a.M.M.M.s.s.t.x d e i e e t 7 7 0 Z {  .*.%.%.#.$.#.+.#.#.#.#.#.#.#.#.%.%.%.%.%.%.%.%.%.%.%.%.%.%.#.#.+.+.+.+.+.+.#.#.%.Q T F F L L I H H H H H H H H K K K H H H K K P K K Y  .$X*.*. . ...=.=.+X:X:X-X-X-X-X-X-X-X-X-X-X-X-X-X-X-X-X-X-X-X-X-X-X-X-X-X-X-X-X-X-X-X-X-X-X-X-X-X-X-X-X-X-X-X-X-X-X-X-X-X-X-X-X-X-X-X-X-X-X-X-X-X-X-X-X-X-X-X-X-X-X-X-X-X-X-X-X-X-X-X-X-X-X-X-X-X-X-X",
"% % % % % % % % % % % % % % % % % % % % % % % % @ : @ @ ; @ ; ; ( ..&.[ ] ` ` ` _ _ _ _ _ _ ` ` ` ` ` ` ` ` ` ` ` ` ` ` ` ` ` ` ` ` ` ` ` ` ` ` ` ` ` ` ` ` ` ` ` ` ` ` ` ` ` ` ` ` ` ` ` ` ` ` ` _ ` ` ` ` ` ` ` ) ' ) -.>X4X4X2X3X2X2X2X2X<X<X<X<X1X1X1X1X1X1X<X<X<X<X<X<X<X<X<X<X<X<X<X<X<X<X1X<X<X4X3X3X5XwX..V > 9 7 < 2 2 x 2.t.s.s.s.a.M.M.1.g t.N.M.a.r.r.a.m.t.g 4 1.r.r.r.r.a.a.a.r.r.r.r.a.a.y.y.y.y.y.r.y.y.r.a.a.1.2 e e e e e e e e e e d 4.s.N.s.a.y.a.a.y.y.y.y.r.m.m.a.s.s.3.<.3 4 1.a.M.b.b.b.b.b.b.c.c.c.c.c.z.z.z.z.z.z.z.z.z.z.z.z.z.z.z.z.z.z.z.z.z.z.z.z.z.z.z.z.z.z.z.z.z.z.z.z.z.z.z.z.z.z.b.m.M.m.b.z.b.m.M.M.m.t.3.1.4 4 V.1.3.t.z.m.z.z.z.z.b.b.b.b.b.a.a.a.b.b.b.z.m.c.r.t.r.h.j.i.l.uXdXvXrXrXrXXXrXrXzXzXrXcXnXAXGXGXGXGXGXGXGXGXGXGXJXJXGXGXGXJXNXmXcXsXsXvXdXyXl.j.t.m.b.a.a.m.h.h.a.b.b.a.a.a.h.y.y.y.h.h.h.h.a.a.a.h.h.a.a.b.M.b.s.s.s.2.z i i e e d 7 7 0 V E *.*.%.#.+.+.#.#.#.#.#.#.#.$.#.#.%.#.#.#.#.#.#.%.%.#.#.#.#.#.#.#.+.+.+.+.+.#.#.@.Q I F L H H I H H H H H H H H H H H H H H H K J H K Y  .$X=..... .....+X+X+X+X-X-X-X-X-X-X-X-X-X-X-X-X-X-X-X-X-X-X-X-X-X-X-X-X-X-X-X-X-X-X-X-X-X-X-X-X-X-X-X-X-X-X-X-X-X-X-X-X-X-X-X-X-X-X-X-X-X-X-X-X-X-X-X-X-X-X-X-X-X-X-X-X-X-X-X-X-X-X-X-X-X-X-X-X-X-X-X",
"% % % % % % % % % % % % % % % % % % % % % % % % % @ @ @ ; @ ; , } =.[ ' ` ' ' ` _ _ _ _ _ _ ` ` ` ` ` ` ` ` ` ` ` ` ` ` ` ` ` ` ` ` ` ` ` ` ` ` ` ` ` ` ` ` ` ` ` ` ` ` ` ` ` ` ` ` ` ` ` ` ` ` ` _ ` ` ` ` ` ` ` ) ' ) -.>X4X4X2X3X2X2X2X2X<X<X<X<X1X1X1X1X1X1X<X<X<X<X<X<X<X<X<X<X<X<X<X<X<X<X2X2X<X2X3X5X>X+XR q < < < < 2 e 2.3.t.s.s.a.a.M.a.1.g t.M.M.b.r.r.a.m.t.g 4 1.r.r.r.r.a.a.a.a.r.r.r.a.a.y.y.y.y.y.r.y.y.t.a.s.4.2 e e e w e w e e e e g 2.s.s.a.a.y.a.h.y.y.y.y.a.m.b.s.b.a.2.g 3 <.3.b.b.b.a.m.b.b.c.c.c.c.c.c.z.z.z.z.z.z.z.z.z.z.z.z.z.z.z.z.z.z.z.z.z.z.z.z.z.z.z.z.z.z.z.z.z.z.z.z.z.z.z.z.m.m.b.b.z.z.z.z.m.M.M.b.t.1.1.V.V.1.3.r.b.b.z.r.z.z.z.z.b.b.b.b.b.b.b.b.b.b.b.z.c.c.y.y.u.i.j.l.uXyXdXxXrXrX%XXXrXxXxXzXxXvXNXHXGXGXGXGXGXGXGXSXJXJXJXGXGXGXGXHXnXcXxXxXsXvXtXeXl.j.a.m.m.b.b.m.a.a.b.a.a.a.a.a.h.y.y.y.h.h.h.h.a.a.a.a.a.a.a.a.a.a.s.a.s.s.2.4.g e e e t 7 7 0 U E *.%.+.+.$.#.#.#.#.#.#.O.O.$.#.%.#.#.#.#.#.#.#.%.#.#.#.#.#.+.#.+.+.+.+.+.#.@.%.T I F L L H P H H H H H H H H H H H H H H H H P P K Y  .$X*..... .....+X+X:X+X-X-X-X-X-X-X-X-X-X-X-X-X-X-X-X-X-X-X-X-X-X-X-X-X-X-X-X-X-X-X-X-X-X-X-X-X-X-X-X-X-X-X-X-X-X-X-X-X-X-X-X-X-X-X-X-X-X-X-X-X-X-X-X-X-X-X-X-X-X-X-X-X-X-X-X-X-X-X-X-X-X-X-X-X-X-X-X",
"% % % % % % % % % % % % % % % % % % % % % % % % : @ @ % ; # , ( >.=.[ ' ` ' ' ` ` ` ` ` ` ` ` ` ` ` ` ` ` ` ` ` ` ` ` ` ` ` ` ` ` ` ` ` ` ` ` ` ` ` ` ` ` ` ` ` ` ` ` ` ` ` ` ` ` ` ` ` ` ` ` ` ` _ ` ` ` ` ` ` ' ' ' ) -.>X4X<X2X2X2X2X2X2X<X<X<X<X1X1X1X1X1X1X<X<X<X<X<X<X<X<X<X<X<X<X<X<X<X2X2X2X2X2X5X6X+XR 0 0 7 2 2 2 d g 2.3.s.s.a.a.a.M.a.1.g 3.M.M.b.r.a.a.m.t.4 4 1.r.r.r.a.a.a.a.r.r.r.r.r.a.r.y.y.y.y.r.y.y.r.a.t.<.2 e e e w w w e e e e g 2.s.s.a.a.y.y.y.y.y.a.a.m.b.b.b.s.t.<.3 g 1.r.b.a.r.b.m.c.c.c.c.c.c.c.c.z.z.z.z.z.z.z.z.z.z.z.z.z.z.z.z.z.z.z.z.z.z.z.z.z.z.z.z.z.z.z.z.z.z.z.z.b.b.b.b.b.m.b.b.z.z.z.z.m.z.t.1.<.4 V.1.t.t.r.z.m.m.m.b.z.z.z.z.z.z.r.r.z.z.z.z.z.z.z.y.y.y.h.u.i.j.S.uXdXtXjXjXhXhXhXhXzXcXcXxXxXbXDXHXGXGXGXGXGXGXJXGXJXJXGXGXGXJXHXDXvXxXxXxXsXvXyX`.j.k.a.m.m.b.m.m.a.a.b.a.b.a.a.a.h.h.h.h.h.h.a.a.a.a.a.a.a.a.a.a.r.r.a.b.M.h.s.s.4.d 2 2 t e 2 < 0 U E *.#.+.#.%.#.#.#.+.O.O.+.$.#.#.%.%.#.#.#.#.%.%.#.#.#.#.+.+.#.+.+.+.+.#.#.@.%.T F F L I H P H H H H H H H H H H H H H H H H J P K Y  .$X*...........+X-X-X-X-X-X-X-X-X-X-X-X-X-X-X-X-X-X-X-X-X-X-X-X-X-X-X-X-X-X-X-X-X-X-X-X-X-X-X-X-X-X-X-X-X-X-X-X-X-X-X-X-X-X-X-X-X-X-X-X-X-X-X-X-X-X-X-X-X-X-X-X-X-X-X-X-X-X-X-X-X-X-X-X-X-X-X-X-X-X-X",
"% % % % % % % % % % % % % % % % % % % % % % % % : @ @ % @ # , } 6X;X[ ' ' ' ' ` ` ` ` ` ` ` ` ` ` ` ` ` ` ` ` ` ` ` ` ` ` ` ` ` ` ` ` ` ` ` ` ` ` ` ` ` ` ` ` ` ` ` ` ` ` ` ` ` ` ` ` ` ` ` ` ` ` _ ` ` ` ` ` ' ' ' ' ) =.>X4X<X2X2X2X2X2X2X<X<X<X<X1X1X1X1X1X1X<X<X<X<X<X<X<X<X<X<X<X<X<X<X<X2X2X4X>X5XwX+XR q 9 0 d 2 e d x t.2.t.s.a.a.a.m.M.a.2.g 1.b.m.r.r.a.a.m.t.<.4 1.r.a.a.a.a.a.a.r.a.r.r.r.r.r.y.y.y.y.y.y.y.r.r.3.g e e e e w w w e e e g z 7.s.s.a.a.y.y.y.y.y.a.a.m.b.b.b.t.1.g 3 <.3.b.m.a.r.c.m.c.c.c.c.c.c.c.c.z.z.z.z.z.z.z.z.z.z.z.z.z.z.z.z.z.z.z.z.z.z.z.z.z.z.z.z.z.z.z.z.z.z.z.z.b.b.b.b.b.z.z.b.b.b.z.z.t.3.1.4 4 4 1.t.m.m.z.z.b.m.m.M.r.r.r.z.z.z.z.z.z.z.z.z.z.z.z.y.u.u.u.i.j.l.uXyXvXxXjXxXxXxXxXxXbXnXbXxXxXnXAXHXGXGXGXGXGXSXFXFXGXJXGXHXGXPXAXNXcXsXsXxXsXvXyXS.i.s.h.m.m.m.m.h.h.h.b.b.b.b.b.a.a.h.h.h.h.h.a.a.a.a.a.a.h.a.h.m.b.b.a.b.m.M.a.s.3.x 2 2 2 e e 2 9 q W Q *.#.+.#.#.#.#.+.O.O.+.$.#.#.%.%.#.#.#.#.%.%.#.#.#.#.#.+.#.#.#.+.+.#.#.%.%.T F F L I L H H H H H H H H H H H H H H H H H J K K Y  .$X*.........=.+X-X-X-X-X-X-X-X-X-X-X-X-X-X-X-X-X-X-X-X-X-X-X-X-X-X-X-X-X-X-X-X-X-X-X-X-X-X-X-X-X-X-X-X-X-X-X-X-X-X-X-X-X-X-X-X-X-X-X-X-X-X-X-X-X-X-X-X-X-X-X-X-X-X-X-X-X-X-X-X-X-X-X-X-X-X-X-X-X-X-X",
"% % % % % % % % % % % % % % % % % % % % % % : % @ @ @ ; # @ , ;X9X;X[ ' ` ' ' ` ` ` ` ` ` ` ` ` ` ` ` ` ` ` ` ` ` ` ` ` ` ` ` ` ` ` ` ` ` ` ` ` ` ` ` ` ` ` ` ` ` ` ` ` ` ` ` ` ` ` ` ` ` ` ` ` ` _ ` ` ` ` ` ' ' ` ' ) =.4X4X<X2X2X2X2X2X2X<X<X<X<X1X1X1X1X1X1X<X<X<X<X<X<X<X<X<X<X<X<X<X<X<X<X2X5X9X9X#X{ V 9 < d d 2 d x 2.s.t.s.a.a.b.b.b.M.a.3.<.<.r.m.a.r.m.a.m.t.<.4 1.r.a.a.a.a.a.a.a.r.r.r.r.r.r.y.y.y.r.y.y.y.r.a.2.g 2 e e w w e e e e e g 2.s.s.h.a.a.a.y.y.y.y.b.a.r.b.n.b.2.g 4 g 3.s.n.b.b.b.c.r.c.c.c.c.c.c.c.c.z.z.z.z.z.z.z.z.z.z.z.z.z.z.z.z.z.z.z.z.z.z.z.z.z.z.z.z.z.z.z.z.z.z.b.b.b.b.b.b.m.b.z.z.b.z.t.t.V.4 4 4 V.1.r.m.z.b.m.m.m.m.m.b.z.z.z.z.r.z.z.z.z.z.z.z.z.z.r.y.u.i.i.j.l.uXtXvXtXrXrXhXhXhXxXbXnXCXnXxXxXnXHXGXHXGXGXGXJXFXFXFXGXIXGXGXGXJXAXbXxXsXrXxXdXdXyXl.i.k.h.M.M.M.M.M.M.h.m.m.m.m.m.m.a.h.h.h.a.a.a.a.h.h.h.a.h.h.h.h.m.m.a.a.a.a.a.s.t.2.g 2 2 2 i e 8 9 q E *.@.@.%.#.#.#.+.+.$.$.$.#.#.#.#.#.#.#.#.#.#.#.#.+.+.+.#.#.#.+.+.#.#.#.%.%.T F F L L L H H J J J J J J J J J J J J J J J K K P Y *.$X..........=.+X-X-X;X-X-X-X-X-X-X-X-X-X-X-X-X-X-X-X-X-X-X-X-X-X-X-X-X-X-X-X-X-X-X-X-X-X-X-X-X-X-X-X-X-X-X-X-X-X-X-X-X-X-X-X-X-X-X-X-X-X-X-X-X-X-X-X-X-X-X-X-X-X-X-X-X-X-X-X-X-X-X-X-X-X-X-X-X-X-X-X",
"% % % % % % % % % % % % % % % % % % % % % % % : @ @ % @ # ; X.6X9X;X[ ' ' ' ' ` ` ` ` ` ` ` ` ` ` ` ` ` ` ` ` ` ` ` ` ` ` ` ` ` ` ` ` ` ` ` ` ` ` ` ` ` ` ` ` ` ` ` ` ` ` ` ` ` ` ` ` ` ` ` ` ` _ _ ` ` ` ` ` ` ` ' ' ) =.4X4X<X2X2X2X2X2X2X<X<X<X<X1X1X1X1X1X1X<X<X<X<X<X<X<X<X<X<X<X<X<X<X<X<X2X5X9XwX~.V 0 7 2 d 2 2 g 2.i.s.s.t.a.a.b.b.b.b.a.t.1.g t.m.a.r.m.a.m.t.<.4 1.r.a.a.a.a.a.a.r.r.r.r.r.r.r.y.y.y.r.y.y.r.a.r.1.4 2 e e w w w e e e r z 8.s.s.a.a.a.a.y.y.y.y.a.a.r.b.b.t.<.4 g 2.s.s.b.b.m.m.c.r.c.c.c.c.c.c.c.c.z.z.z.z.z.z.z.z.z.z.z.z.z.z.z.z.z.z.z.z.z.z.z.z.z.z.z.z.z.z.z.z.z.z.b.b.b.b.b.b.b.b.b.b.z.t.1.V.4 4 1.3.t.z.z.z.z.z.b.b.m.b.z.z.z.z.z.z.z.z.z.r.z.z.z.r.z.z.r.y.j.i.u.l.uXyXxXxXrXrXrXhXrXhXbXNXDXDXnXxXxXnXAXGXHXGXGXGXJXFXFXFXGXGXGXGXJXGXNXvXxXsXsXxXsXtXuXl.u.j.j.M.M.M.M.M.M.M.m.m.m.m.b.b.a.h.h.h.a.a.a.a.h.h.a.a.h.h.h.h.r.r.r.r.r.a.a.a.t.t.2.g 2 2 2 t t 9 9 q E *.%.@.#.#.#.#.#.#.#.#.#.#.#.#.#.#.#.#.#.#.#.#.+.+.+.#.#.#.#.+.+.#.#.%.@.T F F L L L H H H J K J K J K J H J H J H J K K K K Y $X$X..........=.=.;X-X;X-X-X-X-X-X-X-X-X-X-X-X-X-X-X-X-X-X-X-X-X-X-X-X-X-X-X-X-X-X-X-X-X-X-X-X-X-X-X-X-X-X-X-X-X-X-X-X-X-X-X-X-X-X-X-X-X-X-X-X-X-X-X-X-X-X-X-X-X-X-X-X-X-X-X-X-X-X-X-X-X-X-X-X-X-X-X-X",
"% % % % % % % % % % % % % % % % % % % % % % % % @ @ % @ @ , ..6X6X;X&.' ' ) ` ` ` ` ` ` ` ` ` ` ` ` ` ` ` ` ` ` ` ` ` ` ` ` ` ` ` ` ` ` ` ` ` ` ` ` ` ` ` ` ` ` ` ` ` ` ` ` ` ` ` ` ` ` ` ` ` ` _ _ ` ` ` ` ` ` ` ' ) / >.4X4X<X2X2X2X2X2X2X<X<X<X<X1X1X1X1X1X1X<X<X<X<X<X<X<X<X<X<X<X<X<X<X<X2X4X5X:X .V 0 7 t 2 2 2 d x 3.t.s.s.a.a.a.b.m.m.m.r.r.<.4 3.b.a.r.m.a.m.t.<.4 1.r.r.r.a.a.a.a.a.a.r.r.r.r.r.y.y.y.r.y.y.r.a.t.1.2 2 e e w w e e e e i 4.s.s.s.a.h.a.y.y.y.y.y.a.a.r.b.a.2.g 3 <.3.n.b.b.m.m.z.c.c.c.c.c.c.c.c.c.c.z.z.z.z.z.z.z.z.z.z.z.z.z.z.z.z.z.z.z.z.z.z.z.z.z.z.z.z.z.z.z.z.z.z.z.z.b.z.b.b.z.b.b.r.3.1.4 4 V.1.t.z.M.m.z.r.m.b.b.z.z.z.z.z.z.z.z.z.z.z.z.r.z.r.r.r.z.z.z.y.u.j.S.uXyXxXjXhXhXhXrXhXxXbXNXHXSXDXnXxXxXnXAXHXHXGXGXJXJXFXFXFXSXGXJXJXPXAXNXvXxXzXzXsXdXyX`.j.j.j.a.a.b.b.a.b.h.a.b.b.b.b.a.a.a.a.h.h.a.a.a.a.a.a.a.a.a.a.a.a.u.u.u.r.h.a.h.a.r.r.t.2.g d 2 2 t 7 9 m K E @.@.#.+.#.#.#.%.%.%.#.#.#.#.#.#.#.#.#.#.+.+.+.+.+.#.#.#.#.#.#.#.#.%.Q G F F L L L H H H H H H H H H H H H H H H H H H K K E $X$X..........=.=.;X-X;X-X-X-X-X-X-X-X-X-X-X-X-X-X-X-X-X-X-X-X-X-X-X-X-X-X-X-X-X-X-X-X-X-X-X-X-X-X-X-X-X-X-X-X-X-X-X-X-X-X-X-X-X-X-X-X-X-X-X-X-X-X-X-X-X-X-X-X-X-X-X-X-X-X-X-X-X-X-X-X-X-X-X-X-X-X-X-X",
"% % % % % % % % % % % % % % % % % % % % % % % % % % % @ ; ( :X6X6X;X-.' ' ) ` ` ` ` ` ` ` ` ` ` ` ` ` ` ` ` ` ` ` ` ` ` ` ` ` ` ` ` ` ` ` ` ` ` ` ` ` ` ` ` ` ` ` ` ` ` ` ` ` ` ` ` ` ` ` ` ` ` _ _ ` ` ` ` ` ` ` ` ) / >.4X4X<X2X3X2X2X2X2X<X<X1X1X1X1X1X1X1X1X1X1X1X1X<X<X2X2X<X<X<X<X<X2X2X2X5XwX$XV 0 0 t e 2 2 d x 2.t.s.h.s.a.a.a.b.m.m.b.r.r.1.4 2.b.a.r.m.m.m.t.<.4 1.r.r.a.a.a.a.a.a.r.r.r.r.r.r.r.y.y.r.y.y.r.a.t.<.2 2 e e e w w e e t d 2.s.N.s.a.h.h.y.y.y.y.y.a.a.b.b.t.<.4 4 2.s.n.b.b.m.m.r.r.m.c.c.c.c.c.c.c.c.z.z.z.z.z.z.z.z.z.z.z.z.z.z.z.z.z.z.z.z.z.z.z.z.z.z.z.z.z.z.z.z.z.z.z.z.z.b.b.b.m.b.t.1.4 4 4 <.t.r.m.m.m.z.b.m.m.m.b.z.z.z.z.z.y.y.y.z.z.z.z.r.z.r.y.y.y.y.y.u.i.l.uXyXvXxXrX.XhXrXrXxXbXCXHXJXGXDXbXxXxXnXAXGXGXGXGXGXGXJXSXSXSXGXJXPXJXAXnXvXxXzXxXsXdXyXS.k.k.s.t.t.t.t.t.r.a.a.a.a.a.a.a.a.a.a.h.h.h.a.a.a.a.a.r.r.r.r.a.s.u.u.a.h.h.a.a.a.r.a.a.t.2.g d 2 t w 7 9 q W E @.%.#.#.#.#.#.%.%.#.#.#.#.#.#.#.#.#.#.+.+.+.#.+.#.%.%.#.#.#.#.#.%.Q I F F I L H H H H H H H H H H H H H H H H H H H F P E $X$X.. .......=.=.;X;X;X-X-X-X-X-X-X-X-X-X-X-X-X-X-X-X-X-X-X-X-X-X-X-X-X-X-X-X-X-X-X-X-X-X-X-X-X-X-X-X-X-X-X-X-X-X-X-X-X-X-X-X-X-X-X-X-X-X-X-X-X-X-X-X-X-X-X-X-X-X-X-X-X-X-X-X-X-X-X-X-X-X-X-X-X-X-X-X",
"% % % % : : : % % % : : : % % % % % @ @ @ @ % % % : % @ , ..6X6X6X>X-.' ' ' ' ' ` ` ` ` ` ` ` ` ` ` ` ` ` ` ` ` ` ` ` ` ` ` ` ` ` ` ` ` ` ` ` ` ` ` ` ` ` ` ` ` ` ` ` ` ` ` ` ` ` ` ` ` ` ` ` ` _ _ ` ` ` ' ` ' ` ` ) ' ;.4X4X<X3X3X3X3X3X<X1X1X1X1X1X<X<X<X<X1X1X1X1X1X1X3X<X3X,X3X<X<X4X4X2X9X0X+XR 0 9 7 e e 2 g g 3.s.s.s.a.a.a.a.b.b.b.a.a.t.t.<.4 3.m.r.r.m.r.m.r.<.4 1.r.r.r.r.r.r.r.a.a.r.r.r.y.r.r.r.y.u.h.h.a.s.3.g 2 e t t e e e e w e z 7.s.h.a.a.a.r.h.y.r.r.r.a.a.t.a.3.g 4 <.t.b.b.b.b.b.c.c.c.c.c.c.c.c.c.c.c.c.z.z.z.z.z.z.z.z.z.z.z.z.z.z.z.z.z.z.z.z.z.z.z.z.z.z.z.z.z.z.z.z.z.m.b.z.b.M.m.z.t.3.<.4 4 <.3.t.m.m.m.m.m.m.b.b.r.r.r.r.r.r.z.y.y.y.y.y.z.z.z.z.c.c.y.y.u.u.u.i.l._.tXsXtXrXrXxXhXzXxXnXCXGXJXGXGXGXnXzXzXnXSXSXGXGXGXGXGXGXGXGXGXGXGXJXHXNXvXxXjXrXxXvXtX`.j.c 2.1.1.1.<.1.1.2.1.1.3.t.t.t.r.r.a.a.a.a.h.h.h.h.a.a.a.t.t.t.t.s.a.r.a.a.a.m.b.b.a.a.s.b.a.3.g g i e w u 8 m U Q @.#.+.+.+.#.%.Q %.%.%.#.%.%.%.%.#.#.#.+.+.#.#.#.+.+.#.#.+.@.@.@.T I F F I I L H H H L L H H H H H H H H H H H H P V P  .$X$X..........=.+X;X;X;X;X-X-X-X-X-X-X-X-X-X-X-X-X-X-X-X-X-X-X-X-X-X-X-X-X-X-X-X-X-X-X-X-X-X-X-X-X-X-X-X-X-X-X-X-X-X-X-X-X-X-X-X-X-X-X-X-X-X-X-X-X-X-X-X-X-X-X-X-X-X-X-X-X-X-X-X-X-X-X-X-X-X-X-X-X-X-X",
"% % % % : : % % @ % : % % % % % % % @ @ @ @ % % : : & : A -X6X6X>X>X-.' ' ' ' ' ` ` ` ` ` ` ` ` ` ` ` ` ` ` ` ` ` ` ` ` ` ` ` ` ` ` ` ` ` ` ` ` ` ` ` ` ` ` ` ` ` ` ` ` ` ` ` ` ` ` ` ` ` ` ` ` _ _ ` ` ` ' ` ` ` ` ) ' ;.4X4X<X3X3X3X3X3X<X1X1X1X1X<X<X<X<X<X1X1X1X1X1X1X3X3X3X3X,X,X<X5X5X5X0XwX~.V 0 7 t e 2 2 g 2.i.s.s.a.a.a.a.a.a.b.b.a.a.t.t.<.4 3.b.a.r.m.r.m.r.<.4 1.r.r.r.r.r.r.r.a.r.r.r.y.y.r.r.r.r.r.h.a.a.s.2.d 2 e t t t e r w e e z 0.s.h.a.a.r.r.y.y.r.r.y.h.a.s.t.1.4 4 1.a.m.b.c.c.c.c.c.c.c.c.c.c.c.c.c.c.c.z.z.z.z.z.z.z.z.z.z.z.z.z.z.z.z.z.z.z.z.z.z.z.z.z.z.z.z.z.z.z.z.b.m.m.z.b.b.t.3.<.V.V.<.1.t.b.m.m.m.m.m.m.b.b.b.r.r.z.r.r.r.z.y.y.r.r.r.r.z.z.z.m.y.y.u.u.i.u.j.Y.OXxXxXxXxXrXxXxXcXbXNXAXGXGXGXGXSXnXzXzXnXSXSXGXGXGXGXGXGXGXGXGXHXGXGXAXnXcXxXxXjXxXvXyX`.i.c g g g g 4 g g g g g <.<.1.1.1.1.1.2.3.t.t.t.s.a.a.a.a.h.h.h.h.h.M.b.a.a.a.b.a.a.a.a.a.n.b.t.2.4.g i w r u 8 q W *.%.#.+.+.+.#.%.%.%.%.%.%.%.%.%.#.#.#.+.#.#.#.#.+.+.#.#.+.@.@.@.T F F F I L H H H H L L H H J J J H H K H P H H P V P  .$X$X....| ....=.+X;X;X;X;X-X-X-X-X-X-X-X-X-X-X-X-X-X-X-X-X-X-X-X-X-X-X-X-X-X-X-X-X-X-X-X-X-X-X-X-X-X-X-X-X-X-X-X-X-X-X-X-X-X-X-X-X-X-X-X-X-X-X-X-X-X-X-X-X-X-X-X-X-X-X-X-X-X-X-X-X-X-X-X-X-X-X-X-X-X-X",
"% % % % @ % @ @ @ @ @ @ @ @ % @ % % @ @ @ @ % % : % @ , | 8X6X6X>X>X-.' ' ) ' ' ` ` ` ` ` ` ` ` ` ` ` ` ` ` ` ` ` ` ` ` ` ` ` ` ` ` ` ` ` ` ` ` ` ` ` ` ` ` ` ` ` ` ` ` ` ` ` ` ` ` ` ` ` ` ` ` o.o.` ` ` ' ` ` ` ` ) [ ;.4X4X<X<X<X<X<X<X3X1X1X1X1X3X3X1X1X1X1X3X3X2X2X<X<X3X3X3X,X,X5X5X9X0X0X+XV 0 9 7 2 e 2 g 2.t.s.a.s.a.a.a.a.a.b.m.m.a.a.r.r.<.4 1.a.r.a.m.r.m.r.<.4 1.r.a.a.r.r.r.r.a.r.y.y.y.y.y.y.y.y.y.r.r.a.s.4.e 2 t e t t e e e e g 4.s.s.h.a.a.h.r.y.y.r.r.h.h.a.a.2.4 3 <.t.b.m.b.c.c.c.c.c.c.c.c.c.c.c.c.c.c.c.z.z.z.z.z.z.z.z.z.z.z.z.z.z.z.z.z.z.z.z.z.z.z.z.m.m.c.c.z.z.z.z.z.b.m.b.b.t.1.4 4 4 1.3.s.n.M.M.m.m.m.m.m.b.b.b.r.r.r.r.r.r.z.y.r.r.r.r.r.z.z.z.c.y.u.u.i.i.l.`.OXrXxXxXxXxXrXxXcXbXnXDXGXGXGXGXSXSXnXzXxXnXSXSXGXGXGXGXGXGXGXGXGXGXGXHXNXbXxXxXrXtXtXdXyXl.i.c 1.1.1.g g g g g g g g g g g g 4 g g g <.1.2.2.2.t.s.a.h.M.M.M.M.M.M.b.a.a.a.a.a.a.a.a.b.b.a.t.3.4.i e w u 8 m q E *.%.#.#.#.#.%.%.%.#.%.%.%.%.%.%.%.#.+.#.#.%.#.+.#.#.#.+.@.@.@.T F F F I I L H H H L L H H J J J J H K H H K F F V Y  .$X$X..........=.;X-X;X;X-X-X-X-X-X-X-X-X-X-X-X-X-X-X-X-X-X-X-X-X-X-X-X-X-X-X-X-X-X-X-X-X-X-X-X-X-X-X-X-X-X-X-X-X-X-X-X-X-X-X-X-X-X-X-X-X-X-X-X-X-X-X-X-X-X-X-X-X-X-X-X-X-X-X-X-X-X-X-X-X-X-X-X-X-X-X-X",
"% % % % @ @ @ @ @ @ @ @ @ @ @ @ % % @ @ @ @ % % : @ : V (.qX6X6X>X>X=.' ' ) ' ' ` ` ` ` o.` ` ` ` ` ` ` ` ` ` ` ` ` ` ` ` ` ` ` ` ` ` ` ` ` ` ` ` ` ` ` ` ` ` ` ` ` ` ` ` ` ` ` ` ` ` ` ` ` ` ` o.o.` ` ` ' ` ` ` ` ) [ ;.4X4X<X<X<X<X3X1X1X1X1X1X3X3X3X1X1X1X1X3X2X2X3X<X<X<X<X,X,X3X5X5X0X0X#XR q < 7 7 2 i g 2.t.s.a.a.s.a.a.a.a.a.b.m.m.a.a.r.a.1.4 1.t.r.m.m.r.m.r.<.4 1.r.a.a.a.r.r.r.a.r.r.y.y.y.y.y.y.y.y.r.a.a.t.g 2 e 2 t t t t t e e z 2.s.s.h.a.a.h.r.r.r.r.a.h.a.r.3.1.4 g 2.a.m.m.b.c.c.c.c.c.c.c.c.c.c.c.c.c.c.c.z.z.z.z.z.z.z.z.z.z.z.z.z.z.z.z.z.z.z.z.z.z.z.z.c.c.c.c.c.c.c.m.z.b.b.z.t.1.V.4 <.1.t.n.M.n.b.b.m.m.m.m.b.b.b.b.r.r.r.r.r.r.z.y.r.r.y.z.c.c.c.c.y.y.u.u.u.l.`.yXtXxXsXrXsXrXrXxXbXnXDXHXGXGXGXGXSXDXbXzXxXnXSXSXGXGXGXGXGXGXGXGXGXJXGXAXnXvXxXxXtXtXtXtXuXl.i.i.t.t.t.t.3.3.t.t.3.3.2.2.1.1.1.1.g g g g g g g g 2.2.i.t.a.a.h.h.M.M.M.b.a.a.a.a.a.a.a.a.a.a.a.a.2.g e w u 8 9 > U E *.@.#.%.#.#.%.%.#.#.#.#.%.%.%.#.#.+.#.#.%.#.#.#.+.+.+.@.@.@.T I F I I I I L H H L L H H J J J H K K F F F F V V Y  .$X$X........=.=.;X-X-X;X-X-X-X-X-X-X-X-X-X-X-X-X-X-X-X-X-X-X-X-X-X-X-X-X-X-X-X-X-X-X-X-X-X-X-X-X-X-X-X-X-X-X-X-X-X-X-X-X-X-X-X-X-X-X-X-X-X-X-X-X-X-X-X-X-X-X-X-X-X-X-X-X-X-X-X-X-X-X-X-X-X-X-X-X-X-X-X",
"% : @ @ @ @ @ @ % : : : @ : : % @ @ @ @ @ @ % & & @ , { 8X9X6X6X>X>X=.' ' ) ' ' ` ` ` ` o.o.o.o.` ` ` ` ` ` ` ` ` ` ` ` ` ` ` ` ` ` ` ` ` ` ` ` ` ` ` ` ` ` ` ` ` ` ` ` ` ` ` ` ` ` ` ` ` ` ` ` _ _ ` ` ` ` ` ` ` ' ) &.;.4X2X<X3X3X3X<X<X1X1X1X1X3X3X3X1X1X1X1X1X<X1X<X<X1X1X:.:.:.1X,X5X0X8XR q 0 9 7 e 2 g 2.s.s.s.h.s.a.a.b.a.a.a.b.m.m.a.r.a.a.2.4 <.t.r.m.m.r.m.r.<.4 2.r.b.b.a.a.r.r.r.r.r.r.y.y.r.r.r.r.h.r.a.a.2.g 2 e 2 2 2 2 2 2 e d 2.3.s.s.a.a.h.h.r.r.r.r.a.h.t.3.g g 1.2.s.b.b.m.b.c.c.c.c.c.c.c.c.c.c.c.c.c.c.c.z.z.z.z.z.z.z.z.z.z.z.z.z.z.z.z.b.b.b.z.z.z.b.b.z.z.z.b.b.m.m.m.b.z.t.3.1.<.<.<.3.t.b.M.m.n.b.b.m.m.m.b.b.b.r.r.r.r.z.z.r.r.z.z.c.m.m.m.m.m.m.m.y.u.i.i.l.`.yXdXsXxXrXrXrXrXxXbXNXDXAXGXGXSXGXJXSXSXnXxXxXbXDXSXGXGXGXGXGXGXGXGXGXGXHXNXbXcXxXxXtXtXtXyX`.j.k.s.h.a.a.s.a.a.a.a.a.a.a.a.t.t.t.t.t.t.3.2.1.<.g g g g g <.2.2.2.2.t.a.b.a.a.s.a.b.b.b.b.b.a.a.a.a.3.4.i w w u 8 m q J E Q %.#.#.#.#.#.#.#.#.#.@.@.@.%.#.#.+.#.#.#.+.+.+.+.+.#.@.@.T I F I I I I L H H H H H H H H H J H K F F P P P Y Y  .(.....| } ....=.=.+X=.=.;X+X+X+X+X+X+X+X+X+X+X+X;X+X;X+X+X+X+X+X+X;X;X;X+X+X+X+X+X+X+X+X+X+X;X;X+X;X;X;X+X;X+X+X;X;X+X+X+X+X;X+X;X;X;X;X+X;X+X+X;X;X+X+X+X+X;X;X;X;X+X+X+X+X;X+X;X;X;X;X;X;X+X+X+X+X+X",
"% % % % : : @ @ % : : % : : % @ @ @ @ @ @ % % & @ : V (.wX6X6X6X,X>X=.' ) ) ' ` ` ` ` ` o.o.o.o.` ` ` ` ` ` ` ` ` ` ` ` ` ` ` ` ` ` ` ` ` ` ` ` ` ` ` ` ` ` ` ` ` ` ` ` ` ` ` ` ` ` ` ` ` ` ` ` _ _ ` ` ` ` ` ` ` _ ) &.>X4X4X2X3X3X3X1X1X1X1X1X3X3X3X3X1X1X1X1X1X1X<X1X1X1X:.:.:.:.:.,X5XwX .q 9 7 7 2 t 2 g s.s.s.s.s.s.a.a.b.r.r.a.b.m.m.a.r.a.b.3.g g 3.a.m.m.r.m.r.<.4 2.r.b.m.m.a.y.r.r.r.r.r.r.r.r.r.r.r.h.r.a.s.4.g 2 e 2 t 2 2 2 2 g g 2.s.s.a.h.h.h.h.h.h.a.h.m.a.3.<.4 <.3.a.a.b.b.b.b.c.c.c.c.c.c.c.c.c.c.c.c.c.c.c.z.z.z.z.z.z.z.z.z.z.z.z.z.z.z.z.b.b.b.b.z.z.b.b.z.z.z.z.b.b.b.b.r.t.1.<.V.<.1.3.r.b.b.n.n.b.n.b.m.m.b.b.b.r.r.r.r.r.r.r.r.r.z.z.m.m.m.m.m.m.c.y.u.i.i.k.S.eXtXxXsXxXxXxXsXxXbXNXDXAXSXSXAXAXGXJXSXSXnXcXxXbXDXSXGXGXGXGXGXGXGXGXGXGXAXnXvXxXxXrXxXvXtXyXS.j.j.h.a.a.a.a.a.a.a.a.a.a.a.a.a.a.h.a.h.s.s.s.s.i.i.2.1.1.g g g g g g <.1.2.t.t.s.b.M.a.M.M.M.m.a.b.b.s.2.g i r y u 8 m q W Q *.%.#.#.#.#.#.#.#.#.%.%.%.%.#.#.+.+.#.#.#.+.+.+.#.#.@.@.T I F I I I I I H H H H H H H H H H H H F P Y Y ] ] | ..(...| | } } ..........................................................................................................................................................................................",
"% % % % : : % @ % % @ @ @ @ % @ : ; : @ % & % % % , { :X9X6X6X,X,X>X=.' ) ) ' ' ` ` ` ` ` ` o.o.` ` ` ` ` ` ` ` ` ` ` ` ` ` ` ` ` ` ` ` ` ` ` ` ` ` ` ` ` ` ` ` ` ` ` ` ` ` ` ` ` ` ` ` ` ` ` ` o._ ` ` ` ` ` ` ` _ ) &.>X4X4X2X3X3X<X1X1X1X1X1X3X3X3X3X1X,X1X1X1X,X,X,X,X,X1X:.:.:.:.,XwX(.V : < < e 2 2 g 3.s.s.s.s.u.a.a.z.b.r.r.a.m.m.h.a.r.a.b.3.g g 1.r.m.m.r.m.r.<.4 2.r.m.m.m.c.y.r.r.r.r.r.r.r.r.r.r.r.h.h.a.t.g e e e e t 2 2 2 2 g 2.s.s.s.a.h.h.h.h.h.h.a.h.m.r.1.4 4 1.a.b.b.a.b.a.b.c.c.c.c.c.c.c.c.c.c.c.c.c.c.c.z.z.z.z.z.z.z.z.z.z.z.z.z.z.z.z.b.b.b.b.z.b.b.b.b.b.b.z.r.r.r.r.3.1.V.<.1.1.t.r.b.b.z.b.b.b.b.b.b.b.b.b.r.r.r.r.r.r.z.z.r.r.z.z.m.m.c.z.y.r.u.u.i.i.j.`.yXtXvXsXxXxXcXxXxXvXNXDXAXAXSXSXAXAXSXGXSXSXnXmXzXcXNXSXGXGXGXGXHXHXHXGXGXHXCXbXcXxXsXtXxXdXtX`.l.j.j.s.a.a.a.a.a.a.a.a.a.a.a.a.a.h.h.a.h.a.h.a.a.a.s.a.t.t.i.2.2.1.1.1.g g g <.1.3.t.r.t.a.M.M.M.b.b.b.a.s.2.g i y y u 8 m q W Q @.#.#.#.#.#.+.+.+.%.%.#.#.#.#.+.+.+.#.#.#.+.+.#.@.@.Q T I F L L I I L L H L L H H H H H P H P P Y E  . .| | ......| | | } } } } } } } } } } } } } } } } } } } } } } } } } } } } } } } } } } } } } } } } } } } } } } } } } } } } } } } } } } } } } } } } } } } } } } } } } } } } } } } } } } } } } } } } } } } } } } ",
"% % % % : : % % % % @ @ @ % % @ ; ; : @ % & % @ : , | wX9X6X6X,X,X>X=.' ) ) ) ' ` ` ` ` ` ` ` o.` ` ` ` ` ` ` ` ` ` ` ` ` ` ` ` ` ` ` ` ` ` ` ` ` ` ` ` ` ` ` ` ` ` ` ` ` ` ` ` ` ` ` ` ` ` ` ` o._ ` ` ` ` ` ` ` _ ) &.>X4X2X2X2X3X<X1X1X1X1X1X3X3X3X,X,X,X,X,X,X,X,X6X6X6X6X,X,X,X,X6XwXR : * 0 2 2 3 3 <.s.h.a.s.t.u.a.a.z.r.r.r.a.m.m.h.a.r.a.m.t.g 4 1.a.M.m.r.m.t.<.4 2.r.m.m.m.c.y.r.r.r.r.r.r.r.r.r.r.r.r.h.a.t.g 3 e e e e 2 2 < 2 g 2.s.s.a.a.h.h.h.h.h.h.h.m.m.t.g 2 4 2.a.b.a.b.m.r.c.c.c.c.c.c.c.c.c.c.c.c.c.c.c.c.z.z.z.z.z.z.z.z.z.z.z.z.z.z.z.z.b.b.b.b.z.b.b.b.m.b.b.r.r.r.t.t.V.4 4 1.t.t.t.t.b.z.z.z.b.b.b.z.b.b.b.b.r.r.r.r.r.r.r.z.r.r.z.z.m.c.r.r.r.u.i.i.i.i.l.uXdXvXxXxXxXcXcXxXzXbXNXSXAXAXAXSXAXAXAXAXSXSXnXbXzXzXnXSXGXGXGXGXHXHXGXGXGXHXNXvXxXxXdXtXtXdXyXS.j.j.j.a.h.a.a.a.a.a.a.s.a.a.a.a.a.a.a.a.a.a.a.a.a.a.a.a.h.M.M.M.h.a.a.s.3.1.g 4 4 <.<.g 2.t.a.M.m.a.a.b.M.n.s.4.g i y y f 8 m q E *.@.#.#.#.#.+.+.+.#.%.#.#.#.#.#.+.+.+.#.#.+.#.#.@.@.Q T I F F H L L H L H L L H H H H H H F P Y Y  ... .| | ......| | } } } } } } } } } } } } } } } } } } } } } } } } } } } } } } } } } } } } } } } } } } } } } } } } } } } } } } } } } } } } } } } } } } } } } } } } } } } } } } } } } } } } } } } } } } } } } } } ",
"% % % : @ @ % % @ @ % % % % % @ ; ; % : : : @ @ ; Y -X6X6X6X,X,X3X2X=.) ) ) ' ' ` ` ` ` ` ` ` ` ` ` ` ` ` ` ` ` ` ` ` ` ` ` ` ` ` ` ` ` ` ` ` ` ` ` ` ` ` ` ` ` ` ` ` ` ` ` ` ` ` ` ` ` ` ` ` ` o.o.` ` ` ` ` ` ` ' ) -.;.4X2X4X2X2X<X1X:.:.1X1X3X,X,X,X3X3X,X,X5X6X6X6XwXwXwX:X6X>X6XwX| B & 9 5 5 2 3 g t.a.a.s.t.s.u.r.r.z.z.a.a.r.r.r.r.r.a.a.r.t.1.g 1.a.M.a.t.r.a.1.4 1.r.M.m.m.r.r.r.r.c.r.r.r.r.a.a.a.a.a.h.s.1.g g e e 2 2 2 < 2 d 2.i.s.s.a.a.h.h.h.h.h.a.a.m.a.2.4 3 1.t.b.M.b.r.a.b.c.c.c.c.c.c.c.c.c.c.c.c.c.c.c.c.z.z.z.z.z.z.z.z.z.z.z.z.z.z.z.z.b.m.m.b.r.r.b.m.b.r.r.m.m.t.1.4 4 <.1.t.r.b.b.z.b.b.b.b.b.b.b.b.b.b.b.b.b.b.b.b.r.r.r.r.r.z.z.z.z.c.r.i.i.i.i.i.u.l.'.yXxXxXcXcXcXcXxXsXxXnXDXSXSXSXSXSXAXAXAXAXSXSXDXnXxXcXnXDXSXSXHXHXHXHXSXSXHXAXbXsXrXrXtXtXtXvXeXl.k.s.h.M.h.h.h.h.a.a.a.a.h.h.h.a.a.r.u.u.r.r.a.a.h.h.h.h.a.h.h.h.h.h.h.h.m.a.3.1.g 4 3 2 3 4 <.t.a.a.a.a.b.M.n.s.2.g i i u u 8 m K E *.@.%.#.#.%.$.#.#.%.%.%.%.#.#.+.+.+.+.+.#.#.#.%.Q T G I F L L L H H H H H H H H H H K V V Y E  . . .| | | | ....| | | } } } } } } } } } } } } } } } } } } } } } } } } } } } } } } } } } } } } } } } } } } } } } } } } } } } } } } } } } } } } } } } } } } } } } } } } } } } } } } } } } } } } } } } } } } } } } } ",
"% % % : @ % % % @ @ : : % % @ @ % ; % : : : @ @ , X.:X6X6X6X,X,X<X2X=.' ) ) ' ' ` ` ` ` ` ` ` ` ` ` ` ` ` ` ` ` ` ` ` ` ` ` ` ` ` ` ` ` ` ` ` ` ` ` ` ` ` ` ` ` ` ` ` ` ` ` ` ` ` ` ` ` ` ` ` ` o.o.` ` ` ` ` ` ` ' ) &.;.4X2X4X2X2X<X1X:.:.1X1X3X,X,X,X,X3X3X6X6XwX8X8X8X8X8X8X8X8X8X#XR 0 = < < 5 5 g 2.t.h.j.s.u.u.u.r.r.z.z.r.r.r.r.r.r.r.a.a.r.t.2.g 1.a.M.a.r.a.a.1.4 1.r.M.m.m.r.r.r.r.y.r.r.r.r.a.a.h.a.a.h.t.2.g g e e 2 2 2 < 2 g 2.i.s.s.a.a.h.h.h.h.h.a.a.a.t.<.4 4 2.t.b.m.m.r.r.m.c.c.c.c.c.c.c.c.c.c.c.c.c.c.c.c.z.z.z.z.z.z.z.z.z.z.z.z.z.z.z.z.b.b.m.b.r.r.r.z.r.r.b.r.t.1.4 4 1.1.3.t.z.b.b.b.b.b.b.b.b.b.b.b.b.b.b.b.b.b.b.b.r.r.r.r.z.z.z.z.z.y.t.i.i.i.u.u.l.`.yXdXrXrXxXcXcXcXxXzXcXnXDXSXSXSXSXSXAXAXAXAXSXSXDXnXcXxXbXNXDXSXGXGXGXGXGXGXHXCXvXrXrXsXtXtXdXdX`.j.s.s.M.M.M.h.h.h.a.h.a.a.a.a.a.r.a.r.s.u.r.r.u.r.r.r.a.r.a.h.h.h.h.h.h.h.M.M.a.r.t.3.1.1.4 4 4 4 g <.2.3.3.t.s.a.t.4.<.i w y u 8 q W E *.*.%.#.#.%.%.%.%.%.%.%.#.#.#.+.+.#.+.#.#.%.%.Q T I I F L L L H H H H H H H H H K K F P Y  . . .| | | | | ....| } } } } } } } } } } } } } } } } } } } } } } } } } } } } } } } } } } } } } } } } } } } } } } } } } } } } } } } } } } } } } } } } } } } } } } } } } } } } } } } } } } } } } } } } } } } } } } } } ",
"% % : : @ @ % % @ @ @ : : @ @ @ ; ; : : : : @ ; V ..6X6X6X6X,X,X,X2X=.' ) ' ' ' ` ` ` ` ` ` ` ` ` ` ` ` ` ` ` ` ` ` ` ` ` ` ` ` ` ` ` ` ` ` ` ` ` ` ` ` ` ` ` ` ` ` ` ` ` ` ` ` ` ` ` ` ` ` ` ` o.o.o.` ` ` ` ` ` ' ) -.;.4X2X4X2X2X<X1X:.1X1X1X3X,X,X,X3X6X6XwX8X8X8X7X@X@X@X@X#X#X8X#X_.A.Z c < 5 5 c t.h.h.a.s.u.u.u.r.r.r.r.r.r.r.r.r.r.r.a.a.r.a.2.g <.r.m.a.r.a.a.1.4 <.t.M.m.m.r.r.r.r.y.r.a.r.r.a.a.a.a.r.a.t.<.g i e e t 2 2 2 2 g 2.t.s.u.a.h.h.h.h.h.h.h.a.a.1.4 4 g t.a.b.m.b.r.b.m.c.c.c.c.c.c.c.c.c.c.c.c.c.c.c.c.z.z.z.z.z.z.z.z.z.z.z.z.z.z.z.z.b.m.m.a.r.r.r.r.a.a.r.3.4 4 4 1.t.t.r.z.b.b.b.b.b.b.b.b.b.b.b.b.b.b.b.b.b.b.b.b.r.r.r.r.z.z.z.z.r.r.t.i.i.i.j.l.'.yXxXxXrXxXcXcXcXcXxXxXbXnXDXSXSXSXSXSXSXSXSXSXSXSXDXnXmXxXcXbXDXSXGXGXGXHXHXGXGXNXcXrXxXxXtXtXdXyXS.k.s.s.n.M.s.h.h.h.a.a.s.s.s.s.s.t.s.s.s.s.a.t.t.t.t.t.t.t.t.t.s.a.a.a.a.a.m.m.m.M.M.M.M.b.t.3.<.g 4 4 4 4 g <.3.t.t.3.4.g i i u 8 9 q W E *.*.%.%.%.%.#.#.#.#.#.#.$.$.$.$.#.+.#.#.#.%.Q T I I L L L L L L H H H H H H H H F P Y ]  . .} } | | | | ....| | } } } } } } } } } } } } } } } } } } } } } } } } } } } } } } } } } } } } } } } } } } } } } } } } } } } } } } } } } } } } } } } } } } } } } } } } } } } } } } } } } } } } } } } } } } } } } } } ",
"@ @ @ @ @ @ : : @ @ % : : @ @ @ : ; : : : @ @ , X.:X9X6X6X6X,X,X<X<X=.' ) ) ) ' ` ` ` ` o.` ` ` ` ` ` ` ` ` ` ` ` ` ` ` ` ` ` ` ` ` ` ` ` ` ` ` ` ` ` ` ` ` ` ` ` ` ` ` ` ` ` ` ` ` ` ` ` ` ` ` o.o.` o.` ` ` ` ` ' ) -.;.4X2X4X2X2X<X1X1X1X1X3X3X,X,X,X6X6X6XwX8X8X7X@X@X@XsX@XzX7X7X7XsXsX'.S.Z c d c k.j.h.u.u.u.u.r.r.r.r.r.r.r.r.r.r.y.r.a.a.a.a.3.g <.t.m.a.r.a.a.2.g 1.t.m.m.y.r.r.r.r.y.r.a.r.r.a.a.a.a.a.a.t.g g e e 2 t t 2 2 2 g 3.t.s.a.r.h.h.h.h.h.h.h.a.t.g 3 g 2.a.a.m.m.a.r.b.m.c.c.c.c.c.c.c.c.c.c.c.c.c.c.c.c.z.z.z.z.z.z.z.z.z.z.z.z.z.z.z.z.m.m.a.r.a.a.m.y.m.t.1.4 4 4 3.r.b.b.z.b.b.b.b.b.b.b.b.b.b.b.b.b.b.b.b.b.b.b.b.b.r.r.r.z.z.z.c.c.r.t.i.u.i.i.l.`.tXtXsXrXxXcXvXcXmXcXxXcXbXNXAXSXSXSXSXSXSXSXSXSXSXSXDXDXnXxXxXcXDXSXHXHXAXAXSXHXAXNXxXsXxXxXsXdXdX`.N.i.s.s.n.n.s.h.s.s.a.s.s.s.a.s.a.a.a.a.a.a.a.a.a.a.a.a.a.a.s.s.s.s.a.a.a.a.a.a.a.b.m.M.M.M.M.M.s.t.2.<.4 4 4 g <.<.1.1.<.<.i y p u 9 9 q W Q *.%.%.%.%.#.#.#.#.#.#.$.$.$.$.#.+.#.#.%.%.Q T I F L L L L L L H H H H H H H H F P Y  . .| } } | } | | ....| | } } } } } } } } } } } } } } } } } } } } } } } } } } } } } } } } } } } } } } } } } } } } } } } } } } } } } } } } } } } } } } } } } } } } } } } } } } } } } } } } } } } } } } } } } } } } } } } ",
"@ @ @ @ @ @ @ : % % @ % : % % @ : : : ; & @ : , ..wX9X6X,X,X,X,X<X2X=.' ' ) ' ' ` ` ` ` o.o.o.o.` ` ` ` ` ` ` ` ` ` ` ` ` ` ` ` ` ` ` ` ` ` ` ` ` ` ` ` ` ` ` ` ` ` ` ` ` ` ` ` ` ` ` ` ` ` ` ` o.o.` ` ` ` ` ` ` ' ) -.;.4X4X4X2X2X<X1X1X1X1X3X3X,X,X,X6X6XwX8X8X7X7X7XzXzXsXsXzXzX7XsXsXvXdXdX'.S.l.k.k.k.s.s.u.r.r.y.y.y.r.y.r.r.y.y.y.r.r.a.a.a.s.t.g <.t.m.a.r.a.a.2.g <.t.b.m.y.r.r.r.r.r.a.a.a.a.a.a.a.a.a.a.i.g g e e 2 2 2 2 2 d x i.s.s.u.y.h.h.h.h.h.h.h.a.2.g 4 1.t.b.b.m.r.a.y.m.m.c.c.c.c.c.c.c.c.c.c.c.c.c.c.c.c.z.z.z.z.z.z.z.z.z.z.z.z.z.z.z.z.m.m.a.r.b.m.a.r.t.1.4 4 <.t.r.m.n.n.b.b.b.b.b.b.b.b.b.b.c.c.c.c.b.b.b.b.b.b.b.b.r.r.z.z.z.c.c.c.r.u.u.u.u.l.`.OXtXtXrXrXsXxXxXvXnXcXxXcXnXDXSXSXSXSXSXSXSXSXSXSXSXSXSXDXnXbXxXxXnXDXSXGXGXHXHXHXNXnXcXxXxXrXdXdXyXS.k.2.t.s.s.s.s.s.s.s.s.s.s.s.s.s.a.s.s.s.s.s.s.s.s.s.s.s.s.s.s.s.s.s.s.s.s.s.s.a.a.a.a.a.b.b.a.a.M.M.b.a.t.3.2.1.<.<.<.<.g g i i r y 8 8 m q E Q *.%.%.#.#.%.#.#.#.#.$.$.$.$.#.#.#.#.#.%.Q T I I L I I L L L H H H H H H H F F Y ]  .| | } } | } | | ....} } } } } } } } } } } } } } } } } } } } } } } } } } } } } } } } } } } } } } } } } } } } } } } } } } } } } } } } } } } } } } } } } } } } } } } } } } } } } } } } } } } } } } } } } } } } } } } } } ",
"@ @ : : @ @ : : : % % % : : % : ; : : @ & @ , ( -X6X6X,X,X,X,X,X,X2X=.' ' ) ) ' ` ` ` ` o.o.o.o.` ` ` ` ` ` ` ` ` ` ` ` ` ` ` ` ` ` ` ` ` ` ` ` ` ` ` ` ` ` ` ` ` ` ` ` ` ` ` ` ` ` ` ` ` ` ` ` o.o.` ` ` ` ` ` ` ` ) -.;.4X4X4X2X2X<X<X<X1X1X3X,X,X,X,X6XwX8X8X7X7X@X7XzXzXsXsXXXXX@X7XsXsXvXdXdXyXeX`.l.u.i.u.y.y.y.y.y.y.y.y.r.r.y.y.r.r.r.a.a.a.b.t.<.g t.b.a.a.b.a.2.g <.t.a.a.r.r.r.r.r.r.a.a.a.a.a.a.a.a.a.s.3.g 3 e e 2 2 2 2 2 d 2.t.s.u.u.y.h.h.h.h.h.h.a.t.1.4 g 3.a.m.m.r.r.y.c.m.m.c.c.c.c.c.c.c.c.c.c.c.c.c.c.c.c.z.z.z.z.z.z.z.z.z.z.z.z.z.z.z.z.m.b.r.a.b.r.r.t.4 4 4 1.r.m.m.r.b.b.b.b.b.b.b.b.b.b.b.b.c.c.c.c.b.b.b.b.b.b.b.b.z.z.z.z.c.c.c.c.r.h.j.u.l.`.OXrXrXrXrXxXsXtXxXnXNXbXxXmXnXDXSXSXSXSXSXSXSXSXSXSXSXSXSXSXDXnXbXcXbXnXDXGXPXGXSXAXnXbXvXxXrXtXtXyX`.j.x 2.2.2.2.2.7.8.8.8.2.2.2.2.2.2.2.2.2.2.2.4.4.4.4.2.2.2.2.2.2.2.2.2.2.2.2.2.t.a.b.M.M.M.b.a.b.b.M.M.M.M.m.m.m.a.t.3.2.1.<.g i i e w y u 8 9 K E *.%.%.#.#.%.#.#.%.#.#.#.$.#.$.#.#.#.%.%.Q G I F L I I L L L H H H H H H H F F Y  . .| } } } } } } | ....} } } } } } } } } } } } } } } } } } } } } } } } } } } } } } } } } } } } } } } } } } } } } } } } } } } } } } } } } } } } } } } } } } } } } } } } } } } } } } } } } } } } } } } } } } } } } } } } } ",
"% % : : % @ % % : % @ % @ @ @ : @ ; : : : : , ..:X6X6X,X,X,X,X,X,X2X=.' ' ) ' ' ` ` ` ` ` ` o.o.` ` ` ` ` ` ` ` ` ` ` ` ` ` ` ` ` ` ` ` ` ` ` ` ` ` ` ` ` ` ` ` ` ` ` ` ` ` ` ` ` ` ` ` ` ` ` ` o.o.` ` ` ` ` ` ` ' ) -.;.4X4X4X4X4X<X<X1X1X3X3X,X,X,X,X6XwX8X7X@XsX@XsXzXzXzXsXsXXXXX@X@XzXxXsXsXvXdXyX'.S.j.u.y.y.y.y.y.y.y.y.r.r.y.y.r.r.r.a.a.a.b.s.<.g 3.b.a.b.b.a.3.g g t.a.r.r.r.y.y.y.r.r.r.a.a.a.a.a.a.a.a.2.g 3 e e 2 2 2 2 2 d 2.s.a.a.h.y.h.h.h.h.h.a.s.2.4 4 1.s.s.b.a.r.r.y.m.m.c.c.c.c.c.c.c.c.c.c.c.c.c.c.c.c.c.z.z.z.z.z.z.z.z.z.z.z.z.z.z.z.z.b.a.a.m.m.r.1.4 4 4 1.r.m.m.b.r.b.b.b.b.b.b.b.b.b.b.b.b.c.c.c.c.b.b.b.b.b.b.b.b.z.z.z.c.c.c.c.c.u.j.j.l.`.yXtXsXrXrXsXxXxXxXbXNXDXbXxXmXNXDXSXSXSXSXSXSXSXSXSXSXSXSXSXSXSXDXnXcXxXcXnXUXAXAXDXNXbXvXxXrXtXtXyXyXl.C c z g <.g <.g g g g g g d g g g d d e e e e i i i i i g g g g g g g g g g g 4.2.t.a.s.b.m.M.M.M.b.a.a.b.b.m.M.M.m.a.t.t.2.1.g g i i w r u 8 > W Q *.%.%.%.%.#.%.%.#.#.#.$.#.$.#.#.#.%.%.Q I F F L I I L L L H H H H H H H F F Y  ...| } } } } } } } ....} } } } } } } } } } } } } } } } } } } } } } } } } } } } } } } } } } } } } } } } } } } } } } } } } } } } } } } } } } } } } } } } } } } } } } } } } } } } } } } } } } } } } } } } } } } } } } } } } ",
"% % % % % % % % % % @ @ @ @ @ ; @ : : : : : V +X6X6X6X,X,X,X,X,X,X<X=.[ ' ) ' ' ` ` ` ` ` ` o.o.` ` ` ` ` ` ` ` ` ` ` ` ` ` ` ` ` ` ` ` ` ` ` ` ` ` ` ` ` ` ` ` ` ` ` ` ` ` ` ` ` ` ` ` ` ` ` ` o.o.` ` ` ` ` ` ` ' ) -.;.4X4X4X4X4X2X<X1X1X1X1X,X,X,X6X6X8X8X@X7XsX@XzXzXzXzXzX@XXX%XXX X@XsXsXsXsXsXdXdXyX`.l.u.u.u.y.y.y.y.r.r.r.y.y.r.r.r.r.a.a.M.a.g g 3.a.a.b.b.a.3.4 g t.a.r.r.r.y.y.y.r.r.a.a.a.a.a.a.a.a.s.2.g 2 e e 2 2 2 2 2 g 2.s.h.a.y.y.h.h.h.h.h.s.t.1.2 3 2.s.a.b.r.r.r.c.m.m.z.c.c.c.c.c.c.c.c.c.c.c.c.c.c.c.c.z.z.z.z.z.z.z.z.z.z.z.z.b.b.b.b.r.r.a.m.m.t.g 3 4 1.r.h.b.r.m.m.b.b.n.b.b.b.b.b.b.b.b.b.c.c.c.b.b.b.b.b.b.b.b.b.z.z.z.c.c.c.c.c.u.i.u.S.uXyXtXrXsXzXsXxXvXnXNXAXAXnXxXmXNXDXSXSXSXSXSXSXSXSXSXSXSXSXGXSXSXDXnXbXxXxXcXbXnXnXnXbXvXxXrXtXtXtXyX'.k.d d g i i i g e e e e e t 2 2 e t e t e t e e e e e e e e e e e e e e e e e i g g 1.2.3.t.s.a.t.t.s.a.a.a.a.b.a.a.a.h.a.a.s.s.3.4.g i w w r u > W Q Q %.%.%.#.$.$.#.#.#.#.$.#.%.#.#.%.%.%.T I F F L I I L L L H H H H H H H H F T  ...} } } } } } } | ....} } } } } } } } } } } } } } } } } } } } } } } } } } } } } } } } } } } } } } } } } } } } } } } } } } } } } } } } } } } } } } } } } } } } } } } } } } } } } } } } } } } } } } } } } } } } } } } } } ",
"% % % % % % % % : : : % % % : : : @ ; ; @ , | :X6X6X,X3X,X,X,X,X,X<X>.[ / / ) _ ` ' ` ` ` ` o.` ` ` ` ` ` ` ` ` ` ` ` ` ` ` ` ` ` ` ` ` ` ` ` ` ` ` ` ` ` ` ` ` ` ` ` ` ` ` ` ` ` ` ` ` ` ` ` ` ` o.` o.o.o.o.` _ ) / -.;.4X4X4X4X4X2X2X1X:.:.:.:.,X6X6X8X8X7X@X7XzXzXzXcXcXmXmXmXcXzX7XXXXX7XzXzXzXxXxXxXtXyXeXS.l.u.u.h.c.z.z.r.y.y.r.r.r.z.z.r.z.b.a.2.g g s.h.a.r.a.t.g 4 t.a.r.r.y.y.y.y.y.r.r.r.r.h.h.h.h.h.t.g g e e 2 e 2 2 2 e g t.a.a.r.a.h.h.M.M.a.a.t.1.4 3 g t.a.a.a.a.h.y.y.y.y.c.c.c.c.c.c.y.y.c.c.c.c.c.c.c.c.c.m.m.c.r.r.r.r.y.m.r.r.m.m.a.r.a.r.m.m.m.3.4 5 4 t.r.r.r.r.t.a.M.b.b.b.b.a.a.a.b.b.b.b.b.b.b.b.b.m.b.b.r.z.b.b.b.z.b.z.r.c.M.c.i.c i.`.uXyXtXtXrXzXzXxXcXbXNXDXAXUXbXxXbXDXSXSXSXSXSXSXHXGXGXGXGXIXIXGXSXSXDXDXDXbXbXxXxXcXcXxXzXxXxXrXtXtXtXyXA.d d e e t t t 2 e e w t t t t t t t t t t t e e e e r r e e e e r r r r r r r r e i i g g g g <.2.2.3.s.s.a.s.s.M.M.h.a.a.a.s.s.s.s.2.g i w i u m q W E Q %.%.+.$.$.$.$.$.$.$.$.#.#.#.#.%.Q T I F L L L L J L L H H H H L H H H H T  . .| } } } | | | | ....| | | } } } } } } } } } } } } } } } } } } } } } } } } } } } } } } } } } } } } } } } } } } } } } } } } } } } } } } } } } } } } } } } } } } } } } } } } } } } } } } } } } } } } } } } } } } } } } } ",
"@ @ % % % % % % % @ : % % % @ ; : ; @ ; ; , ..6X6X3X3X3X1X1X,X,X:.<X>.[ / / / ' ' ` ` ` ` ` ` ` ` ` ` ` ` ` ` ` ` ` ` ` ` ` ` ` ` ` ` ` ` ` ` ` ` ` ` ` ` ` ` ` ` ` ` ` ` ` ` ` ` ` ` ` ` ` ` ` ` ` o.o.o.o.o.` _ ) / -.;.4X4X4X4X4X2X<X1X:.:.:.:.,X6X8X8X7X7XXX7XzXzXzXcXbXnXnXnXnXmXzXzX%X%XhXXXXXzXzXxXxXrXyXeX`.j.u.u.y.c.m.r.u.u.u.r.c.c.c.z.r.a.a.3.g g s.h.h.r.a.t.g 4 3.a.r.r.y.y.y.y.y.r.r.y.r.y.y.y.h.a.t.g g e e t e 2 2 2 i 4.s.a.a.a.a.h.h.M.M.a.s.3.1.4 4 1.t.a.a.a.h.m.y.c.c.c.c.c.c.c.c.c.c.c.c.c.c.c.c.c.c.c.c.c.c.y.r.r.y.c.c.m.m.m.m.m.b.a.b.r.m.b.t.<.4 4 1.t.r.r.r.r.r.h.m.a.b.b.b.b.b.a.b.b.b.b.b.b.b.b.b.m.b.b.a.z.b.z.b.z.b.m.r.r.t.i.c c l.`.yXyXtXrXrXhXzXxXbXnXNXAXAXDXbXxXbXDXSXSXSXSXSXSXHXGXGXGXGXIXGXGXSXSXDXDXDXNXnXbXvXvXcXcXxXzXhXrXrXtXdX'.k.d d e e t t s s r e r r t t t t t t t t t t e w r r r r r r r r r r r r r r r r e e i i i g g g g g g x 2.2.t.s.s.a.s.h.s.a.s.s.M.s.7.4.i w w u m q U W E Q #.$.$.$.$.$.$.$.$.$.$.$.#.#.%.Q T I F F L L L L L L H H H H L L H H H Y  ...| } | } | | | | ....| | | } } } } } } } } } } } } } } } } } } } } } } } } } } } } } } } } } } } } } } } } } } } } } } } } } } } } } } } } } } } } } } } } } } } } } } } } } } } } } } } } } } } } } } } } } } } } } } ",
"@ @ @ % % % % % @ @ @ @ % @ @ @ ; ; @ ; , ( :X6X6X3X3X3X3X,X,X,X:.<X>.&./ ) ) ' ' ' ` ` ` ` o.o.` ` ` ` ` ` ` ` ` ` ` ` ` ` ` ` ` ` ` ` ` ` ` ` ` ` ` ` ` ` ` ` ` ` ` ` ` ` ` ` ` ` ` ` ` ` ` ` ` ` o.o.o.o.o.` _ ) / -.;.4X4X4X4X4X2X2X<X1X:.1X,X6XwX8X7X7X7X7X7XzXzXzXbXnXDXSXSXDXUXnXmXzXzX7XXXXX7XzXzXxXxXxXdXyX`.l.j.u.y.m.y.u.u.r.y.c.c.c.r.r.a.a.t.g g t.a.a.r.r.t.g 4 2.a.r.r.y.y.y.y.y.y.a.a.a.r.r.y.a.a.t.g e e e t e 2 2 2 g 2.s.a.s.h.h.h.h.M.M.a.t.1.4 4 g 3.a.a.a.b.m.b.c.c.c.c.c.c.c.c.c.c.c.c.c.c.c.c.c.c.c.c.c.c.c.r.r.r.z.c.c.r.b.m.m.m.m.b.a.m.r.3.4 4 4 1.t.r.r.r.a.b.m.m.m.b.b.b.b.b.b.z.z.b.b.b.b.b.b.b.b.m.b.b.r.z.b.b.b.b.b.c.r.i.1.g c C `.yXtXtXtXxXrXzXzXcXnXCXAXHXAXDXbXxXbXDXSXSXSXSXSXHXHXGXGXGXGXGXGXSXSXSXSXSXSXDXDXNXnXnXbXcXxXxXrXrXrXtXdX`.C d d r e e t t t r r r r e e e e t t e e e e e e r r r r r r r r r r r r r r r r e e e e e e e 2 e 2 e e g g g 4.2.3.s.s.s.s.s.s.N.s.s.7.5.h p u m > m K T Q %.%.%.$.$.$.$.$.$.$.$.#.$.#.%.Q T I F L L L L L L L H H H H L L H H H Y  .....| } | } | | | ....| } } } } } } } } } } } } } } } } } } } } } } } } } } } } } } } } } } } } } } } } } } } } } } } } } } } } } } } } } } } } } } } } } } } } } } } } } } } } } } } } } } } } } } } } } } } } } } } } ",
"@ @ @ % % % % % @ @ @ @ % @ @ @ ; ; ; ; , ..6X6X6X,X3X3X3X1X,X,X,X,X>.[ / ) ) ' ' ' ` ` ` ` o.o.` ` ` ` ` ` ` ` ` ` ` ` ` ` ` ` ` ` ` ` ` ` ` ` ` ` ` ` ` ` ` ` ` ` ` ` ` ` ` ` ` ` ` ` ` ` ` ` ` ` ` o.o.o.o.` _ ) / -.;.4X4X4X2X2X2X<X1X1X1X,X,X6X8X8X@X@X7XzXXXXXzXcXnXDXSXIXFXFXSXSXDXnXmXzX%X7X7XzXzXzXzXxXdXdXyXuXl.j.u.j.y.y.y.y.y.y.r.y.a.r.r.m.t.g g t.s.a.r.a.t.<.4 1.a.r.r.y.y.y.y.y.y.a.a.a.r.r.r.a.a.t.g e e e t e 2 2 e g 8.s.a.t.M.h.h.M.M.h.t.2.g 4 4 1.t.a.a.a.b.m.c.c.c.c.c.c.c.c.c.c.c.c.c.c.c.c.c.c.c.c.c.c.c.c.c.r.r.r.z.c.r.r.a.a.m.m.b.t.t.1.4 5 4 3.t.r.b.r.r.b.m.m.m.m.b.b.b.b.b.b.b.z.b.b.b.b.b.b.b.b.m.a.r.r.z.b.m.m.b.r.t.i.4 5 c u.`.uXtXtXtXxXxXrXxXvXnXDXHXGXHXDXDXbXxXbXDXSXSXSXSXSXHXHXGXGXGXGXSXSXSXSXSXSXSXSXSXSXAXDXNXnXcXxXxXrXrXrXdXyXl.c d d d r r r e e r r r r r r r r r r r r r r r r r r r r r r r r r r r r r r r r w w w w e e e e e e e e e e e i g g 4.2.8.s.s.s.s.f.N.g.0.5.h y 8 9 > q W E *.*.%.%.%.$.$.$.$.$.$.#.#.#.%.Q T F F L L L L L L L H H H H L L H H H I E  ... .| | | } } ......} } } } } } } } } } } } } } } } } } } } } } } } } } } } } } } } } } } } } } } } } } } } } } } } } } } } } } } } } } } } } } } } } } } } } } } } } } } } } } } } } } } } } } } } } } } } } } } } } ",
"% % % % % % % % % % % % @ @ @ @ ; @ ; ; Y -X6X6X,X,X3X3X3X1X,X,X<X<X>.&.) ) ) ' ' ' ` ` ` ` ` o.` ` ` ` ` ` ` ` ` ` ` ` ` ` ` ` ` ` ` ` ` ` ` ` ` ` ` ` ` ` ` ` ` ` ` ` ` ` ` ` ` ` ` ` ` ` ` ` o.o.o.o.o.o.` ` _ _ ) -.;.4X4X4X2X2X2X<X1X<X,X6X6XwX8X7X@X@XzXcXXXzXcXbXCXSXSXSXSXFXIXIXSXDXnXnXcXzX7XXXXX%XzXzXtXxXvXyXeX`.l.u.i.u.r.y.y.r.r.y.a.r.t.b.a.<.g 2.a.a.a.r.t.1.g 1.a.a.r.y.y.y.y.y.y.r.r.a.r.r.a.r.a.3.g e e e e e 2 2 i 4.s.s.a.s.M.h.h.M.M.a.3.1.4 4 g 2.a.m.a.a.b.m.c.c.c.c.c.c.c.y.y.y.c.c.c.y.c.c.c.c.c.c.c.c.c.m.c.c.r.r.r.r.r.r.r.r.m.M.r.t.1.4 4 4 1.r.b.r.m.b.r.b.m.m.m.b.b.b.b.b.b.b.z.z.b.b.b.b.b.b.b.b.r.r.t.t.r.z.m.m.t.3.1.4 5 5 j.`.yXyXyXtXtXxXxXhXbXnXDXSXGXHXHXAXDXbXxXbXDXHXGXSXSXGXHXGXGXGXGXGXSXSXSXSXSXSXGXGXSXGXGXSXDXnXcXxXxXxXtXrXdX_.Z d d d d r r r d d r r r r r r r r r e e e r r e e y r r r r r y y r r r r w r w r w r r r w w e e e e e e e e e e e e i g z 4.2.8.s.d.f.f.g.8.j y 8 9 9 m ! E Q *.%.%.%.$.$.$.%.%.$.#.%.%.%.Q T F F L L L L J L L H H H H L L H H H P Y  ... .| } } } } ......} } } } } } } } } } } } } } } } } } } } } } } } } } } } } } } } } } } } } } } } } } } } } } } } } } } } } } } } } } } } } } } } } } } } } } } } } } } } } } } } } } } } } } } } } } } } } } } } } ",
"% % % % % % % % : : % % @ @ @ : ; @ ; , | 6X6X6X,X,X3X3X3X3X,X,X<X<X>.&.) ) ) ' ' ' ` ` ` ` ` ` ` ` ` ` ` ` ` ` ` ` ` ` ` ` ` ` ` ` ` ` ` ` ` ` ` ` ` ` ` ` ` ` ` ` ` ` ` ` ` ` ` ` ` ` ` ` ` ` o.o.o.o.o.o.` _ _ _ ) -.;.4X4X4X2X2X<X<X<X<X,X6X6X8X8X7XzXsXzXcXzXzXbXnXDXSXSXSXSXSXSXSXSXSXSXAXUXnXcX7XXXXXXXXXrXrXtXsXtXyX`.l.u.i.t.u.r.t.r.c.r.r.r.b.a.1.g 1.t.a.a.r.t.1.4 <.a.a.r.r.y.y.y.r.h.h.r.a.r.a.r.a.a.3.g e e e w t e e g 2.s.a.a.a.h.h.h.M.h.t.1.g g g 1.t.a.m.a.a.m.m.c.c.c.c.c.c.c.y.y.y.c.c.y.y.c.c.c.c.c.c.c.v.c.m.m.c.r.t.r.r.b.b.z.m.m.m.t.1.4 4 <.1.t.b.m.b.m.h.r.b.m.m.m.r.b.b.b.z.b.a.z.z.b.b.b.b.b.b.b.b.r.r.t.t.r.r.r.t.1.g 4 5 c i.`.yXdXtXtXdXtXsXxXcXnXUXSXGXGXAXHXAXDXbXxXbXDXGXGXSXGXGXGXGXGXGXGXGXGXGXGXGXSXSXGXGXSXGXGXAXNXbXcXzXxXxXtXtXyXA.c d d d d r r p h g h p p p p r r r r r r r r r r r y y r r r r y y r r r r r r r r r r r r r w w w w w e e e e w e w e e e e r g z 2.7.0.d.0.7.l h u 8 9 9 q W E *.*.%.%.%.$.$.%.%.$.$.%.%.%.Q T F F I L L L J L L H H H H L L H H K F P Y  . . .| } } } ......} } } } } } } } } } X.| | | } } } } } } } } | | } } | X.| } } } } } } } | X.} } } } } } } } } } } } } } } } } } } } } } } } } } } } } } } } } } } } } } } } } } } } } } } } } } } } } } } } } } } ",
"% % % % % % % % : : @ % @ @ % : ; ; ; , -X9X6X3X,X3X3X3X3X3X,X,X<X4X>.&.) ) ) ' ' ' ` ` ` ` ` ` ` ` ` ` ` ` ` ` ` ` ` ` ` ` ` ` ` ` ` ` ` ` ` ` ` ` ` ` ` ` ` ` ` ` ` ` ` ` ` ` ` ` ` ` ` ` ` ` o.o.o.o.` ` ` ` _ _ ) -.;.4X4X4X<X<X<X1X1X,X6X6XwX8X7XzXzXsXzXzXxXbXnXDXSXSXSXSXGXSXSXSXSXSXGXFXSXDXnXmXzX%XXXXXzXrXrXrXxXsXOX`.l.j.u.u.u.t.r.r.r.r.r.a.a.2.g g t.a.a.r.t.1.g g a.a.r.r.y.y.y.r.h.h.h.a.a.r.a.s.s.2.g 2 e e e t e e g 3.s.s.a.a.a.a.h.h.a.i.g 4 g 1.i.t.a.h.h.a.h.h.c.c.c.c.c.c.c.c.c.c.c.c.c.c.c.c.c.c.c.c.v.v.c.m.m.c.r.t.r.z.m.c.m.m.z.t.1.V.1.1.3.r.m.m.m.m.m.h.a.a.r.r.r.r.b.z.z.z.b.a.a.b.b.b.b.b.b.b.b.b.a.r.r.r.r.t.3.1.4 4 c C j.`.yXdXvXdXdXdXtXxXvXnXDXDXSXGXHXHXHXGXDXbXxXbXDXHXGXSXGXGXGXGXGXGXGXGXIXIXGXGXGXSXGXGXSXSXSXNXnXcXzXsXtXrXtXyX`.Z 0 d d d d r r h g h h h h h h h h h h p p h p p r r y y y y y y y y y y y y y y y y y y y w w w w w w w w r r r r r r r r e t e e r i h j l 6.6.5.l u u 8 9 m q W Q *.*.%.%.%.$.%.%.$.%.%.%.%.Q T F F I L L L J L L H H H H H H H H H H P I Y  . . .| } | ......} } | | | | | | | | | | | | | | | | | | | | | | | | | | | | | | | | | | | | | | | | | | | | | | | | | | | | | | | X.} } } } X.X.X.X.} } } } } } } } X.} } } } } } } } } } } } } } } } } } } } } } ",
"% % % % % % % % : % @ @ @ @ @ : ; ; ; Y 6X9X5X3X3X3X3X3X3X<X,X,X2X4X>.&.) ) ) ' ' ' ` ` ` ` ` ` ` ` ` ` ` ` ` ` ` ` ` ` ` ` ` ` ` ` ` ` ` ` ` ` ` ` ` ` ` ` ` ` ` ` ` ` ` ` ` ` ` ` ` ` ` ` ` ` ` ` ` ` ` ` ` ` _ _ ) -.;.4X4X4X<X<X1X1X,X,X6X9X8X8X7XxXxXzXsXzXcXnXDXSXGXSXSXSXGXSXSXSXSXSXSXSXSXSXSXUXbXzX%XXXXXzXxXrXrXrXrXtX`.l.j.u.u.u.r.r.r.r.r.r.a.3.g g t.a.h.r.t.1.g g a.a.r.r.r.y.y.r.h.h.h.a.a.a.a.s.s.2.g 2 e e w t e e z 3.s.a.a.h.a.a.h.h.a.3.g 5 g i.s.a.a.h.h.h.h.h.c.c.c.c.c.c.c.c.c.c.c.c.c.c.c.c.c.c.v.v.v.v.z.c.c.z.r.r.r.c.z.c.m.m.t.1.4 4 t.t.t.b.M.m.m.a.a.a.a.a.r.r.r.r.r.z.z.z.b.a.a.b.b.b.b.b.b.b.b.b.b.b.b.b.r.t.<.4 4 c C i.`.yXvXvXvXvXsXtXrXcXnXNXSXSXSXSXHXGXHXGXDXbXxXbXDXHXGXSXSXSXGXGXGXGXGXJXIXIXIXGXGXSXSXSXGXHXDXnXvXzXrXrXrXtXtXyXS.C d d d d e r r h g g h h h h h h h h h h h h h p r r y y y y y y y y p p p p p p p p y y y y y y r r r r r w w w r e r e r r e e e r w t w e h j l l y u 7 9 9 m W E *.*.%.%.%.%.%.%.$.%.%.%.%.Q T F F L L L J J L L H H H H H H H H H H P P Y  . . . .| | ......| | | | | | | | | | | | | | | | | | | | | | | | | | | | | | | | | | | | | | | | | | | | | | | | X.| | | | | X.X.X.X.| | | | | | | | | | | | | | | | X.X.X.X.X.X.| X.| | | X.X.X.| X.| | | | | | | ",
"% % % % % % % % % @ : : @ @ : @ ; ; , ..9X5X,X,X3X3X3X3X3X,X,X,X2X4X>.&./ ) ) ' ` ` ` ` ` ` ` ` ` ` ` ` ` ` ` ` ` ` ` ` ` ` ` ` ` ` ` ` ` ` ` ` ` ` ` ` ` ` ` ` ` ` ` ` ` ` ` ` ` ` ` ` ` ` ` ` ` ` ` ` ` ` ` _ _ ) ) -.;.4X2X<X<X,X,X,X,X,X6XwX8X7X@XxXxXsXzXcXnXCXDXSXGXSXGXGXSXSXSXSXSXSXSXSXSXSXSXSXDXnXmX7X%X7XzXzXXXXXrXrXtXuXS.j.u.u.y.t.z.z.z.m.a.t.g 4 2.h.a.t.r.3.g g t.M.r.t.r.y.m.r.h.h.a.r.r.r.t.s.s.4.e e i e w e 2 g 2.s.s.a.a.h.a.a.h.h.t.g 4 g t.t.t.r.h.h.m.m.m.c.y.y.y.c.c.c.c.c.c.c.z.c.c.v.c.c.z.z.z.z.z.c.c.c.c.z.z.z.z.m.m.m.z.3.V.4 4 4 t.t.c.m.m.c.z.r.c.m.m.m.y.r.r.y.m.b.b.b.z.z.z.z.r.b.b.b.b.b.b.m.m.m.t.t.t.1.4 4 c c u.`.yXvXvXvXvXxXsXsXvXnXDXSXSXSXGXGXGXGXGXHXDXbXxXbXDXGXGXGXGXGXGXGXGXJXJXJXIXIXGXGXSXSXSXSXHXSXDXbXxXzXzXrXtXdXyX'.k.d c d d d d h h h h h h h h h h h h h h h h h h p r r y y y y p p p p h h p p p p p p y y y y y y p p y y y r r r w w r r r r r e e e e e e r r r r r y u 7 7 9 9 q U E Q *.%.%.%.%.%.%.%.%.%.Q T G I I I L L L L J J L H J J J J J L H H P P P Y E  . ... . .+X..| | | | | { { | { { | { { | | { { { { { { { { { { { { { { { { { { | { { { { { { { { { { | | | { { { { { { { { { { { | | { { { | | | { { | | | | { | | | | | | | | { | { | | | | | | | | | | | | | ",
"% % % % % % % % @ @ : @ @ @ : @ ; ; , ;X9X5X6X,X3X3X3X3X3X,X,X,X2X4X>.&.) ) ) ' ` ` ` ` ` ` ` ` ` ` ` ` ` ` ` ` ` ` ` ` ` ` ` ` ` ` ` ` ` ` ` ` ` ` ` ` ` ` ` ` ` ` ` ` ` ` ` ` ` ` ` ` ` ` ` ` ` ` ` ` ` ` ` _ _ ) ) -.;.4X2X1X,X,X:.,X,X,X6X8X8X7XsXxXxXrXxXbXDXDXSXSXSXSXSXSXSXSXSXSXSXSXSXSXJXSXSXSXSXDXnXmXzXzX%XXXXX%XhXxXtXyXuXl.j.u.y.r.r.r.r.r.a.i.c 4 1.h.h.t.r.t.g g t.m.r.t.r.y.m.r.h.h.a.r.a.a.s.s.s.4.e e e e w e e g 2.s.s.a.a.h.a.a.h.a.3.g g g t.t.r.a.a.h.h.m.y.y.c.m.m.m.c.c.r.r.z.c.c.c.c.c.c.c.z.c.c.c.c.c.v.c.c.z.z.z.z.m.z.r.t.1.4 V.1.t.t.t.c.m.m.m.c.m.r.y.y.r.r.r.y.m.b.b.b.b.z.z.z.z.m.b.r.b.b.m.b.r.r.t.t.2.1.g c i.i.u.S.eXtXvXxXxXxXsXxXcXbXNXDXAXSXSXGXGXGXGXGXHXDXbXxXbXDXGXGXGXGXGXGXGXJXJXJXJXIXIXGXGXSXSXSXSXSXSXNXbXxXzXrXrXtXtXyXS.Z d d f d d h h h h h h h h h h h h h h h h h h h p p r y y y y p p p p h p p p p p p p p p y y y y p p y y y r r r r w r r r r r r e e e e r r r r r r u w u 7 9 9 m q E E *.*.%.%.%.$.$.%.%.%.@.T G I I I L L L L J J H H J J J J J L H H H H P P Y Y Y Y Y Y | { Y { { { { { { { { { { { { { { { { { { { { { { { { { { { { { { { { { { { { { { { { { { { { { { { { { { { { { { { { { { { { { { { { { { { { { { { { { { { { { { { { { { { { { { (.(.(.(.(.(.(.(.(.(.",
"% % % % % % % % @ @ @ @ @ @ % @ @ ; X.6X5X3X3X3X3X3X3X,X,X,X,X,X2X4X>.&.) ) ) ' ' ' ` ` ` ` ` ` ` ` ` ` ` ` ` ` ` ` ` ` ` ` ` ` ` ` ` ` ` ` ` ` ` ` ` ` ` ` ` ` ` ` ` ` ` ` ` ` ` ` ` ` ` ` ` ` ` ` ` ` ` ` ` _ _ _ ) -.;.4X2X1X,X:.:.,X,X6XwX8X7X7XzXxXzXrXcXnXSXGXGXGXGXSXGXGXGXGXGXGXGXGXGXGXGXGXGXJXJXSXDXUXbXcXzXXXXXhXzXzXsXxXyX'.l.j.u.y.t.r.r.r.a.u.2.4 1.a.m.t.t.t.g 4 t.M.a.r.r.y.m.r.h.y.a.r.a.a.s.s.s.4.e e i e w e e z 3.s.a.a.a.h.a.a.s.s.1.g g 1.r.r.b.b.m.h.a.r.m.m.m.c.c.c.z.z.c.c.c.c.c.z.r.r.t.r.r.r.y.y.c.c.y.y.r.r.r.y.r.r.t.1.4 5 4 1.t.y.r.y.c.c.c.y.c.c.z.c.z.r.r.r.c.m.b.b.b.b.b.a.b.b.m.b.r.r.b.m.b.r.3.1.<.1.g i.i.i.u.S.eXtXvXxXxXxXzXzXxXbXNXDXDXAXSXHXGXGXGXGXGXGXAXnXxXbXUXGXGXSXGXGXGXGXJXJXJXJXIXIXGXGXSXSXSXSXSXDXnXvXxXzXzXsXtXtXeXl.c d d z d f h h g g h h h h h h h h h h h h h h h h p r r r y y y p p p p p p p p p p p y y y y y y y y y y r r r r r r r r r r r r r r r r r r r r r r w w w u 8 9 9 m W E Q *.%.%.%.#.%.$.%.%.Q T I I I I L J L L L H J P J J J J J J H H H P K K P K V V V Y  .Y V Y { { { { { { { { { { !.{ !.!.!.{ { { { { { { { { !.I.!.I.!.!.!.!.{ { { { { { { { { I.I.I.I.I.I.I.{ { { { { I.{ { I.P.P.P.I.I.I.I.I.I.I.I.I.I.I.I.I.I.I.I.!.!.!.!.!.!.!.!.^.(.}.}.}.}.}.}.}.}.}.",
"% % % % % % % % @ % @ @ @ @ @ @ ; , =.9X6X,X3X3X3X3X,X,X<X,X,X<X2X4X>.&.) ) ) ' ' ' ` ` ` ` ` ` ` ` ` ` ` ` ` ` ` ` ` ` ` ` ` ` ` ` ` ` ` ` ` ` ` ` ` ` ` ` ` ` ` ` ` ` ` ` ` ` ` ` ` ` ` ` ` ` ` ` ` ` ` ` ` _ _ _ ) -.;.4X2X3X,X,X,X,X3X6X8X8X7XzXxXxXhXhXbXCXJXJXGXGXGXGXGXJXGXGXGXGXGXGXGXGXJXJXJXJXJXJXGXSXNXnXcXzXXXXXhXzXxXxXxXtXuX`.l.u.u.r.r.y.h.h.i.4 g r.M.r.r.t.1.4 t.h.a.r.a.a.m.r.h.y.r.a.a.a.s.s.s.4.e e i e w e i 4.7.s.a.a.a.h.a.a.a.3.g 4 g t.m.m.m.m.b.a.r.r.r.r.c.c.c.c.m.m.y.u.y.u.y.y.h.h.j.M.M.N.N.N.N.N.N.N.N.N.N.N.N.N.N.u.4 5 4 i.u.u.u.u.u.u.u.y.y.m.m.m.m.m.c.z.c.c.b.b.b.b.a.a.b.b.m.r.r.r.b.m.r.t.4 4 4 1.i.j.j.i.l.`.yXdXdXsXrXrXrXzXbXnXDXSXSXSXSXHXGXGXGXGXGXGXSXnXcXcXNXGXGXSXGXGXGXGXJXJXJXJXIXIXGXGXSXSXSXSXDXNXnXcXzXsXzXsXtXyX`.Z c f d h d f h h g g h h h h h h h h h h h h h h h h p p r r r y y p p p p p p p p p y y y y y y y y y y y y y r r r r r r r r r r r r r r r r r r r r r y y y y 8 7 9 9 q W E *.*.%.%.#.$.$.#.%.Q T I I I I J J L L L H J P J J J J J J H H H H P K K F V V V Y  .Y V R { { { { { { { { I.I.I.I.I.I.I.I.I.{ I.I.I.I.P.P.I.I.I.I.I.I.I.I.I.I.I.I.I.I.I.I.I.I.I.I.I.I.I.I.P.P.P.P.P.P.P.P.I.I.I.I.I.I.I.I.I.I.I.I.I.I.I.I.I.I.I.I.!.!.!.R.I.I.Q.^.{.OX XXX X X X X X XXX",
"% % % % % % % % @ : : @ @ % @ @ ; ( :X5X,X,X3X3X,X,X,X,X<X<X,X<X2X4X>.&.) ) ) ' ' ' ` ` ` ` ` ` ` ` ` ` ` ` ` ` ` ` ` ` ` ` ` ` ` ` ` ` ` ` ` ` ` ` ` ` ` ` ` ` ` ` ` ` ` ` ` ` ` ` ` ` ` ` ` ` ` ` ` ` ` ` ` _ _ _ ) -.;.4X2X3X,X,X,X,X6X6X8X7X7XzXcXxXhXxXnXAXJXJXGXGXGXGXJXJXGXGXGXGXGXGXGXGXJXKXGXKXJXJXJXJXAXDXnXcXxXrXrXhXzXzXxXxXtXyX`.l.u.i.u.u.h.M.t.4 4 t.h.r.r.r.1.4 t.m.a.r.a.a.m.r.h.y.a.a.a.a.s.s.s.4.e e e e w e z 2.s.s.a.a.a.h.a.a.t.2.4 5 1.t.m.m.m.m.c.c.y.y.r.y.y.h.h.y.y.u.u.u.j.j.l.l.l.S.`.`.uXuXuXyXyXyXyXyXuXuXyXyXyXyXyXuXS.S.`.`.S.l.j.j.u.u.i.u.u.h.y.y.c.c.c.c.c.z.b.b.b.b.b.b.b.b.z.r.r.z.b.r.3.1.4 1.2.t.h.j.j.j.`.yXtXxXtXrXrXXXsXcXnXDXSXSXSXGXHXGXGXGXGXGXGXGXGXnXcXcXnXSXGXSXGXGXGXGXJXJXJXJXIXJXGXGXSXSXHXSXDXnXbXxXhXrXrXsXdXyXA.c c f f h h h h h g g g p h h p h h h h h h h h h h p p p r r r y y p p p p p p p p y y y y y y y y y y y y y y r r r r r r r r r r r r r t t r r r r r r y y y u u 7 8 8 m ! E E *.*.%.#.+.+.%.%.Q T I I I I L J H H H H J P J J J J J J H H H P I P J K P P P Y  .R V R { { { { P.P.P.P.P.P.P.P.P.P.P.P.I.I.I.I.P.P.P.P.I.P.P.P.P.P.P.P.I.I.I.I.I.I.I.P.P.U.U.U.T.I.I.I.U.U.U.U.U.U.U.U.U.U.U.U.R.T.I.I.U.U.U.R.R.R.R.R.R.R.!.R.R.R.R.!.T.E.{.}.oX.X.X.XXX X X X X XXX",
"% % % % % % % % @ : : : : @ @ ; , X.6X3X,X3X3X3X,X,X,X,X<X,X,X<X<X4X>.&.) ) ) ' ' ' ` ` ` ` ` ` ` ` ` ` ` ` ` ` ` ` ` ` ` ` ` ` ` ` ` ` ` ` ` ` ` ` ` ` ` ` ` ` ` ` ` ` ` ` ` ` ` ` ` ` ` ` ` ` ` ` ` ` ` ` ` _ _ _ ) -.;.4X2X1X,X,X,X6X6XwX8X7X7XzXzXxXxXbXNXHXJXGXGXSXGXJXJXJXGXGXGXGXGXGXGXGXGXGXGXGXGXKXGXGXJXGXDXNXbXxXzXhXXXzXzXrXjXdXyX`.l.u.i.u.u.h.r.1.4 t.a.r.h.a.1.4 3.a.a.a.h.a.m.a.h.y.a.a.a.a.s.s.s.z e e r e w r 4.8.s.s.a.a.a.h.a.t.2.g 3 4 1.t.m.m.h.a.y.y.y.y.y.u.u.u.u.j.M.j.S.S.`.`.uXuXyXyXyXtXtXtXdXdXdXdXdXdXdXdXdXdXdXdXgXdXdXvXvXtXyXuX`.`.S.l.l.u.i.i.u.u.u.r.c.v.v.v.b.b.b.b.b.b.b.b.r.b.m.m.r.1.<.4 1.t.h.M.j.i.l.`.yXtXvXxXsXxXrXrXzXbXDXSXSXSXSXIXGXGXGXGXJXGXGXGXGXNXbXcXnXDXGXGXGXGXGXGXJXJXJXJXIXIXJXGXGXSXSXHXNXbXcXxXzXrXrXrXdX'.Z c f z z h h h h h g g g h h h h h h h h h h h h h h h p p r r r r y p p p p p p p y y y y y y y y y y y y y y y y r r r r r r r r r r r r t t r r r r r r y y y u u u u 8 m n W E *.*.%.#.+.+.#.%.Q T I I I I J L H H H H J P J J J J L L I L H H J J J J P P P Y  .R V R { { P.P.P.P.P.P.P.P.P.P.P.P.P.P.U.I.U.I.U.P.U.U.I.I.P.P.U.P.U.P.U.U.U.U.U.U.U.U.U.I.U.P.U.I.U.I.U.U.T.U.U.U.U.U.U.U.U.U.T.T.U.U.T.U.T.U.R.U.R.R.E.E.R.E.R.R.R.E.W.].}..XrXrX.X.XXXXX.X XXX XXX",
"% % % % % % % % @ @ @ : : @ : , ( >.6X6X3X3X,X,X,X,X,X,X<X,X,X<X<X4X>.&.) ) ) ' ' ' ` ` ` ` ` ` ` ` ` ` ` ` ` ` ` ` ` ` ` ` ` ` ` ` ` ` ` ` ` ` ` ` ` ` ` ` ` ` ` ` ` ` ` ` ` ` ` ` ` ` ` ` ` ` ` ` ` ` ` ` ` _ _ _ ) -.;.4X<X3X,X,X3X6X6X8X8X@XzXzXzXhXcXnXCXHXJXGXGXGXGXGXGXGXGXGXGXGXGXGXGXGXGXGXGXGXGXGXGXGXJXGXGXDXNXbXcXzXXXzXzXrXrXxXtXyX`.l.j.u.t.c.r.1.4 2.t.h.M.h.1.4 3.a.h.a.h.a.m.a.h.y.a.a.a.a.s.s.s.z e e r e e r 2.0.s.n.h.a.h.h.a.t.<.4 3 g 2.t.h.y.u.u.u.u.h.h.j.j.j.l.l.`.`.uXyXyXyXtXdXvXvXvXxXxXxXxXsXsXsXsXsXsXsXrXtXtXtXsXtXtXtXsXxXxXtXtXtXyXyX'.`.S.l.j.j.h.u.r.z.v.v.m.b.b.b.b.b.b.z.z.r.b.r.t.1.4 4 <.t.r.M.h.k.j.`.yXvXvXxXvXxXrXrXzXmXnXSXIXFXSXSXGXGXGXGXJXJXGXGXGXSXDXbXcXbXDXGXGXGXGXGXGXJXJXJXJXJXJXJXGXSXSXSXSXnXbXxXzXxXrXrXtXyXA.c c f z h h h h h h g g i i h p h h h h h h h h h h h h p p r r r r y p p h p p p y y y y y p p p p y y y y p y y y y r r r r r r r r r r r t r r r r r r r y y y w w w u u u m ! E Q *.*.%.+.+.#.#.Q T I I I I J H H H H H H P J J J L L L L J J J J J J J K P K Y  .R V R { { P.P.P.P.P.P.I.P.U.P.U.P.U.P.U.U.U.U.U.U.U.U.U.U.U.U.U.U.U.U.T.U.Y.U.Y.U.Y.U.P.P.P.P.P.P.P.P.U.I.U.P.U.P.U.I.P.P.U.P.U.I.P.I.R.R.R.R.R.R.R.R.E.R.!.!.R.E.Q.W.{.OXoXXXXXXXXXXX X X XXX X X X",
"% % % % % % % % @ @ @ @ : @ % , } ,X5X,X,X,X,X,X,X,X,X,X,X,X,X<X<X4X>.&./ ) ) ' ' ' ` ` ` ` ` ` ` ` ` ` ` ` ` ` ` ` ` ` ` ` ` ` ` ` ` ` ` ` ` ` ` ` ` ` ` ` ` ` ` ` ` ` ` ` ` ` ` ` ` ` ` ` ` ` ` ` ` ` ` ` ` ` _ ) ) -.;.4X1X3X,X,X6X6XwX8X8X7XzXzXhXhXcXnXAXKXJXGXGXGXGXGXGXAXGXGXGXGXGXGXGXGXAXAXGXGXGXGXGXKXGXGXGXGXAXNXbXcXzXXXrXzXzXrXtXtXyX`.l.u.u.r.z.3.4 1.t.h.M.M.1.4 3.a.h.a.h.h.m.a.h.y.a.a.a.a.s.s.s.z e e e e e i 2.s.s.M.h.a.a.h.a.i.g 3 3 g t.t.u.u.i.i.u.u.j.j.l.l.`.`.yXyXyXyXvXxXtXrXtXrXrXrXrXrXhX%XXXXXXXXXsXxXxXzXrXtXjXxXrXrX.XrXrXhXxXjXxXxXxXdXyXyX`.`.l.l.j.u.y.c.m.m.b.b.b.b.b.b.z.z.b.r.t.1.4 4 1.t.h.y.u.i.i.S.yXdXdXtXtXxXxXXXrXxXnXUXSXIXIXGXSXGXGXGXGXJXJXGXGXGXSXDXnXcXbXDXGXGXGXGXGXJXJXJXJXJXJXJXJXGXSXSXSXSXnXcXzXzXxXsXrXtX'.Z c c k z h h h h h h g g i i h p h h h h h h h h h h h h p p r r r r y p p h p p p y y y y y p p p p p y y y p p y y y r r r r r r r r r r r r r r r r r r r r r w w w r u u u 8 n W G.$X*.@.#.#.#.@.Q T I I I I J H H H H H H H J J J J L L H H L J L J L J K P P Y ~.R V R { P.P.P.P.P.P.P.U.U.U.U.U.U.U.U.U.P.P.U.U.U.U.U.T.U.U.U.Y.Y.Y.Y.T.T.Y.Y.Y.Y.Y.U.U.U.U.U.U.U.U.U.P.P.P.P.P.P.P.P.P.P.U.I.U.I.P.I.R.!.!.R.R.!.!.!.!.E.R.!.E.R.W.].oX|..X|..X.XXXXX X X XXX X X X",
"% % % % % % % % : @ % @ : @ # ( 6X6X3X,X,X3X3X3X,X,X1X1X1X1X1X1X<X4X>.&./ ) ) ) ' ' ` ` ` ` ` ` ` ` ` ` ` ` ` ` ` ` ` ` ` ` ` ` ` ` ` ` ` ` ` ` ` ` ` ` ` ` ` ` ` ` ` ` ` ` ` ` ` ` ` ` ` ` ` ` ` ` ` ` ` ` ` ` o._ / -.;.4X<X3X,X,X6X6X8X8X7X7X7XzXhXjXbXCXHXJXGXGXGXGXGXGXGXGXGXGXGXGXGXGXGXGXGXGXGXGXGXGXGXGXSXGXJXJXGXDXCXnXxXzXXXXX%X7X@XXXrXyX`.l.i.h.m.t.<.1.t.a.m.a.2.g 2.s.h.r.y.h.h.m.m.c.r.a.a.a.s.s.s.z 2 t e e e g s.s.s.h.m.M.m.a.t.2.4 3 5 1.t.u.j.u.i.i.j.l.`.`.yXyXyXyXtXtXxXsXtXtXrXrXrXrXhXhXxXzXzXhXrXrXrXrXrXrXrXrXrXrXrXrXhXhXhXrXrXrXrXrXzXxXxXxXsXtXtXyXyX'.`.l.j.j.u.r.r.b.m.b.r.b.z.r.b.3.4 4 g 3.t.u.u.u.i.i.S.yXdXtXtXrXsXzXrXrXrXxXnXDXSXSXSXGXGXGXGXGXGXGXGXGXGXGXJXSXnXcXcXnXDXSXGXGXGXJXJXJXJXJXJXJXGXSXSXSXDXnXbXxXzXxXsXsXsXyXS.Z f k z f h h h h h h p p i p p p h h j j h h j j j h h h h p y y r r r y p h p p p p p p p p p p p p p p p p p p p p y y y y y y y y r r r r r r r r r r r r r r r u w t w u u 8 u U A.G.$X*.*.*.*.Q T I I I I L I J H H H H J J J J J J J J J J J J J J J J H P K U  .R R R P.P.P.I.I.I.P.U.P.P.U.U.U.U.U.U.U.U.U.U.U.U.U.U.U.U.U.U.U.U.U.U.U.U.U.U.U.U.U.U.U.U.U.U.U.U.U.T.U.U.U.U.U.U.U.U.U.P.U.T.U.T.U.U.R.R.R.R.R.R.R.R.Q.Q.R.I.!.^.}.|.XXXXXXXXXXXXXXXX|. X X X X X X",
"& % & % % % % % : @ ; @ ; @ % X.6X6X3X,X,X3X3X3X,X,X1X1X1X1X,X1X<X4X>.&./ ) _ _ ' ' ` ` ` ` ` ` ` ` ` ` ` ` ` ` ` ` ` ` ` ` ` ` ` ` ` ` ` ` ` ` ` ` ` ` ` ` ` ` ` ` ` ` ` ` ` ` ` ` ` ` ` ` ` ` ` ` ` ` ` ` ` ` ` _ / -.;.4X1X1X,X6X6XwX8X7X7X7X7XhXhXcXnXCXHXHXGXGXGXGXGXGXGXGXGXGXGXGXGXGXGXGXGXGXGXGXGXGXGXGXGXGXJXJXGXAXDXDXnXvXzXXX%X7X7X7XzXrXyX`.l.i.t.r.1.1.3.a.M.h.2.g 2.s.h.r.y.h.h.m.h.y.a.a.a.s.s.s.s.g 2 2 e e e g t.s.h.h.m.m.a.a.t.1.4 2 4 i.u.u.j.j.l.l.`.uXyXyXdXtXtXtXrXrXhXhXzXzXzXzXzXxXxXxXzXzXzXzXxXxXxXxXsXrXhXhXzXzXzXsXzXzXhXrXrXXXXXXXzXhXrXrXrXrXrXrXtXyXyXuXuX`.N.u.h.h.a.a.m.m.z.t.1.<.4 g 1.t.r.s.k.i.i.l.'.tXdXtXrXrXrXzXhXrXzXcXNXDXGXGXGXGXGXGXGXGXGXGXGXGXGXGXJXGXNXbXcXbXDXSXGXGXGXGXJXJXJXJXJXJXGXSXSXSXDXnXcXxXxXsXsXdXsXeXZ.b f z z f h f h h h h p p p r p p h h j j h h j j j h h h h h y y r r r r p h p p p p p p p p p p p p p p p p p p p p p y y y y y y y r r r r r r r r r r r r r r r r w t u u u u u n W G.$X$X*.*.*.*.T I I I I L J L H H H H J J J J J J J J J J J J J J J J H P K U  .R R R Y.P.P.P.P.I.U.U.U.U.U.U.U.U.U.U.U.U.U.U.U.U.U.U.U.U.U.U.U.U.U.U.U.U.U.U.U.U.U.U.Y.T.Y.Y.U.U.Y.Y.U.Y.T.U.U.U.Y.Y.U.U.T.T.T.T.U.U.U.R.R.!.R.R.R.R.Q.R.R.!.W.{.oX X XXXXXXXXXXXXXXX|.|. X X X X X",
"& : % % % % % % : : @ @ @ @ , (.6X6X5X,X,X3X3X,X,X,X1X,X1X1X,X<X<X4X>.[ / ) _ _ ' ' ` ` ` ` ` ` ` ` ` ` ` ` ` ` ` ` ` ` ` ` ` ` ` ` ` ` ` ` ` ` ` ` ` ` ` ` ` ` ` ` ` ` ` ` ` ` ` ` ` ` ` ` ` ` ` ` ` ' ` ` ` ` ` _ / -.;.4X<X,X,X6X6X8X8X7X7X7XzXxXxXcXnXAXHXHXGXGXGXGXGXGXGXGXGXGXGXGXGXGXGXGXGXGXGXGXGXGXGXGXGXGXJXJXJXJXGXGXAXNXcX%XXX7X7XzXzXxXdXyX`.j.i.u.1.1.1.r.M.M.t.g 1.t.h.y.y.y.h.h.y.y.h.a.s.s.s.s.s.g 2 2 e 2 d z s.s.M.j.m.h.a.a.2.g 2 2 c i.j.l.S.`.`.uXyXyXdXxXvXxXxXxXjXhXhXhXzXzXxXxXcXcXcXvXvXvXbXbXbXbXnXnXbXbXbXbXbXbXbXbXbXbXcXcXxXzXrXrXrXrXrXrXzXzXhXrXxXtXtXdXyXyX`.S.j.h.t.h.M.a.2.4 4 4 <.2.t.h.h.s.u.i.l.yXdXdXdXtXsXrXrXxXxXrXxXbXDXDXGXGXGXGXGXGXGXGXGXGXGXGXGXGXJXGXDXnXcXbXnXDXGXGXGXGXGXJXJXJXJXJXGXSXGXSXUXbXxXxXcXrXsXdXyX`.k.k d z z f h z h h h h h p p r p p h h j j h h j j h h h h h h p y r r r r y p p p p p p p p p p p p p p p p p p p p p p p y y y y y y y y r r r r y y r r r r r r r r r t u u u u 8 m n W G.$X*.*.*.*.T I L L I J J L H H H H J J J J J J J J J J J J J J J J H H K U  .R R R Y.P.P.P.P.P.U.U.U.U.U.U.U.U.U.U.U.U.U.U.U.U.U.U.U.U.U.U.U.U.U.U.U.U.U.U.U.U.U.U.T.T.Y.T.U.U.U.U.U.U.U.U.Y.Y.Y.Y.U.U.T.U.T.T.U.U.U.R.R.!.!.R.!.!.!.!.Q.^.{.|.XXXX X XXXXXXXXXXXXX X X X X X X X",
": : % % % % % % : % ; ; @ % X.:X9X5X5X,X,X,X,X,X,X,X1X,X1X1X,X<X<X4X>.[ / ) _ _ ' ' ` ` ` ` ` ` ` ` ` ` ` ` ` ` ` ` ` ` ` ` ` ` ` ` ` ` ` ` ` ` ` ` ` ` ` ` ` ` ` ` ` ` ` ` ` ` ` ` ` ` ` ` ` ` ` ` ` ' ` ` ` ` ` _ ) -.;.4X<X,X,X6X6X8X8X7X7X7XzXzXcXbXCXHXHXHXGXGXGXGXGXGXGXGXGXGXGXGXGXGXGXGXGXGXGXGXGXGXGXGXGXGXJXJXJXJXJXJXJXAXnXcXzX%XzXzXrXrXsXdXyX`.l.i.i.g g t.h.h.t.g <.t.a.y.a.y.h.h.r.h.h.a.s.t.s.s.t.g 2 2 2 2 d x s.a.h.h.h.h.s.t.g 5 2 c k.l.`.`.yXyXyXyXtXtXtXtXtXtXjXjXxXxXcXcXcXcXbXbXnXnXNXNXNXNXDXDXDXDXAXAXAXAXAXDXDXDXDXDXDXDXCXNXnXnXbXbXcXxXxXxXzXzXzXxXxXrXtXtXvXtXyXyX`.N.j.k.j.i.c 5 4 g t.j.j.h.s.i.u.l.yXgXvXdXdXtXsXrXzXmXcXzXxXbXDXSXGXGXGXGXGXGXGXGXGXGXGXGXGXGXGXJXSXnXcXxXbXDXGXGXJXJXGXGXJXJXJXJXGXGXGXDXnXmXxXxXxXsXsXdX'.l.k.k f z k z z z h h h h h p y r y p h h j j h h j j h h h h h h p y r r r r y p p p p p p p p p p p p p p p p p p p p p p p p y y y y y y y r r r r y y y y r r y r r r r u u u u u 8 8 m U E $X*.*.*.*.T I L L J L J L H H H H J J J J J J J J J J J J J J J J H H K U  .R R A.P.P.P.P.P.P.U.U.U.U.U.U.U.U.U.U.U.U.U.U.U.U.U.U.U.U.U.U.U.U.U.U.U.U.U.U.U.U.U.U.Y.T.T.T.U.U.U.U.U.U.U.U.T.Y.Y.Y.U.U.T.U.T.T.U.U.U.R.!.!.R.R.I.I.Q.Q.{.}.|.XXXXXXXX XXXXXXXXXXXXX X X X X XXX X",
": & : : : : : : ; ; ; ; @ , (.wX9X5X5X3X3X3X1X1X3X1X1X1X1X1X1X1X<X4X>.[ / ) _ _ ) ) ` ` ` ` ` ` ` ` ` ` ` ` ` ` ` ` ` ` ` ` ` ` ` ` ` ` ` ` ` ` ` ` ` ` ` ` ` ` ` ` ` ` ` ` ` ` ` ` ` ` ` ` ` ` ` ` ` ' ` ` ` ` _ _ ) -.;.<X,X,X,X6X:X8X8X&X7X7XzXcXbXnXDXHXJXHXGXGXGXGXGXGXGXGXGXGXGXGXGXGXGXGXGXGXGXGXGXGXGXGXJXGXGXGXGXGXGXGXGXHXDXnXcXzXzXzXzXxXtXtXtXyXl.C i.5 g i.s.a.t.<.g t.b.r.r.r.y.h.r.h.h.a.t.t.s.s.8.g 2 2 2 2 d 2.s.s.s.h.h.j.i.i.5 5 c j.`.eXyXyXtXtXtXdXxXxXxXxXjXjXhXhXxXcXbXbXnXNXNXDXAXHXHXJXGXGXHXGXJXJXJXJXGXGXGXGXGXGXGXGXJXJXGXGXAXAXDXDXNXnXbXcXxXxXxXxXxXxXhXjXjXjXtXtXgXuXS.l.j.i.C c i.i.u.j.j.i.i.i.l.eXgXdXdXdXsXrXzXzXbXnXbXzXcXnXDXSXGXGXGXJXJXGXJXJXJXJXJXJXJXJXSXGXGXCXbXxXcXnXAXGXJXJXJXGXGXJXJXGXGXGXSXDXbXcXzXzXsXsXdXyX`.Z b k z k z z z z h h h h p y y r y p h h h j h h j h h h h j j j h p y r r r r y p p p p p p p p p p p p p p p p h p p p p p p p y y y y y y r r y y y y y y y y y r r r r u u u w u u 8 8 n R G.E *.*.*.T I L J J J J H H H H H J J J J J J J J J J J J J J J J H H K U  .R R P.P.H.P.P.P.P.U.U.P.P.U.U.U.U.T.T.T.T.T.T.U.U.U.U.U.U.U.U.U.U.U.U.U.U.U.U.U.U.U.U.U.U.U.U.U.U.U.U.U.U.U.U.T.T.T.T.U.U.U.U.U.U.T.T.U.R.R.R.R.R.R.!.W.{.OX XXXXXXXXX X X X X X X X X X X X X X X X",
": & : : : ; : : @ @ ; ; ; ( 8X6X9X5X,X,X3X,X,X3X3X1X1X1X1X1X1X1X<X4X>.[ / ) _ _ ' ) ` ` ` ` ` ` ` ` ` ` ` ` ` ` ` ` ` ` ` ` ` ` ` ` ` ` ` ` ` ` ` ` ` ` ` ` ` ` ` ` ` ` ` ` ` ` ` ` ` ` ` ` ` ` ` ` ` ' ' ' ` ` ` _ ) -.;.<X,X,X6X6X:X:X8X7X7XzXzXcXnXCXHXHXJXJXGXGXGXGXGXGXGXGXJXJXJXJXJXJXJXJXGXGXGXGXGXGXGXGXJXGXGXGXGXGXGXGXHXJXHXDXnXcXzXzXhXxXrXtXsXtX_.l.i.5 5 i.s.s.t.<.4 3.z.b.r.r.r.y.r.h.a.s.t.s.s.s.2.g 2 2 2 2 d 2.j.s.s.h.j.i.i.C c i.l.'.yXdXdXtXtXtXrXrXtXxXjXjXxXcXcXbXbXnXCXDXAXHXHXGXGXJXJXPXGXGXGXGXGXGXGXGXGXGXGXGXGXGXGXGXJXJXJXJXJXGXGXGXHXHXDXNXnXbXxXxXxXxXhXhXrXhXjXdXdXyXyXuXS.l.u.i.j.u.u.k.i.i.i.j.`.yXdXdXdXsXrXxXxXmXnXNXbXzXcXnXAXGXGXGXGXJXJXGXJXJXJXJXJXJXJXJXAXGXGXDXnXcXxXcXCXDXGXJXJXGXGXGXGXGXGXGXDXnXcXzXsXxXsXdXdX'.l.c x k z z z z z h z j h h p y r r y p h h h j h h h h h h j j j j h p y r r r r r p p p p p p p p p p p p h h p p h h p p p p p p y y y y y y y y y y y y y y y y r r r r r u u u u u u 8 8 m W G.E Q *.Q T I H J J J H J H H H H J J J J J J J J J J J J J J J J H H K U  .R R { P.H.P.P.P.P.P.P.P.P.U.U.U.U.T.T.T.T.T.T.U.U.U.U.U.U.U.U.U.U.U.U.U.U.U.U.U.U.U.U.U.U.U.U.U.U.U.U.U.U.U.U.T.T.T.T.U.U.U.U.U.U.T.T.U.U.R.R.U.R.Q.Q.{.OXXXXXXX|.|.|. X X X X X X X X X X X X X X X",
"% % : : : ; ; ; @ @ @ ; , ..8X9X9X5X,X3X1X1X1X3X3X1X1X1X1X1X1X<X<X4X>.[ / ) _ _ ' ) ` ` ` ` ` ` ` ` ` ` ` ` ` ` ` ` ` ` ` ` ` ` ` ` ` ` ` ` ` ` ` ` ` ` ` ` ` ` ` ` ` ` ` ` ` ` ` ` ` ` ` ` ` ` ` ` ` ` ' ' ` ` ` _ _ -.;.2X,X,X6X6X:X8X7X%X%XhXxXcXnXAXJXHXHXKXGXGXGXGXGXGXGXGXJXJXJXJXJXJXJXJXGXGXGXGXGXGXGXGXGXGXGXGXGXGXGXGXHXHXJXHXDXnXcXzXrXrXhXrXxXrXoX_.l.c 5 i.k.s.a.<.4 3.z.z.r.r.r.y.h.r.r.u.a.a.s.s.4.d 2 3 2 2 g i.j.j.s.k.k.k.j.l.S.`.yXtXdXvXvXtXsXjXjXjXjXxXxXcXbXnXNXCXDXAXAXAXGXGXGXGXGXGXGXGXGXGXHXGXGXGXGXGXGXGXGXGXGXGXGXGXGXGXGXGXGXJXJXGXHXJXJXGXAXNXnXbXcXzXzXhXhXhXhXxXtXdXvXdXyX`.l.l.l.i.i.i.i.i.l.`.yXdXdXdXtXsXxXcXmXnXDXNXvXrXvXNXSXGXGXGXGXJXJXGXJXJXJXJXJXJXJXJXGXGXGXGXCXbXxXxXbXnXDXGXGXGXGXGXGXGXGXSXUXmXxXzXsXsXsXdXdX`.C c f z z h z z z z z z h h p y r r y p h h j j j j h h h h j j j j j h y r w w r r p p p p p p p p h h h h h h h p h h h p p p p p p p y y y y y y y y y y y y y y r y y r r u u u u u u u 8 m n W G.E *.E T L H J H J H J H H H H J J J J J J J J J J J J J J J J H H K U  .R R P.H.H.H.P.P.P.P.P.P.P.U.U.U.U.T.T.T.T.T.T.U.U.U.U.U.U.U.U.U.U.U.U.U.U.U.U.U.U.U.U.U.U.U.U.U.U.U.U.U.U.U.U.U.U.T.T.U.U.U.U.U.U.T.T.U.U.U.U.R.R.^.{.oX|.XXXXXX|.|. X X X X XXX X X X X X X X X X X",
"% % % % : : : ; ; @ @ ; V +XwX9X9X6X,X3X1X1X,X3X3X1X1X1X1X1X1X<X<X4X>.[ / ) _ _ ' ' ` ` ` ` ` ` ` ` ` ` ` ` ` ` ` ` ` ` ` ` ` ` ` ` ` ` ` ` ` ` ` ` ` ` ` ` ` ` ` ` ` ` ` ` ` ` ` ` ` ` ` ` ` ` ` ` ` ` ' ' ` ` ` _ _ -.;.2X,X,X6XwX8X8X7X%X%XhXhXcXNXGXKXHXHXKXGXGXGXGXGXGXGXGXJXJXJXJXJXJXJXJXGXGXGXGXGXGXGXGXGXGXJXJXJXJXJXGXGXHXHXGXGXCXbXzXzXrXzXcXxXrXrXxX`.C c i.i.s.s.<.4 1.z.b.z.r.r.h.h.r.r.r.a.a.a.s.g 3 2 3 3 2 g t.j.i.i.i.u.l.`.eXyXdXvXvXtXtXsXxXxXxXxXxXbXbXnXnXDXAXDXDXAXDXAXAXGXGXGXGXGXGXJXJXGXGXGXGXJXJXJXJXGXGXGXGXGXGXGXGXGXGXGXJXJXJXJXJXJXGXGXGXSXSXSXSXUXnXmXcXxXhXrX.XxXxXtXxXvXtX'.S.l.C C i.i.j.`.yXvXtXsXxXrXxXvXcXbXDXSXNXcXrXbXDXGXJXGXGXGXJXJXGXJXJXJXJXJXJXJXJXGXGXJXJXDXnXxXhXxXbXCXAXGXAXSXGXGXGXSXSXnXcXsXsXsXsXsXdXfXA.c c f k k z z k l l z z h h p y r r y p h h j j j j h h h h j j j j j h p r w w r r p p p p p p p p h h h h h h h h h h h h p p p p p p p y y y y y y p p y y y y y y y y r r r u u u u u u f 8 m ! G.G.$XE E I H J J J H H H H H H J J J J J J J J J J J J J J J J H H K U  .R R P.H.H.H.P.P.P.P.P.P.P.U.U.U.U.T.T.T.T.T.T.U.U.U.U.U.U.U.U.U.U.U.U.U.U.U.U.U.U.U.U.U.U.Y.Y.U.U.U.U.U.U.U.U.U.U.U.T.P.P.U.U.U.U.T.T.P.U.U.U.R.W.{.}. X|. X XXXXXXXXX X X X X X X X X X X X X X X X",
": : : : : ; ; @ @ # @ , X.6X6X9X6X5X3X1X1X1X1X1X3X1X1X1X1X1X1X<X2X4X>.[ / ) ) ' ) ) ` ` ` ` ` ` ` ` ` ` ` ` ` ` ` ` ` ` ` ` ` ` ` ` ` ` ` ` ` ` ` ` ` ` ` ` ` ` ` ` ` ` ` ` ` ` ` ` ` ` ` ` ` ` ` ` ` ` ' ' ` ` ` ` ) &.;.2X,X,X6X8X8X7X7X7XzXhXhXnXAXKXGXGXGXGXJXJXJXJXJXJXJXJXJXJXJXJXJXJXJXJXJXJXJXJXJXJXJXJXJXJXJXJXJXJXJXJXJXGXGXGXJXAXCXnXxXxXhXrXrXrXhXjXtX`.C C k.j.s.1.4 1.z.r.r.h.h.r.r.a.a.r.a.m.t.1.4 5 3 5 5 4 1.t.j.i.i.j.`.eXyXdXdXvXvXvXcXzXsXrXcXcXbXnXNXCXDXAXGXGXGXSXGXSXGXGXGXGXGXGXGXGXGXGXGXGXGXGXGXGXGXGXJXJXJXJXJXJXJXJXJXJXJXJXJXJXJXGXHXHXHXHXJXJXJXSXFXDXCXnXbXxXhXrXrXrXxXvXvXvXtXyX`.l.C C C `.yXdXtXrXxXxXzXxXbXbXDXSXGXNXcXxXbXDXGXGXGXGXGXGXJXJXJXJXJXJXJXJXJXJXGXGXGXJXGXDXnXcXhXxXbXnXDXSXGXSXSXJXSXnXbXcXzXsXsXsXdXdX`.Z c c k k k k z z l v l z l z j h r w r y h h j j h h h h h h h j j j j h h y r r w w r r y y p p p h p p p p p p p p p p p p p p p p p p p p y y y y y y y y y y y y y y r r r r u u t y u u f m 9 m E G.$XE E J J L J J H H H H H J J J J J J J J J J J J J J J J J J H K Y  .R R P.P.H.P.H.H.H.P.T.P.P.P.U.U.T.T.T.U.U.U.U.U.U.U.U.U.U.U.U.U.U.U.U.U.U.U.U.U.U.U.U.T.T.T.T.T.T.T.T.T.T.T.T.T.T.T.T.U.T.T.T.U.P.P.P.U.U.U.R.].{.|..X X XXXXXXX X X X X X X X X X X X X X X X X X X",
": : : : : ; ; @ ; @ ; , ..6X9X5X5X5X3X1X1X1X1X1X3X1X1X1X1X1X1X<X2X4X>.[ / ) ) ' ) ) ` ` ` ` ` ` ` ` ` ` ` ` ` ` ` ` ` ` ` ` ` ` ` ` ` ` ` ` ` ` ` ` ` ` ` ` ` ` ` ` ` ` ` ` ` ` ` ` ` ` ` ` ` ` ` ` ` _ ' ' ` ` ` ` ) &.;.4X,X,X6X8X8X7X7XzXhXhXjXnXAXKXGXGXGXGXJXJXJXJXJXJXJXJXJXJXJXJXJXJXJXJXJXJXJXJXJXJXJXJXJXJXJXJXJXJXJXJXJXSXSXJXJXGXDXCXbXcXzXrXXXrXzXhXtXuXl.Z k.k.s.2.4 1.r.c.r.m.a.r.a.b.a.r.a.a.t.2.g 5 2 5 5 g i.u.u.j.S.uXyXdXdXdXvXvXcXcXxXzXzXcXnXnXNXCXDXAXAXSXGXGXGXGXGXGXGXGXGXGXGXGXGXGXGXGXGXGXGXGXGXGXGXGXJXJXJXJXJXJXJXJXJXJXJXJXJXJXJXJXGXHXGXGXJXGXJXGXGXSXSXDXNXnXbXcXzXhXzXxXcXvXdXtXyX_.l.S Y.yXtXyXtXrXxXzXzXcXbXnXDXSXGXNXcXxXnXDXGXGXGXGXGXGXJXJXJXJXJXJXJXJXJXJXGXGXGXJXJXAXNXnXxXxXxXbXbXnXnXNXnXCXNXbXcXxXzXsXsXsXdXyXA.C c f k k k k z z l v l l l l j h y w r y h j j j h h h h h h j j j j j j h p r r w w r r y y p p p h p p p p p p p p p p p p p p p p p p p p p y y y y y y y y y y y y y r r r r u u t y y u f 8 9 m U E $X$XE J K J J J H H H H J J J J J J J J J J J J J J J J J J J K K U  .R R P.P.H.H.H.H.P.P.U.P.P.P.P.T.T.T.T.U.U.U.U.U.U.U.U.U.U.U.U.U.U.U.U.U.U.U.U.U.U.U.U.T.T.T.T.T.T.T.T.T.T.T.T.T.T.T.T.Y.T.T.T.T.U.U.P.P.U.R.^.{.OX|..XXXXXXXXXXX XXXXX X X X X|. X X X X X X X X X X",
": : : : : ; ; @ ; @ , X.>.6X9X5X5X3X3X1X1X1X1X1X3X1X<X1X1X1X<X<X2X4X>.[ / ) ) ' ) ) ` ` ` ` ` ` ` ` ` ` ` ` ` ` ` ` ` ` ` ` ` ` ` ` ` ` ` ` ` ` ` ` ` ` ` ` ` ` ` ` ` ` ` ` ` ` ` ` ` ` ` ` ` ` ` ` ` _ ' ' ` ` ` ` ) &.;.4X,X6XwX8X8X7X7XzXrXrXcXnXAXKXGXGXGXGXJXJXJXJXJXJXJXJXJXJXJXJXJXJXJXJXJXJXJXJXJXJXJXJXJXJXJXJXJXJXJXJXFXFXFXFXJXKXSXDXNXbXxXrXrXhXhXhXtXjXOXS.k.k.k.i.4 V.t.m.y.m.r.r.m.m.a.r.a.a.t.1.4 5 2 2 5 c i.j.l.`.yXdXvXvXdXtXxXcXxXxXxXmXnXnXDXAXAXAXHXGXGXGXGXGXHXHXJXJXHXGXGXGXGXGXGXGXGXGXGXGXGXGXGXGXGXGXJXJXJXJXJXJXJXJXJXJXJXJXJXJXJXJXGXGXGXGXGXGXGXGXGXJXJXJXHXAXNXnXbXcXzXhXjXxXjXjXvXxX_.`.OXxXtXtXrXrXhXhXxXbXNXAXSXGXGXNXcXxXnXAXGXGXGXGXGXGXJXJXJXJXJXJXJXJXJXJXGXGXGXJXPXJXAXDXcXcXhXhXhXxXcXbXcXmXmXcXzXzXsXsXsXdXdX`.Z c k f k l l l l l l v v l l l z h y u r y h j j j h h h h h h j j j j j j h h y r r w r r y y p p p h h h h p h h h h p p h h h h h h p p p p p p y y p p p p p p p p y y r r r e t t t w y y u 8 8 m q W $X$XE J K J J J K K H J J J J J J J J J J J J J J J J J J J L H K U { R R P.P.H.H.^ H.P.P.P.P.P.P.U.T.T.T.T.U.U.U.U.U.U.U.U.U.U.U.U.U.U.U.U.U.U.U.U.U.U.U.U.T.T.T.T.T.T.T.T.T.T.T.T.T.T.T.T.T.T.T.T.U.T.T.T.U.R.^.{.OX|.|..XXXXXXXXXXXXXXXXX X X X X|. X X X X X X X X X X",
": : : : ; ; ; @ ; # , ..>X6X9X5X5X3X3X1X1X1X1X1X1X1X1X1X1X1X<X<X2X4X>.[ / ) ) ' ) ) ` ` ` ` ` ` ` ` ` ` ` ` ` ` ` ` ` ` ` ` ` ` ` ` ` ` ` ` ` ` ` ` ` ` ` ` ` ` ` ` ` ` ` ` ` ` ` ` ` ` ` ` ` ` ` ` ` _ ' ' _ ` ` ` ) &.;.4X,X6XwX8X7X7X7XhXrXjXbXNXHXKXGXGXGXGXJXJXJXJXJXJXJXJXJXJXJXJXJXJXJXJXJXJXJXJXJXJXJXJXJXJXJXJXJXJXJXJXJXFXFXFXJXJXJXJXSXCXbXxXhXhXhXhXjXjXtXOXA.k.k.i.4 4 t.m.m.m.r.r.m.m.b.r.a.s.2.g 5 5 5 5 5 c l.`.yXyXdXvXvXdXsXsXrXhXcXbXbXnXDXSXGXHXHXHXGXGXGXGXGXGXJXJXJXJXHXHXKXGXGXGXGXGXGXGXGXGXGXGXGXGXGXGXJXJXJXJXJXJXJXJXJXJXJXJXJXJXJXJXGXGXGXGXGXGXHXGXGXGXHXHXHXHXHXAXNXnXcXhXhXhXjXxXtXrXtXtXtXtXtXrXrXrXrXxXbXNXDXGXSXGXGXnXcXxXnXSXGXGXGXGXGXGXJXJXJXJXJXJXJXJXJXJXJXGXGXJXKXKXJXGXNXnXbXxXhXrXhXhXxXxXxXzXzXsXsXsXdXvXyXZ.c f k k l l l l l l l v v l l l l h y r r y h j j j j h h h h j j j j j j j j h p y r w r r y y p p p h h h h p h h h h h h h p h h h h p p p p p p p y p p p p p p p p y y y r r e r u t t y y u 7 8 8 9 ! G.~.E J K J J H K K H H J J J J J J J J J J J J J J J J J J H H K U { { R P.P.H.H.^ P.P.P.P.P.P.P.U.T.T.T.T.U.U.U.U.U.U.U.U.U.U.U.U.U.U.U.U.U.U.U.U.U.U.U.U.T.T.T.U.U.U.T.T.T.T.T.T.T.T.T.T.T.T.P.P.P.U.T.R.E.^.{.oX.X.X.X.XXXXXXXXXXXXXXXXX XXX X XXX X X X|. X XXX X X X",
": : : ; ; ; @ @ # ; G =.6X6X6X5X5X3X3X1X1X1X1X1X<X<X1X1X1X1X<X2X2X4X>.[ / ) ' ' ) ) ` ` ` ` ` ` ` ` ` ` ` ` ` ` ` ` ` ` ` ` ` ` ` ` ` ` ` ` ` ` ` ` ` ` ` ` ` ` ` ` ` ` ` ` ` ` ` ` ` ` ` ` ` ` ` ` ` ' ' ' _ ` ` ` ` &.;.2X,X,XwX8X7X%XzXrXjXjXnXCXGXKXGXGXGXGXJXJXJXJXJXJXJXJXJXJXJXJXJXJXJXJXJXJXJXJXJXJXJXJXJXJXJXJXJXJXJXJXJXFXSXSXFXFXFXFXKXSXCXbXxXhXhXhXjXrXrXtX'.l.i.i.c 4 i.m.m.m.r.r.a.a.r.h.a.t.c g 5 5 < 5 c l.`.yXdXvXvXxXsXsXxXxXrXxXbXnXCXDXSXGXHXHXHXHXHXHXHXHXHXHXHXHXJXJXJXHXKXKXJXGXJXKXJXKXKXKXKXKXKXKXKXKXJXJXJXJXJXJXJXJXJXJXJXJXJXJXJXJXJXJXGXGXGXGXHXHXHXGXHXHXHXHXJXJXAXCXnXmXxXhXhXxXrX.X.XhXrX.XrXhXrXrXhXcXnXDXAXAXGXJXGXnXxXxXnXGXGXGXGXGXGXGXJXJXJXJXJXJXJXJXJXJXJXGXGXJXJXJXJXJXJXAXCXnXbXcXxXhXcXzXxXzXzXsXsXsXvXdX`.Z c k k x l v v l l l l v v v l l l j y r y p h j j j j j j j j j j j j j j j j j h p r r r r y y p p p h h p p p p p p p h h h h p p p p h p p p p p p p p p p p p p p p y y y y r r r u r w y y w u u 8 9 q W R W U J P P P P H J J J J J J J J J J J J J J J J P P P H H H K U  .{ { P.P.H.H.H.P.P.P.P.P.P.T.T.T.T.T.T.T.T.T.T.T.T.T.T.T.T.T.T.T.T.T.T.T.T.T.T.T.T.T.T.T.U.T.T.T.T.T.T.T.T.T.T.T.T.T.T.T.U.P.P.P.T.R.E.{.{.oX|..X.X.XXXXXXXXXXXXXXXXXXX X X X X X X X X|. X X X X X X",
": : : ; ; ; @ @ ; , X.;X6X5X6X5X5X3X3X1X1X1X1X1X<X<X1X1X1X1X2X2X2X4X>.[ / ) _ _ ) ) ` ` ` ` ` ` ` ` ` ` ` ` ` ` ` ` ` ` ` ` ` ` ` ` ` ` ` ` ` ` ` ` ` ` ` ` ` ` ` ` ` ` ` ` ` ` ` ` ` ` ` ` ` ` ` ` ` ' ' ' _ ` ` ` ` &.;.4X,X,X8X8X&X%XhXjXjXxXNXAXKXJXGXGXGXGXJXJXJXJXJXJXJXJXJXJXJXJXJXJXJXJXJXJXJXJXJXJXJXJXJXJXJXJXJXJXJXJXJXJXJXSXFXFXFXSXKXJXAXNXbXxXhXxXhXhXrXtXtX`.j.i.c 5 1.h.m.y.r.r.r.r.r.h.j.i.c 5 < < < c l.uXgXBXvXxXrXrXsXzXxXcXbXbXCXDXAXAXSXSXGXGXGXHXGXGXHXJXKXKXKXKXJXJXKXKXGXKXKXJXKXJXJXKXKXJXKXKXJXKXKXKXJXJXJXJXJXJXJXJXJXJXJXJXJXJXJXJXJXJXGXGXGXGXHXHXGXGXHXJXJXJXJXJXKXFXDXnXbXcXcXcXxXrX.X.XhXhXrXrXhXxXbXnXDXSXSXAXGXJXGXnXxXxXnXGXGXGXGXGXGXGXJXJXJXJXJXJXJXJXJXJXJXGXGXGXGXGXGXGXJXJXAXDXCXnXnXnXnXcXxXzXzXsXsXsXdXyXA.c c x k b v v v v l l l v b v v l l j f r r p h j j j j j j j j j j j j j j j j j j p y r r r y y p p p h h h h h h h h h h h h h h h h h h h p p p p p p p p p p p p p p y y y y r r r r r r r r w u u 7 9 m q U U U J J J P P H J J J J J J J J J J J J J J J J P P P H H H K U { { { P.H.H.H.H.P.P.P.P.P.T.T.T.T.T.T.T.T.T.T.T.T.T.T.T.T.T.T.T.T.T.T.T.T.T.T.T.T.T.T.T.U.U.T.T.T.T.T.T.T.T.T.T.T.T.T.T.T.U.P.P.T.E.W.].OXoX|.|..X.X.X.XXXXXXXXXXXXX X X X X X X X X X XXX X X XXX|. X",
": : : ; ; ; @ # ; V ..>X6X5X6X5X5X3X3X1X1X1X1X1X<X<X1X1X1X1X2X2X2X4X>.[ / ) _ _ ) ) ` ` ` ` ` ` ` ` ` ` ` ` ` ` ` ` ` ` ` ` ` ` ` ` ` ` ` ` ` ` ` ` ` ` ` ` ` ` ` ` ` ` ` ` ` ` ` ` ` ` ` ` ` ` ` ` ` ' ' ' _ ` ` ` ] [ >.4X,X,X8X8X&X%XhXtXxXvXCXHXJXJXGXGXGXGXJXJXJXJXJXJXJXJXJXJXJXJXJXJXJXJXJXJXJXJXJXJXJXJXJXJXJXJXJXJXJXJXJXJXJXJXJXJXSXSXSXFXGXDXNXbXcXxXhXzXhXrXvXyX`.j.C 5 c h.m.y.r.r.r.t.u.j.s.i.c 5 5 c C l.'.yXvXvXjXjXrXrXrXxXbXbXCXDXAXJXJXGXHXHXGXHXGXGXGXKXJXKXJXJXJXJXJXJXJXJXKXGXJXGXJXKXKXJXGXGXGXGXJXGXKXKXJXJXJXJXJXJXJXJXJXJXJXJXJXJXJXJXGXGXGXGXGXGXGXGXGXHXJXJXJXJXHXGXKXJXAXDXCXnXbXxXjXhXrXhXhXhX%XhXhXbXNXAXHXGXGXGXJXPXGXnXxXzXnXJXGXGXGXGXGXGXJXJXJXJXJXJXJXJXJXJXGXGXGXGXGXGXGXGXAXGXGXGXAXAXAXAXnXcXhX%XzXsXsXsXfX`.Z c c k k b v v v v l l v v b v v v l j f r r p h j j j j j j j j j j j j j j j l l j h y r r r y y p p p h h h h h h h h h h h h h h h h h h h h p p p p p p p p p p p p p y y y y r r e e y r r r w y y 7 9 9 m q U U U J P J P H J J J J J J J J J J J J J J J J P P P H H H K P { { { P.H.H.H.H.P.P.P.P.T.T.T.T.T.T.T.T.T.T.T.T.T.T.T.T.T.T.T.T.T.T.T.T.T.T.T.T.T.T.T.T.T.T.T.T.T.T.T.T.T.T.T.T.T.T.T.T.T.U.P.T.E.^.{.{..X.X|.|..X.X.X.X X XXXXXXXXX X X X X|.|. X XXX X X X X X|. X X",
": : : ; ; @ @ # ; X.;X6X5X6X5X5X3X3X1X1X1X1X1X1X1X<X1X1X1X1X<X2X2X4X>.[ / ) _ _ ) ) ` ` ` ` ` ` ` ` ` ` ` ` ` ` ` ` ` ` ` ` ` ` ` ` ` ` ` ` ` ` ` ` ` ` ` ` ` ` ` ` ` ` ` ` ` ` ` ` ` ` ` ` ` ` ` ` ` _ ' _ ` ` T ` ] [ >.5X,X6X8X7X&X%XrXjXxXvXAXHXJXJXGXGXGXGXJXJXJXJXJXJXJXJXJXJXJXJXJXJXJXJXJXJXJXJXJXJXJXJXJXJXJXJXJXJXJXJXGXGXJXJXJXJXJXFXDXAXSXSXDXnXvXxXzXXXxXxXxXvXyXS.C 5 c h.m.r.r.r.h.u.t.i.i.C 5 < c k.`.yXtXvXdXtXrXjXxXxXcXbXnXDXSXFXJXJXGXGXGXGXGXGXGXGXGXGXJXJXJXJXJXJXJXJXJXJXJXKXGXKXKXJXKXJXGXGXGXGXGXGXKXKXJXJXJXJXJXJXJXJXJXJXJXJXJXJXJXJXGXGXGXGXGXGXGXGXGXKXJXJXJXHXGXGXJXFXAXAXHXCXnXcXxXrXXXhXhXhXhXhXxXnXAXJXGXAXGXJXJXPXGXnXxXzXnXJXGXGXGXGXGXGXJXJXJXJXJXJXJXJXJXJXGXGXJXJXJXGXGXGXGXJXKXJXHXAXAXSXnXcX%XXXrXsXsXdXfXA.c c c k l v v 5.v l l l l v 6.v v v l j f y r p h j j j j j j j j j j j j j j l l l j h y r r r y y p p p h h h h h h h h h h h h h h h h h h h h h p p p p p p p p p p p p f y y y r r r r h h r w r p y 7 9 9 m q U U U J J P P P J J J J J J J J J J J J J J J J J J P H H H K P { !.{ P.^ H.H.H.H.H.H.P.T.T.T.T.T.T.T.T.T.T.T.T.T.T.T.T.T.T.T.T.T.T.T.T.T.T.T.T.T.T.T.T.T.T.T.T.T.T.T.T.T.T.T.T.T.T.T.T.U.P.P.T.Q.].}..X.X|.|.|..XXX.X|. X XXXXXXXXX X X X XXX X X X X X X X X X X X X",
"; % : ; @ @ ; ; , ..;X6X5X6X5X,X3X3X1X1X1X1X1X1X1X1X1X1X1X1X1X<X2X4X>.[ / _ _ _ ' ' _ _ _ _ ` ` ` ` ` ` ` ` ` ` ` ` ` ` ` ` ` ` ` ` ` ` ` ` ` ` ` ` ` ` ` ` ` ` ` ` ` ` ` ` ` ` ` ` ` ` ` ` ` ` ` ` ` ` ' ' ` ` ` ` ` ' >.5X6X8X7X%X7XXXhXhXxXnXAXSXGXGXGXGXGXGXJXJXJXJXJXJXJXJXJXJXJXJXJXJXJXJXJXJXJXJXJXJXJXJXJXJXJXJXJXJXJXJXJXJXJXJXJXJXJXJXJXGXGXGXGXDXNXnXxXrXrXzXrXxXsXyXk.5 5 t.m.b.b.r.u.k.k.i.C c c C S.`.yXtXdXsXxXxXjXxXbXbXnXDXGXPXSXSXSXSXSXSXSXGXJXJXJXJXGXGXGXGXGXGXGXGXGXGXGXGXJXJXJXJXJXJXJXJXJXJXJXJXJXJXJXJXJXJXJXJXJXJXJXJXJXJXJXJXJXJXJXJXJXJXJXJXJXJXJXJXJXJXGXJXGXJXJXJXGXJXGXAXAXDXnXxXrX.XrXhXhXhXhXxXCXAXJXPXJXGXGXGXGXJXGXnXxXcXNXAXJXJXJXJXJXJXJXJXJXJXJXJXJXJXJXJXJXJXJXJXJXJXJXJXJXJXSXAXGXJXAXNXmXxXzXzXrXsXsXfX`.Z c c x k x 6.l l l z l l v l b b l l l z h h r y h z l v z j j j j z z j j j j j j j h h p p r r y y h h h j h h h h h h j h h h h h h h h h h h p p p p p p h h h p p p p p y y y y y y y y y r r r r r r u 7 7 9 m q U U J P L P I J J U J J J J J J J J J J J P J J J J J L H P Y { !.{ P.H.H.H.H.H.P.P.T.T.T.T.T.T.T.T.T.T.T.T.T.T.T.T.T.T.T.T.T.T.T.T.T.T.T.T.T.T.T.T.T.T.T.T.T.T.T.T.T.T.P.P.P.T.T.T.P.U.T.E.^.{.oX.X.X.X|.|.|..X.X.X XXXXXXX X X X X X|.|.|.|.|.|.|.|. X X X X X X X",
"; % ; @ @ @ # ; ( =.,X,X5X,X5X3X3X1X1X1X1X1X1X1X1X1X1X1X1X1X1X<X2X4X>.[ / _ _ _ ' ' _ _ ` ` _ ` ` ` ` ` ` ` ` ` ` ` ` ` ` ` ` ` ` ` ` ` ` ` ` ` ` ` ` ` ` ` ` ` ` ` ` ` ` ` ` ` ` ` ` ` ` ` ` ` ` ` ` ` ' ' ` ` ` ` ` ' >.5X6X8X7X%XhX%X%X%XxXnXAXSXGXGXGXGXGXGXJXJXJXJXJXJXJXJXJXJXJXJXJXJXJXJXJXJXJXJXJXJXJXJXJXJXJXJXJXJXJXJXJXJXJXJXJXJXJXJXJXGXGXGXJXGXDXNXvXrXrXhXhXhXrXyX`.C c t.m.b.m.h.j.u.u.i.C C k.`.yXyXvXvXxXrXrXxXxXbXnXCXDXAXGXGXSXSXSXSXSXSXSXSXGXGXGXGXGXGXGXGXGXGXGXGXGXGXGXGXJXJXJXJXJXJXJXJXJXJXJXJXJXJXJXJXJXJXJXJXJXJXJXJXJXJXJXJXJXJXJXJXJXJXJXJXJXJXJXJXJXJXJXJXJXJXJXJXGXJXGXAXDXNXbXhX.X.XrXhXhXhXcXbXDXHXJXJXGXHXGXGXGXGXGXnXxXcXNXSXJXJXJXJXJXJXJXJXJXJXJXJXJXJXJXJXJXJXJXJXJXJXJXJXJXGXSXSXGXJXDXnXxXzXsXsXsXxXsXyXA.C c x x k x l l l l l l l k k b b l l l z h h r y h z l l l j j j j j j j j j j j j j j h p p r r y y h h h j h h h h h h j j h h h h h h h h h h p p h p p p h p h p p p p p y y y y y y y y y r r r r r r r u 7 8 m q U U J P J I I J J U U J J J J J J J J J J J J H H J J L H P Y { { { P.H.H.H.H.H.H.P.T.T.T.T.T.T.T.T.T.T.T.T.T.T.T.T.T.T.T.T.T.T.T.T.T.T.T.T.T.T.T.T.T.T.T.T.T.T.T.T.T.T.T.P.T.T.U.U.U.T.E.W.{.OX|..X.X|.|.|.|..X.X X XXXXXXXXX X XXX X|.|.|.|.|.|.|.|. X X X X X X X",
"; ; ; @ ; @ @ , } ;X,X,X,X,X5X3X3X1X1X1X1X1X1X1X1X1X1X1X1X1X1X<X2X4X>.[ / _ _ _ _ _ ` ` ` ` ` ` ` ` ` ` ` ` ` ` ` ` ` ` ` ` ` ` ` ` ` ` ` ` ` ` ` ` ` ` ` ` ` ` ` ` ` ` ` ` ` ` ` ` ` ` ` ` ` ` ` ` ` ` ' ' ` ` ` ` ` ' =.6X6X8X7X%XhXhX%XhXcXnXSXSXGXGXJXGXGXGXJXJXJXJXJXJXJXJXJXJXJXJXJXJXJXJXJXJXJXJXJXJXJXJXJXJXJXJXJXJXJXJXJXJXJXJXJXJXJXJXJXGXGXGXJXJXGXAXnXxXrXhX%XhXrXtXyXl.c i.h.y.y.h.j.u.i.i.u.l.`.yXtXvXvXxXrXtXsXcXbXnXDXHXJXGXGXGXSXSXSXSXSXSXSXSXHXGXGXGXSXSXAXHXGXGXGXGXGXGXGXGXJXJXJXJXJXJXJXJXJXJXJXJXJXJXJXJXJXJXJXJXJXJXJXJXJXJXJXJXJXJXJXJXJXJXJXJXJXJXJXJXJXJXJXJXJXJXJXJXGXJXJXDXNXbXxXrXrXrXrXhXhXcXbXCXKXJXJXGXAXAXGXGXGXGXHXnXxXxXNXHXJXJXJXJXJXJXJXJXJXJXJXJXJXJXJXJXJXJXJXJXJXJXJXJXGXGXGXGXJXGXCXbXzXzXzXsXzXvXtX`.Z c c x x k k l 5.5.b b b l x l b l z l l l h h r y h j l v l j z z j j l l l l j j j j j h p p r r y y h h h j j j j j j j j j h h h h h h h h h h p p h h p p p p p p p p p p y y y y y y y y y y r r r r r r u 8 8 9 q n U J J P J J J J J J J J J J J J J J J J J H H J J J L H P Y { { R H.H.H.H.H.H.H.P.T.T.T.T.T.T.T.T.T.T.T.T.T.T.T.T.T.T.T.T.T.T.T.T.T.T.T.T.T.T.T.T.T.T.T.T.T.T.T.T.T.T.T.T.T.U.U.U.T.Q.].{.OX.X.X.X.X|.|.|.|..X.X X XXXXXXXXXXXXXXXXX X X X X X X X X X X X X X X X",
"; ; % @ ; ; ; V =.,X,X,X,X,X5X3X3X1X1X1X1X1X1X1X1X1X1X1X1X1X1X<X2X4X>.[ / _ _ _ _ _ ` ` ` ` ` ` ` ` ` ` ` ` ` ` ` ` ` ` ` ` ` ` ` ` ` ` ` ` ` ` ` ` ` ` ` ` ` ` ` ` ` ` ` ` ` ` ` ` ` ` ` ` ` ` ` ` ` ` ' _ ` ` ` ` ` ' =.>X6X8X7X%XhXhXhXzXbXCXSXSXJXJXJXGXGXGXJXJXJXJXJXJXJXJXJXJXJXJXJXJXJXJXJXJXJXJXJXJXJXJXJXJXJXJXJXJXJXJXJXJXJXJXJXJXJXJXJXJXGXGXJXJXJXGXDXbXxXhX%X%XhXtXyX`.i.C i.u.h.h.u.u.u.j.S.eXyXvXvXtXtXtXtXrXcXnXCXDXAXGXGXGXGXJXSXSXSXSXSXSXSXSXHXGXGXGXSXSXSXHXGXGXGXGXGXGXGXGXJXJXJXJXJXJXJXJXJXJXJXJXJXJXJXJXJXJXJXJXJXJXJXJXJXJXJXJXJXJXJXJXJXJXJXJXJXJXJXJXJXJXJXJXJXJXJXJXJXGXAXCXbXcXhXrXhXrXhXhXcXbXCXGXJXJXJXGXAXAXGXGXGXGXHXnXxXxXnXSXJXJXJXJXJXJXJXJXJXJXJXJXJXJXJXJXJXJXJXJXJXJXJXJXGXGXGXJXJXSXnXcXzXzXxXzXxXvXOXA.C c c x k z l l l l l l k b b b b k k z l v z h y y h j l l l j z z j j l l l l j j j j j h h p r r y y h h h j j j j j j j j j j h h h h h h h h h h p h h h p h h h p h p p p y y y y y y y r y y y r r r r r w u 8 9 m q U U J J J J J J J J J J J J J J J J J J J H H H J J L H P Y { { R ^ H.H.H.H.I.H.P.P.T.T.T.T.T.T.T.T.T.T.T.T.T.T.T.T.T.T.T.T.T.T.T.T.T.T.T.T.T.T.T.T.T.T.T.T.T.T.T.T.T.T.T.T.P.T.R.E.].{.oX.XXX.X.X.X|.|.|.|..X.X X XXXXXXXXXXXXXXXXX X X X X X X X X X X X X X X X",
": ; % @ ; ; , X.;X6X,X,X,X,X3X3X1X1X1X1X1X1X1X1X1X1X1X1X1X1X1X<X2X4X>.[ / _ _ _ _ _ ` ` ` ` ` ` ` ` ` ` ` ` ` ` ` ` ` ` ` ` ` ` ` ` ` ` ` ` ` ` ` ` ` ` ` ` ` ` ` ` ` ` ` ` ` ` ` ` ` ` ` ` ` ` ` ` ` ` ' ' ` ` ` ` _ ) =.>XwX8X7XhXhXzXzXxXbXDXSXSXGXJXJXGXGXGXJXJXJXJXJXJXJXJXJXJXJXJXJXJXJXJXJXJXJXJXJXJXJXJXJXJXJXJXJXJXJXJXJXJXJXJXJXJXJXJXJXJXGXGXGXGXGXGXSXCXbXzX%XhXhXrXtXyXS.u.i.j.j.u.i.u.l.`.yXgXgXdXvXdXtXtXxXcXnXDXAXGXGXGXGXGXGXJXSXSXSXSXSXSXSXSXHXHXSXSXSXSXHXHXGXGXGXGXGXGXGXGXJXJXJXJXJXJXJXJXJXJXJXJXJXJXJXJXJXJXJXJXJXJXJXJXJXJXJXJXJXJXJXJXJXJXJXJXJXJXJXJXJXJXJXJXJXJXJXJXKXAXCXnXcXhXhXhXhXrXrXxXbXNXAXJXKXKXKXGXGXHXGXHXGXHXGXNXxXxXnXAXJXJXJXJXJXJXJXJXJXJXJXJXJXJXJXJXJXJXJXJXJXJXJXJXGXGXGXJXJXDXbXxXsXrXzXzXxXsX_.Z c c x x k k k l l z z z k k b b x k z z x b z h y y f j l l l j j j j j z z z z j j j j j h h p r r y y h h h j j j j j j j j j j j h h h h h h h h h h h h h h h h h p h h p p p p y y y y y y y y y y y r r r w u 8 9 9 q q K J J J J J J J J J J J J J H H H J J H H H H J J L H P Y { { R H.H.P.T.T.P.P.H.P.T.T.T.T.T.T.T.T.T.T.T.T.T.T.T.T.T.T.T.T.T.T.T.T.T.T.T.T.T.T.T.T.T.T.T.T.T.T.T.T.T.T.T.P.P.I.W.^.{.OX.X.X.X.X.X.X|. X X X.X.X X X XXXXXXXXXXXXXXX X X X X X X X XXXXXXXXXXXXX X",
": : % @ @ ; , ..6X6X5X,X,X,X1X1X1X1X1X1X1X1X1X1X1X1X1X1X1X1X1X<X2X4X>.[ / _ _ _ _ _ ` ` ` ` ` ` ` ` ` ` ` ` ` ` ` ` ` ` ` ` ` ` ` ` ` ` ` ` ` ` ` ` ` ` ` ` ` ` ` ` ` ` ` ` ` ` ` ` ` ` ` ` ` ` ` ` ` ` ' ' ` ` ` ` _ ) =.>X8X8X7XhX%XxXzXzXnXDXSXGXJXJXJXGXGXGXJXJXJXJXJXJXJXJXJXJXJXJXJXJXJXJXJXJXJXJXJXJXJXJXJXJXJXJXJXJXJXJXJXJXJXJXJXJXJXJXJXJXGXGXGXGXGXGXGXSXCXbXzXhXhXrXtXtXuXl.u.i.i.i.i.l.uXyXgXvXdXdXvXdXxXvXbXnXDXGXGXGXJXJXGXGXSXSXSXSXSXSXSXSXSXSXSXGXGXGXGXGXGXGXGXGXGXGXGXGXGXGXJXJXJXJXJXJXJXJXJXJXJXJXJXJXJXJXJXJXJXJXJXJXJXJXJXJXJXJXJXJXJXJXJXJXJXJXJXJXJXJXJXJXJXJXJXJXJXJXAXCXnXcXhXhXhXhXhXrXhXvXnXDXAXGXGXGXGXKXHXHXGXHXGXGXGXCXcXzXnXDXJXJXJXJXJXJXJXJXJXJXJXJXJXJXJXJXJXJXJXJXJXJXJXJXGXGXGXGXAXnXcXhXzXzXzXrXrXOXA.c c x x x k k v b k z z z k k b b k k z k x x k h y y f j l l l z l l l l l l l l j j j j j j h p r r y y h h h j j j j j j j j j j j h h h h h h h h h h h h h h h h h h h h h h p p y y y y y y y y y y y r r y u w 7 9 9 m q V K J J J J J J J J J J J J J H H J J H H H H H J L H P Y { { { P.P.P.T.T.P.P.H.P.T.T.T.T.T.T.T.T.T.T.T.T.T.T.T.T.T.T.T.T.T.T.T.T.T.T.T.T.T.T.T.T.T.T.T.T.T.T.T.T.T.T.P.P.U.W.{.{.oX.X.X.X.X.X.X.X X X X X.X.X X X XXXXXXXXXXX XXXXXXX X XXXXXXXXXXXXXXXXXXXXX X",
": : % ; ; ; G >.9X5X,X,X,X1X1X1X1X1X1X1X1X1X1X1X1X1X1X1X1X1X1X<X2X4X>.[ / _ _ _ _ _ ` ` ` ` ` ` ` ` ` ` ` ` ` ` ` ` ` ` ` ` ` ` ` ` ` ` ` ` ` ` ` ` ` ` ` ` ` ` ` ` ` ` ` ` ` ` ` ` ` ` ` ` ` ` ` ` ` ` ' ' ` ` ` ` ' ) =.>X8X8X7XhXXXxXzXzXCXSXGXJXJXJXJXGXGXGXJXJXJXJXJXJXJXJXJXJXJXJXJXJXJXJXJXJXJXJXJXJXJXJXJXJXJXJXJXJXJXJXJXJXJXJXJXJXJXJXGXGXJXJXJXGXGXGXSXJXAXNXbXhXhXrXtXkXyX`.l.C u.l.`.uXgXdXtXvXvXtXtXxXvXnXNXDXSXGXGXGXJXJXSXSXSXGXSXSXSXSXSXSXSXSXJXJXJXJXJXJXJXJXFXFXJXJXJXJXJXJXJXJXJXJXJXJXJXJXJXJXJXJXJXJXJXJXJXJXJXJXJXJXJXJXJXJXJXJXJXJXJXJXJXJXJXJXJXJXJXJXJXJXJXJXJXJXJXJXCXnXcXxXhXhXhXhXhXhXcXnXDXAXGXGXKXGXGXGXGXHXGXGXGXHXGXDXvXzXbXNXJXJXJXJXJXJXJXJXJXJXJXJXJXJXJXJXJXJXJXJXJXJXJXJXGXGXGXSXCXbXxXhXxXzXzXhXhX{.l.c c c x x b v v k l l k k k k k x k k k k x x k z y y f h z l l l l l l l l l l l j j j j j j h p r r y y p h h j j j j j j j j j j j j h h h h h h h h h h h h h h h h h h h h h p y y y y y y y y y y y y y r y y w u 8 9 9 m q U K J J J J J J H H J J J J H H J J J J J J J J L H P Y { !.P.P.P.T.T.T.I.P.H.T.T.T.T.T.T.T.T.T.T.T.T.T.T.T.T.T.T.T.T.T.T.T.T.T.T.T.T.T.T.T.T.T.T.T.T.T.T.T.T.T.P.P.U.R.W.{.}.oX.X.X.X.X.X.X.X.X X X X X.X.X X X X XXXXXXXXX X XXXXXXXXXXXXXXXXXXXXXXXXXXXXXXX",
": : % % ; , X.6X5X6X,X:.:.1X3X3X1X1X1X1X1X1X1X1X1X1X1X1X1X1X1X<X4X4X>.&.) _ _ _ _ _ ` ` ` ` ` ` ` ` ` ` ` ` ` ` ` ` ` ` ` ` ` ` ` ` ` ` ` ` ` ` ` ` ` ` ` ` ` ` ` ` ` ` ` ` ` ` ` ` ` ` ` ` ` ` ` ` ` ` ' ' ` ` ` ` ' ) =.:X8X8X7XhX%XxXxXzXCXSXGXJXJXJXJXGXGXSXJXJXJXJXJXJXJXJXJXJXJXJXJXJXJXJXJXJXJXJXJXJXJXJXJXJXJXJXJXJXJXJXJXJXJXJXJXJXJXJXGXGXJXJXJXJXJXJXSXFXFXDXnXhXhXjXtXtXtXyXl.S l.`.yXtXvXtXtXdXvXxXxXbXnXNXDXGXJXSXJXJXGXGXSXSXJXJXSXSXSXSXSXSXSXSXJXJXJXJXJXJXJXJXFXFXJXJXJXJXJXJXJXJXJXJXJXJXJXJXJXJXJXJXJXJXJXJXJXJXJXJXJXJXJXJXJXJXJXJXJXJXJXJXJXJXJXJXJXJXJXJXJXJXJXJXJXJXJXJXnXbXxXxXxXhXhXhXhXxXbXCXGXJXJXJXJXJXGXGXGXGXGXGXGXGXJXDXbXrXvXnXJXJXJXJXJXJXJXJXJXJXJXJXJXJXJXJXJXJXJXJXJXJXJXJXGXGXGXAXNXcXhXhXrXhXrXhXxX{.l.C c c c x b b k k x x b b x k k f f f k k x x l k y y f h z l l l l l l l l l l l j j j j j j h h r r y y p h h j j j j j j j j j j j j j h h j j h h h h h h h h h h h h h h h h p p y y y y y y p y y y y y r y y w u u 8 9 m q U K K J J J H J J H J J J J J J J J J J J J J J L H P Y ~.!.P.P.P.T.T.T.I.P.P.T.T.T.T.T.T.T.T.T.T.T.T.T.T.T.T.T.T.T.T.T.T.T.T.T.T.T.T.T.T.T.T.T.T.T.T.T.T.T.T.T.P.P.U.Q.{.}.oX|.XX.X.X.XXXXX.X|. X X X X.X.X X X X XXXXXXXXXXXXXXXXXXXXXXXXXXXXXXXXXXXXXXXXX X",
"@ : % ; ; , =.6X5X,X,X,X,X:.1X3X1X1X1X1X1X1X1X1X1X1X1X1X1X1X1X<X4X4X=.' _ _ _ o.` ` ` ` ` ` ` ` ` ` ` ` ` ` ` ` ` ` ` ` ` ` ` ` ` ` ` ` ` ` ` ` ` ` ` ` ` ` ` ` ` ` ` ` ` ` ` ` ` ` ` ` ` ` ` ` ` ` ` ` ' ' ` ` o.` ) ' =.:X8X7XXXzXzXzXhXbXDXSXGXGXGXGXGXGXGXGXJXJXJXJXJXJXJXJXJXJXJXJXJXJXJXJXJXJXJXJXJXJXJXJXJXJXJXJXJXJXJXJXJXJXJXJXJXJXJXJXJXJXJXJXJXJXJXJXAXFXFXFXDXnXcX.XjXjXkXyX[.`.[.yXxXxXxXtXtXtXvXvXnXNXDXSXSXSXSXSXGXGXGXGXJXJXSXSXSXSXSXSXFXFXFXSXJXJXJXJXJXJXJXJXJXJXJXJXJXJXJXJXJXJXJXJXJXJXJXJXJXJXJXJXJXJXJXJXJXJXJXJXJXJXJXJXJXJXJXJXJXJXJXJXJXJXJXJXJXJXJXJXGXGXGXJXJXJXSXSXnXcXxXjXhXhXxXhXcXnXCXGXJXGXGXGXKXKXGXGXGXGXGXGXJXJXGXDXnXrXzXnXAXGXJXGXGXJXJXJXJXJXJXJXJXJXJXJXGXGXGXGXJXJXJXGXSXJXSXNXbXxXhXrXXXhXrXrXxXrX_.l.C Z x k b b k k b x x b x x x f f f x x k z f z j h y h l l l l l l l l l l l l l l l j l j j j y r r r y h h h j j j j j j j j j j j j h h h h h h h h h h h h j h h h h p p p y y y y y y p p p p p p p p p p y w w u 7 9 9 m V U U J J J J H H H H H J J J J J J J J J J J J H H P Y ~.!.P.P.T.T.T.T.I.P.P.P.T.T.T.T.T.T.T.T.T.T.T.T.T.T.T.T.T.T.T.T.T.T.T.T.T.T.T.T.T.T.T.T.R.T.T.P.P.P.U.U.P.R.W.{.OX|.|.oX.X.X.X.X.X.X.X.X X X.X.X.X.X X X XXXXXXXXX X X XXXXXXXXX X X XXXXXXXXXXXXXXXXX",
"@ % ; ; , ( ;X6X5X3X,X,X,X:.1X1X1X1X1X1X1X1X1X1X1X1X1X1X1X1X1X<X4X4X=.' _ _ ` o.` ` ` ` ` ` ` ` ` ` ` ` ` ` ` ` ` ` ` ` ` ` ` ` ` ` ` ` ` ` ` ` ` ` ` ` ` ` ` ` ` ` ` ` ` ` ` ` ` ` ` ` ` ` ` ` ` ` ` ` ` ' ` ` o.` ) ' =.:X8X@X@XzXzXzXzXbXDXSXGXGXGXGXGXGXGXGXJXJXJXJXJXJXJXJXJXJXJXJXJXJXJXJXJXJXJXJXJXJXJXJXJXJXJXJXJXJXJXJXJXJXJXJXJXJXJXJXJXJXJXJXJXJXJXJXFXFXFXFXAXNXbXhXjXjXjXtXyXyXtXvXjXjXtXtXxXvXbXnXNXDXDXSXSXSXSXSXGXGXGXGXJXJXSXSXSXSXSXSXFXFXFXFXFXJXJXJXJXJXJXJXJXJXJXJXJXJXJXJXJXJXJXJXJXJXJXJXJXJXJXJXJXJXJXJXJXJXJXJXJXJXJXJXJXJXJXJXJXJXJXJXJXJXJXJXJXJXJXJXGXGXGXGXJXJXSXSXNXbXxXxXhXhXcXcXbXnXDXGXJXGXGXJXJXKXGXJXGXGXGXGXGXGXGXAXnXzXzXnXAXGXJXGXGXJXJXJXJXJXJXJXJXJXJXJXGXGXGXGXJXJXJXGXGXGXDXnXcXxXhXhXrXhXrXrXxXvXyX'.A.Z c x x x b b x k x x x x b x k k k k k f f z h f y h z l l l l l l l l l l l l l l l l j j j p r r r y h h j j j j j j j j j j j j j j h h h h h h h h h h h j h h h h p p p y y y y y p p p p p p p p p p p y y u w 7 9 8 m n U U J H J H H H H H H J J J J J J H H J J J J H H P Y ~.!.P.I.T.T.T.T.I.I.P.P.T.T.T.T.T.T.T.T.T.T.T.T.T.T.T.T.T.T.T.T.T.T.T.T.T.T.T.T.T.T.T.T.T.T.T.T.P.T.U.U.R.W.{.}.oX|.|.|..X.X.X.X.X.X.XXX X X X.X.X.X X XXXXXXXXXXXXX X XXXXXXXXXXXXX X XXXXXXXXXXXXXXX",
"; : ; ; , ..6X6X5X3X1X,X,X:.:.1X1X1X1X1X1X1X1X1X1X1X1X1X1X1X1X<X2X4X=.' _ _ _ o.` ` ` ` ` ` ` ` ` ` ` ` ` ` ` ` ` ` ` ` ` ` ` ` ` ` ` ` ` ` ` ` ` ` ` ` ` ` ` ` ` ` ` ` ` ` ` ` ` ` ` ` ` ` ` ` ` ` ` ` ` _ ` ` o.` ' ' ..:X8X@X@XzXzXzXzXbXDXSXGXGXGXGXGXGXGXGXJXJXJXJXJXJXJXJXGXGXGXGXGXGXGXGXJXJXJXJXJXJXJXJXJXJXJXJXJXJXJXJXJXJXJXJXJXJXJXJXJXJXJXJXJXJXJXJXJXFXAXAXSXDXnXbXjXjXtXtXtXjXjXjXjXjXjXjXvXnXNXCXAXAXSXSXFXFXSXSXSXGXGXGXFXFXFXFXFXFXFXFXFXFXFXFXFXFXFXFXFXFXFXFXFXFXFXFXFXFXFXJXJXJXJXJXJXJXJXJXJXJXJXJXJXJXJXJXJXJXJXJXJXJXJXJXJXJXJXJXJXJXJXJXJXFXFXFXFXFXFXFXSXSXSXSXFXSXSXSXDXbXxXxXhXhXcXbXNXDXGXJXJXGXGXKXKXKXKXKXGXGXGXGXGXGXGXAXNXxXhXbXDXGXJXJXGXJXJXJXJXJXJXJXJXJXJXJXGXGXGXGXJXJXJXGXJXAXCXbXxXhXhXhXzXzXhXhXhXcXxXdX'.A.Z b x x b x x k k x x b b b b k f f f f f k h f y h z l l l l l l l l l l l l l l l l l j j p y r r y h j j j j j j j j j j j j j j j j h h h h h h h h h h h h h h p p p y y y y y p p p p p p p p p p p p y y y w u 7 8 8 q V U U J K H J H H H H J J H J J J H H H J H L H H P Y ~.!.P.I.U.T.T.T.I.I.P.P.T.T.T.T.T.T.T.T.T.T.T.T.T.T.T.T.T.T.T.T.T.T.T.T.T.T.T.T.T.T.T.T.T.T.T.T.U.U.R.R.^.{.OX|.|.|.|.XX.X.X.X.X.X.X.X.X X X.X.X.X.X X XXXXXXXXXXXXXXXXXXXXXXXXXXXXXXXXXXXXXXX XXXXXXX",
"@ : @ ; X.:X6X3X5X,X1X,X1X1X1X1X1X1X1X1X1X1X1X1X1X1X1X1X1X1X1X<X2X4X=.' _ _ _ ` ` ` ` ` ` ` ` ` ` ` ` ` ` ` ` ` ` ` ` ` ` ` ` ` ` ` ` ` ` ` ` ` ` ` ` ` ` ` ` ` ` ` ` ` ` ` ` ` ` ` ` ` ` ` ` ` ` ` ` ` ` _ ` ` o.` ' ] ..+X8X@X@XzXzXzXxXnXSXGXGXGXGXGXGXGXGXGXJXJXJXJXJXJXJXJXGXGXGXGXGXGXGXGXJXJXJXJXJXJXJXJXJXJXJXJXJXJXJXJXJXJXJXJXJXJXJXJXJXJXJXJXJXJXJXJXJXFXAXSXSXSXDXNXcXjXtXtXjXjXtXrXhXhXxXcXnXNXAXHXGXGXSXSXSXFXSXFXSXGXSXGXFXFXFXSXFXFXFXFXFXFXFXFXFXFXFXFXFXFXFXFXFXFXFXFXFXFXFXFXJXJXJXJXJXJXJXJXJXJXJXJXJXJXJXJXJXJXJXJXJXJXJXJXJXJXJXJXJXJXJXJXJXFXFXFXFXFXFXFXSXSXSXSXSXSXSXSXAXnXxXjXhXhXcXnXDXAXGXJXGXGXJXKXKXKXKXKXGXGXGXGXGXGXGXSXNXvXhXcXCXAXJXJXGXJXJXGXJXJXJXJXJXJXJXJXJXGXGXGXJXJXJXGXJXDXnXcXhXhXhXhXxXxXxXzXhXrXsXdXdX'.Z.b x x x x x k k x x b b x f u 7 7 7 f k x h f y h z l l l l l l l l l l l l l l l j j j j p y r r y h j j j j j j j j j j j j j j j j j h h h h h h h h h h h h h p p y y y y p p p p p p p p p p p p p p y y y y w 7 7 8 q q U U J H J I H H H H H H H J J H H H H H H H H H P Y ~.!.P.I.U.T.T.T.I.I.T.P.T.T.T.T.T.T.T.T.T.T.T.T.T.T.T.T.T.T.T.T.T.T.T.T.T.T.T.T.T.T.T.T.T.P.P.P.U.R.E.Q.{.OX|.XX|.|.|.XX.X.X.X.X.X.X.X.X.X.X.X.X.X.X X XXXXXXXXXXXXXXXXXXXXXXXXXXXXXXXXXXXXX X X X XXX",
"; @ @ , ..6X6X,X3X3X1X1X1X1X1X1X1X1X1X1X1X1X1X1X1X1X1X1X1X1X1X<X4X4X=.' ) _ _ ` ` ` ` ` ` ` ` ` ` ` ` ` ` ` ` ` ` ` ` ` ` ` ` ` ` ` ` ` ` ` ` ` ` ` ` ` ` ` ` ` ` ` ` ` ` ` ` ` ` ` ` ` ` ` ` ` ` ` ` ` ` _ ` ` o.` ` ] ..+X#X@X7XzXzXzXzXnXSXGXGXGXGXGXGXGXGXGXJXJXJXJXJXJXJXJXGXGXGXGXGXGXGXGXJXJXJXJXJXJXJXJXJXJXJXJXJXJXJXJXJXJXJXJXJXJXJXJXJXJXJXJXJXJXJXJXFXJXJXJXSXGXAXAXnXcXhXhXxXjXhXjXhXxXbXnXCXAXGXGXSXSXSXSXSXGXFXIXSXSXJXJXFXFXSXSXFXFXFXFXFXFXFXFXSXSXSXSXSXSXSXFXFXFXFXFXFXFXFXFXJXJXJXJXJXJXJXJXJXJXJXJXJXJXJXJXJXJXJXJXJXJXJXJXJXJXJXJXJXJXJXJXJXFXFXFXFXFXFXFXFXFXFXFXSXSXFXFXGXnXcXhXhXhXxXnXAXAXGXGXGXGXGXJXKXKXKXKXGXGXGXGXGXGXGXHXDXbXxXxXnXDXGXJXGXGXJXGXJXJXJXJXJXJXJXJXJXGXGXGXJXJXGXGXSXCXbXxXhXhXhXhXrXhXxXxXzXrXsXxXdXfX'.f.b c c b x f f x c x c f < < < < 7 f x b h y r h z l l l l l l l l l l l l l l l l j j j h y r w r h j j j j j j j j j j j j j j j j j j j j h h h h j j h h h h p p y y p p p p p p h h p p p p p p p p y y y r w w 7 8 m q U U J H J J H H H H J J J J J J H H J J J J H H K Y ~.!.P.I.U.T.T.T.I.I.T.T.T.T.T.T.T.T.T.T.T.T.T.T.T.T.T.T.T.T.T.T.T.T.T.T.T.T.T.T.T.T.T.T.T.P.P.P.U.E.^.].OX|.XXXX|.|.|.XX.X.X.X.X.X.X.X.X.X.X.X.X.X.X X XXX XXXXXXXXXXXXX X XXXXXXXXXXXXXXXXX X XXXXXXX",
"; @ % ( ;X6X,X,X3X1X1X1X1X1X1X1X1X1X1X1X1X1X1X1X1X1X1X1X1X1X1X<X4X4X=.' ' _ _ ` ` ` ` ` ` ` ` ` ` ` ` ` ` ` ` ` ` ` ` ` ` ` ` ` ` ` ` ` ` ` ` ` ` ` ` ` ` ` ` ` ` ` ` ` ` ` ` ` ` ` ` ` ` ` ` ` ` ` ` ` ` _ ` ` ` ` ` ] ..+X@X@XzXzXzX%XzXnXGXGXGXGXGXGXGXGXGXGXJXJXJXJXJXJXJXJXGXGXGXGXGXGXGXGXJXJXJXJXJXJXJXJXJXJXJXJXJXJXJXJXJXJXJXJXJXJXJXJXJXJXJXJXJXJXJXJXFXJXJXJXGXSXGXGXAXbXhXhXcXhXhXhXcXbXnXCXAXAXSXGXSXSXSXSXSXGXJXIXSXSXJXJXSXSXSXSXFXFXFXFXFXFXFXFXSXSXSXSXSXSXSXSXFXFXFXFXFXFXFXFXJXJXJXJXJXJXJXJXJXJXJXJXJXJXJXJXJXJXJXJXJXJXJXJXJXJXJXJXJXJXJXJXJXFXFXFXFXFXFXFXFXFXFXFXSXSXSXFXGXNXbXjXhXrXxXnXAXAXGXGXGXGXGXJXKXKXKXJXGXGXGXGXGXGXGXHXAXnXcXxXbXNXAXGXGXGXJXGXJXJXJXJXJXJXJXJXJXGXGXGXJXJXGXGXDXnXcXhXhXhXhXhXxXcXbXcXzXzXzXzXsXdXfX'.k.c x b x k k x k f d 7 < $ < < 7 f x b h y r h j l l l l l l l l l l l l l l l l l j j h y r w r h j j j j j j l z j j j j j j j j j j j j h h h h j j h h h h p p y y p p p p h h h h p p p p p p p f y y y w w w u 7 9 q V U J J L J H H H H J J J J J J H J J J J J H H P Y ~.!.P.I.U.T.T.T.I.I.T.T.T.T.T.T.T.T.T.T.T.T.T.T.T.T.T.T.T.T.T.T.T.T.T.T.T.T.T.T.T.T.T.T.T.P.P.T.E.^.{.}.oX|.XXXX|.|.|.XX.X.X.X.X.X.X.X.X.X.X.X.X.X.X X X X XXXXXXXXXXXXX X XXXXXXXXXXXXXXXXX X XXXXXXX",
": @ , ..6X6X,X,X,X1X1X1X1X1X1X1X1X1X1X1X1X1X1X1X1X1X1X1X1X1X1X<X4X4X=.' ' _ o._ ` ` ` ` ` ` ` ` ` ` ` ` ` ` ` ` ` ` ` ` ` ` ` ` ` ` ` ` ` ` ` ` ` ` ` ` ` ` ` ` ` ` ` ` ` ` ` ` ` ` ` ` ` ` ` ` o.` ` ` ` _ ` ` ` ` ` ] ..+X@XsXzXzXzXzXcXUXGXGXGXGXGXGXGXGXGXGXJXJXJXJXJXJXJXJXSXSXGXGXGXGXGXGXJXJXJXJXJXJXJXJXJXJXJXJXJXJXJXJXJXJXJXJXJXJXJXJXJXJXJXJXJXJXJXJXJXJXJXGXHXGXGXGXGXnXcXhXhXhXhXhXbXnXDXAXAXDXAXSXSXSXSXGXGXJXJXJXGXGXSXFXSXSXSXSXFXFXFXFXFXFXFXFXSXSXSXSXSXSXSXSXFXFXFXFXFXFXFXFXJXJXJXJXJXJXJXJXJXJXJXJXJXJXJXJXJXJXJXJXJXJXJXJXJXJXJXJXJXJXJXJXJXFXFXFXFXFXFXFXFXFXSXSXSXSXFXFXGXDXnXxXhXhXcXNXGXGXGXGXGXJXGXGXKXKXJXJXGXGXGXGXGXGXHXHXGXNXbXxXcXnXDXSXGXGXJXJXJXJXJXJXJXJXJXJXJXJXGXGXJXJXGXSXNXbXhXhXxXxXhXhXcXnXNXnXmXzX7XsXsXdXvXdX`.k.b x b x x b k d < < $ $ < < 7 f k x f y r h j l l l l l l l l l l l l l l l l l j j h y w w r p j j j j l l l l j j j j j j j j j j j j h h h j j j h h h p p y y y p p p h h h h h p p p p p p p f y y y w w w u 8 9 q V U U J J J H H J H J J J J J J J J J J J J H H P Y ~.!.P.I.U.T.T.T.I.I.T.P.T.T.T.T.T.T.T.T.T.T.T.T.T.T.T.T.T.T.T.T.T.T.T.T.T.T.T.T.T.T.T.T.P.T.R.Q.].{.oX.X|.|..X|. XXXXXXX.X.X.X.X.X.X.X.X X.X.X.X.X.X X X XXXXXXXXX X XXX XXXXXXXXX X XXXXXXX XXXXXXXXX",
"; ; V ;X6X6X,X,X,X,X1X1X1X1X1X<X1X1X1X1X1X1X1X1X1X1X1X1X1X1X1X<X4X4X=.' ) _ ` ` ` ` ` ` ` ` ` ` ` ` ` ` ` ` ` ` ` ` ` ` ` ` ` ` ` ` ` ` ` ` ` ` ` ` ` ` ` ` ` ` ` ` ` ` ` ` ` ` ` ` ` ` ` ` ` ` ` ` ` ` _ _ _ ` ` ` ] ]  .#X@XsXzXzXrXzXcXDXIXGXGXGXGXGXGXGXGXGXJXJXJXJXJXJXJXJXSXSXGXGXGXGXGXGXJXJXJXJXJXJXJXJXJXJXJXJXJXJXJXJXJXJXJXJXJXJXJXJXJXJXJXJXJXJXJXJXJXGXGXGXGXGXGXAXDXDXnXcXhXhXxXcXnXCXSXJXAXDXDXSXSXGXJXJXIXJXJXGXGXGXFXFXSXSXSXSXFXFXFXFXFXFXFXFXFXSXSXSXSXSXSXSXFXFXFXFXFXFXFXJXJXJXJXJXJXJXJXJXJXJXJXJXJXJXJXJXJXJXJXJXJXJXJXJXJXJXJXJXJXJXJXJXJXFXFXFXFXFXFXFXFXSXSXSXSXSXFXJXGXAXnXxXhXhXbXCXJXJXJXJXJXJXGXGXKXKXJXJXGXGXGXGXGXGXHXHXGXDXbXcXxXnXDXAXSXGXJXJXJXJXJXJXJXJXJXJXJXJXGXGXJXJXGXSXnXcXrXhXxXxXhXhXhXnXAXSXnXcXzXrXsXsXdXdXyXS.Z c b x x b c 7 < $ $ $ < 7 d f k k f y r h j l l l l l l l l l l l l l l l l l j j h y w w r p j j j j l l l l j j j j j j j j j j j j h h h h j j h h h p p y y y p p h h h h h h p p p p p p p f y y y w w r y 8 9 q q U U J J J H H J J J J J J P P J J J J J J L H P Y ~.!.P.I.P.P.T.T.T.T.T.T.T.T.T.T.T.T.T.T.T.T.T.T.T.T.T.T.T.T.T.T.T.T.T.T.T.T.T.T.T.T.T.T.P.R.Q.].{.oXXX%XXX.X|.|.XXXXXXXX.X.X.X.X.X.X.X.X X.X.X.X.X.X X XXXXXXXXX X X X XXXXXXXXX X X XXXXXXXXXXXXXXXXX",
"# , X.;X,X5X3X,X,X<X3X3X3X1X<X<X1X1X1X1X1X1X1X1X1X1X1X1X1X1X1X<X2X4X-.) ) ` ` ` ` ` ` ` ` ` ` ` ` ` ` ` ` ` ` ` ` ` ` ` ` ` ` ` ` ` ` ` ` ` ` ` ` ` ` ` ` ` ` ` ` ` ` ` ` ` ` ` ` ` ` ` ` ` ` ` ` ` ` ` _ _ _ _ ` ` ] ] ..#X7XzXsXxXhXhXbXDXGXJXGXGXGXGXGXGXGXGXJXJXJXJXJXJXJXJXGXCXnXDXJXGXGXSXGXGXGXGXGXGXJXJXJXJXJXJXJXJXJXJXJXJXJXJXJXJXJXJXJXJXJXJXJXJXJXJXJXJXJXJXJXJXJXJXJXAXDXnXcXrXrXxXbXDXGXDXAXGXGXGXJXJXJXJXJXJXJXJXGXSXSXSXFXFXFXFXSXSXSXSXSXSXSXSXSXSXSXSXSXSXSXSXJXJXJXJXJXJXJXJXJXJXJXJXJXJXJXJXJXJXJXJXJXJXJXJXJXJXJXJXJXJXJXJXJXJXJXJXJXJXJXJXJXJXJXJXJXJXJXJXSXSXSXSXSXSXSXSXGXAXDXnXcXhXcXCXGXGXGXGXGXGXGXGXJXJXJXJXJXJXJXJXGXGXJXJXGXAXnXbXhXcXnXDXJXJXGXGXGXGXGXGXGXGXGXGXJXGXGXGXGXGXDXCXbXcXhXhXhXhXxXxXbXCXGXSXDXCXmXXXzXrXvXvXdXeXA.c c x x c 0 < - $ $ < 7 f f k k f t t t f h j l l v v v v v l k l l l l l l l z z f y r t r y h j l l l l l l j j j j j j j j j j j j j j j j j j h h y r r r p p h h j h h h h h h h h h h h h h f y y r r r y u 8 9 q V U U J J H H H H J J H H H H J J J J P L L H K R ~.!.I.I.I.R.U.U.U.T.T.T.T.T.T.U.T.T.T.T.T.T.T.T.T.T.U.U.T.T.T.T.T.T.T.T.P.T.T.I.T.T.T.T.R.Q.{.OX|. X X|.XXXXXXXXXXXXXXXXXXXXXXXXXXXXXXXXXXXXXXXXXXXXXXXXXXXXXXXXXXXXXXXX XXXXXXXXX X X XXXXXXXXX X X X",
"; , ..,X,X3X,X,X,X<X3X3X3X1X<X<X1X1X1X1X1X1X1X1X1X1X1X1X1X1X1X<X2X4X-.) ) ` o.` ` ` ` ` ` ` ` ` ` ` ` ` ` ` ` ` ` ` ` ` ` ` ` ` ` ` ` ` ` ` ` ` ` ` ` ` ` ` ` ` ` ` ` ` ` ` ` ` ` ` ` ` ` ` ` ` ` ` ` _ _ _ _ _ ` ` ] ] ~.#X7XhXzXxXhXzXbXDXGXJXGXGXGXGXGXGXGXGXJXJXJXJXJXJXJXJXGXCXnXDXJXGXGXGXGXGXGXGXGXGXJXJXJXJXJXJXJXJXJXJXJXJXJXJXJXJXJXJXJXJXJXJXJXJXJXJXJXJXJXJXJXJXJXJXGXSXAXCXbXxXhXxXbXCXGXAXAXGXGXGXJXJXJXJXJXJXJXJXGXSXSXSXFXFXFXFXSXSXSXSXSXSXSXSXSXSXSXSXSXSXSXSXJXJXJXJXJXJXJXJXJXJXJXJXJXJXJXJXJXJXJXJXJXJXJXJXJXJXJXJXJXJXJXJXJXJXJXJXJXJXJXJXJXJXJXJXJXJXJXJXSXSXSXSXSXSXSXSXAXHXAXCXbXxXcXNXGXGXGXGXGXGXGXGXJXJXJXJXJXJXJXJXGXJXJXGXGXAXNXbXxXxXbXCXGXJXGXGXGXGXGXGXGXJXJXJXJXGXGXGXGXSXCXnXcXxXxXhXhXhXxXcXnXDXGXGXSXDXnXxXsXrXsXxXdXdX_.k.x x c c < < $ $ $ < d f k k k z t 7 t d z z l v l v v l v k k k l l l l l l l z f y r u r y h z l l l l l l l j j j j j j j j j j j j j j j j j h h y r r y p h h h h h h h h h h h h h h h h h f y y r r r y y 8 8 m V U U J J H H H H J H H H H H H J J P J L L H K R ~.!.I.I.!.R.T.U.U.T.I.I.T.T.U.U.T.T.T.T.T.T.T.T.T.T.U.U.T.T.T.T.T.T.U.T.T.T.U.U.I.T.R.R.Q.].{.oX XXXXX XXXXXXXXXXXXXXXXXXXXX X XXXXXXXXXXXXXXXXXXXXXXXXXXXXXXXXXXXXXXXXX XXXXXXXXX X XXXXXXXXXXX XXX X",
"; ( =.,X,X,X,X,X,X3X3X3X1X1X<X<X1X1X1X1X1X1X1X1X1X1X1X1X1X1X1X<X2X4X-.) ) ` o.T ` ` ` ` ` ` ` ` ` ` ` ` ` ` ` ` ` ` ` ` ` ` ` ` ` ` ` ` ` ` ` ` ` ` ` ` ` ` ` ` ` ` ` ` ` ` ` ` ` ` ` ` ` ` ` ` ` ` ` _ _ _ _ _ ` ` ] ] ~.#X7XhXzXxXhXzXbXDXGXGXGXGXGXGXGXGXGXGXJXJXJXJXJXJXJXJXGXCXnXCXGXGXGXGXGXGXGXGXGXGXJXJXJXJXJXJXJXJXJXJXJXJXJXJXJXJXJXJXJXJXJXJXJXJXJXJXJXJXJXJXJXJXJXJXSXGXGXAXnXcXxXhXcXnXAXGXGXGXGXGXJXJXJXJXJXJXJXJXJXFXSXSXFXSXFXFXSXSXSXSXSXSXSXSXJXJXJXJXGXJXGXGXJXJXJXJXJXJXJXJXJXJXJXJXJXJXJXJXJXJXJXJXJXJXJXJXJXJXJXJXJXJXJXJXJXJXJXJXJXJXJXJXJXJXJXJXJXJXJXJXGXGXSXSXSXSXSXSXAXGXGXAXNXbXbXNXGXGXGXGXGXGXGXGXJXJXJXJXJXJXJXJXGXJXJXGXGXGXDXnXcXxXcXnXAXJXJXGXGXGXJXJXJXJXJXJXJXGXGXGXJXAXnXbXhXhXxXxXhXrXxXbXDXSXJXJXGXSXDXnXxXxXsXsXvXbXfX`.k.b c 0 < $ $ $ < 7 f f k x x k t 7 t d z l l v l l v v v l k k v v l l l l l l f y r t r y h z l l l l l l l l l j j j j j j j j j j j j h h h p p y y y p h h h h h h h h h h h h h h h h h h f y y r y r y y 8 8 m n U U J J H H H H J J H H H H J J J J J L L H K R ~.!.I.I.!.R.R.U.U.U.I.I.T.T.T.T.T.T.T.T.T.T.T.T.T.T.U.U.T.T.T.T.T.T.U.U.T.T.U.P.T.U.E.W.{.}.oX XXXXXXXXXXXXX X X X X XXXXXXXXX X XXXXXXXXXXXXXXXXXXXXXXXXXXXXXXXXXXXXXXX X XXXXXXXXXXXXXXX XXX XXXXXXX",
"; ( >.,X,X,X,X,X,X3X3X3X1X1X<X<X1X1X1X1X1X1X1X1X1X1X1X1X1X1X1X<X2X2X-./ _ o.o.` ` ` ` ` ` ` ` ` ` ` ` ` ` ` ` ` ` ` ` ` ` ` ` ` ` ` ` ` ` ` ` ` ` ` ` ` ` ` ` ` ` ` ` ` ` ` ` ` ` ` ` ` ` ` ` ` ` ` ` _ _ _ _ _ ` ` ] ] ~.#X7XrXhXxXhXzXnXDXGXGXGXGXGXGXGXGXGXGXJXJXJXJXJXJXJXJXGXNXbXCXGXSXGXGXGXGXGXGXGXGXJXJXJXJXJXJXJXJXJXJXJXJXJXJXJXJXJXJXJXJXJXJXJXJXJXJXJXJXJXJXJXJXJXJXAXGXGXGXDXnXcXhXhXbXDXGXJXGXGXGXGXGXGXGXGXGXGXGXJXFXSXSXSXSXSXSXSXSXSXSXSXSXSXSXJXJXJXJXGXJXGXGXJXJXJXJXJXJXJXJXJXJXJXJXJXJXJXJXJXJXJXJXJXJXJXJXJXJXJXJXJXJXJXJXJXJXJXJXJXJXJXJXJXJXJXJXJXJXJXJXGXSXSXSXSXSXSXGXAXGXKXGXDXnXnXCXGXGXGXGXGXGXGXGXJXJXJXJXJXJXJXJXJXJXJXGXGXGXAXDXbXxXxXbXDXGXGXGXGXGXJXJXJXJXJXJXJXJXJXJXGXDXbXxXrXhXxXxXrXrXcXnXSXGXJXGXGXGXSXDXnXcXxXxXvXvXdXyXS.k.c < < $ $ $ < 7 k k x x x x d 7 t f z l v l v v v v v v k l v v v l l l l l h y r u r y j l l l l l l l l l l l j j l j j j j j j j j h h h y y y y p h j j j j h h j h h h h h h h h h h h f f y r r r r y 7 8 m q U U J J H H H H J J J J J J J J J J J L L H P R ~.!.I.I.!.I.R.U.U.U.I.I.T.T.T.T.T.T.T.T.T.T.T.T.T.T.U.U.T.T.T.T.T.T.U.U.T.T.P.P.U.E.].{.oXoX XXXXXXXXX XXXXX X X X XXXXXXXXX X X XXXXXXXXXXXXXXXXXXXXXXXXXXXXXXXXXXXXXXXXX XXXXXXXXXXXXXXX X X XXXXXXX",
", ..>X6X,X,X,X3X<X3X3X3X1X1X<X3X1X1X1X1X1X1X1X1X1X1X1X1X1X1X1X<X2X4X-./ _ o.o.` ` ` ` ` ` ` ` ` ` ` ` ` ` ` ` ` ` ` ` ` ` ` ` ` ` ` ` ` ` ` ` ` ` ` ` ` ` ` ` ` ` ` ` ` ` ` ` ` ` ` ` ` ` ` ` ` ` ` ` _ _ _ _ _ ` ` ] ] ~.#X7XrXhXxXzXzXnXSXGXGXGXGXGXGXGXGXGXGXJXJXJXJXJXJXJXJXJXNXbXNXAXSXJXJXGXGXGXGXGXGXJXJXJXJXJXJXJXJXJXJXJXJXJXJXJXJXJXJXJXJXJXJXJXJXJXJXJXJXJXJXJXJXJXJXSXSXSXGXAXCXbXhXhXcXNXSXJXGXGXGXGXGXGXGXGXGXGXGXJXFXFXFXSXSXSXSXFXFXFXFXSXSXSXSXSXSXSXSXGXGXGXGXJXJXJXJXJXJXJXJXJXJXJXJXJXJXJXJXJXJXJXJXJXJXJXJXJXJXJXJXJXJXJXJXJXJXJXJXJXJXJXJXJXJXJXJXJXJXJXJXGXGXSXSXSXSXJXGXAXJXJXGXAXDXCXAXGXGXGXGXGXGXGXGXJXJXJXJXJXJXJXJXJXJXJXGXGXJXGXAXnXbXhXxXnXCXAXGXGXGXGXGXJXJXJXJXJXJXJXJXSXCXbXhXrXhXhXhXrXhXbXDXGXGXGXGXGXGXJXGXAXbXxXxXxXsXsXdXyXS.c < - $ $ - 7 f x x x b b b f d d f l b b 6.6.6.6.v v v k k v v v l l l l l h h y r r h j l l l l l l l l l l l l j j j j j j j j j h h h h y y y p h h j j j j j h j h h h h h h h h h h h f f y r r r r u 8 8 8 q U K J J H H H H J J J J J J J J H J J L L H P R ~.!.I.I.R.R.T.T.T.T.I.I.T.T.T.T.T.T.T.T.T.T.T.T.T.T.U.U.T.T.T.T.U.U.U.U.U.U.U.R.Q.].{.OX|. XXXXXXXXX X|.XXXXXX X XXXXXXXXXXXXXXXXXXXXXXXXXXXXXXXXXXXXXXXXXXXXXXXXXXXXXXXXXXXXXXXXXXXXXXXXXXX X X X XXX",
"( ;X6X6X3X,X,X3X<X3X3X3X1X1X1X3X1X1X1X1X1X1X1X1X1X1X1X1X1X1X1X<X2X4X-./ _ o.o.T ` ` ` ` ` ` ` ` ` ` ` ` ` ` ` ` ` ` ` ` ` ` ` ` ` ` ` ` ` ` ` ` ` ` ` ` ` ` ` ` ` ` ` ` ` ` ` ` ` ` ` ` ` ` ` ` ` ` ` _ _ _ _ _ ` ` ] ] ~.#X7XrXzXxXzXzXnXSXGXGXGXGXGXGXGXGXGXGXJXJXJXJXJXJXJXJXJXNXcXnXAXSXJXJXGXGXGXGXGXGXJXJXJXJXJXJXJXJXJXJXJXJXJXJXJXJXJXJXJXJXJXJXJXJXJXJXJXJXJXJXJXJXJXJXGXSXAXAXSXDXnXcXxXxXnXDXGXGXGXGXGXGXGXGXGXGXGXGXJXFXSXSXSXSXSXSXFXFXFXFXSXSXSXSXJXJXJXJXJXJXJXJXJXJXJXJXJXJXJXJXJXJXJXJXJXJXJXJXJXJXJXJXJXJXJXJXJXJXJXJXJXJXJXJXJXJXJXJXJXJXJXJXJXJXJXJXJXJXJXJXJXJXJXJXJXJXJXJXGXJXJXGXGXAXAXGXGXGXGXGXGXGXGXGXJXJXJXJXJXJXJXJXGXJXJXGXGXJXJXSXAXnXxXhXxXbXCXAXSXSXGXGXGXJXJXJXJXJXJXGXDXnXcXhXhXhXhXrXhXcXNXGXGXGXGXGXGXGXJXJXGXNXvXxXxXxXsXdXdX'.Z < $ $ $ < 0 c x k k x b b f d f k b b b 6.v v v v v v k k v v v v l l l l j f y r y h j l l l l l l l l l l l l l j j j j j j j j h h h h y y p h h j j j j j j j j j j j h h h h j j j h h h y r r w w u 7 7 8 q V K K J K H H H J J J J J J P J H J J H H H K R ~.Q.I.I.R.R.T.T.T.T.I.I.T.T.T.T.T.T.T.T.T.T.T.T.T.T.U.U.T.T.T.T.T.T.U.U.U.R.R.W.].}.oX.X.XXXXXXXXXXX X|.XXXXXXXX XXXXXXXXXXXXXXXXXXXXXXXXXXXXXXXXXXXXXXXXXXXXXXXXXXXXXXXXXXXXXXXXXXXXXXXXXXXXXXXXX XXX",
"..>X6X,X,X,X,X3X<X3X3X1X1X1X1X3X1X1X1X1X1X1X1X1X1X1X1X1X1X1X1X<X2X4X-./ _ o.o.T ` ` ` ` ` ` ` ` ` ` ` ` ` ` ` ` ` ` ` ` ` ` ` ` ` ` ` ` ` ` ` ` ` ` ` ` ` ` ` ` ` ` ` ` ` ` ` ` ` ` ` ` ` ` ` ` ` ` ` _ _ _ _ _ ` ` ]  .(.#X7XrXzXxXrXxXnXSXGXGXGXGXGXGXGXGXGXGXJXJXJXJXJXJXJXJXJXnXcXnXDXSXJXJXGXGXGXGXGXGXJXJXJXJXJXJXJXJXJXJXJXJXJXJXJXJXJXJXJXJXJXJXJXJXJXJXJXJXJXJXJXJXJXJXGXGXGXAXAXAXCXnXcXhXbXCXGXGXJXGXGXGXGXGXGXGXGXGXGXGXGXGXSXSXGXGXGXGXJXGXGXGXGXGXJXJXJXJXJXJXJXJXJXJXJXJXJXJXJXJXJXJXJXJXJXJXJXJXJXJXJXJXJXJXJXJXJXJXJXJXJXJXJXJXJXJXJXJXJXJXJXJXJXJXJXJXJXJXJXJXJXJXJXJXJXJXJXJXGXJXJXGXJXJXGXJXGXGXGXGXGXGXGXGXJXJXJXJXJXJXJXJXGXJXJXGXGXGXGXSXGXCXbXxXhXxXbXnXAXAXAXSXGXGXGXGXGXJXGXDXnXbXxXhXhXxXhXrXxXnXAXGXGXGXGXGXGXGXGXKXHXAXNXvXxXxXsXtXdXOXZ - $ o $ < 0 c x c k k b b f f f f f f f j y f h j l l k k v v v v v l l l j h y r y h l l l l l l l l l l l l l l l j j j l j j j h h h h p p h h h j j j j j j j j h j h h h h j j j h h h h p r r r w w u 7 8 q V V K J H H H H J J J H H J J J J J J H H H P R (.Q.I.I.R.R.T.T.T.T.I.I.T.T.T.T.T.T.T.T.T.T.T.T.T.T.U.U.T.T.T.T.U.U.U.U.R.R.Q.{.}.|.|..X.XXXXXXXXXXXXXXXXXXXXXXX X XXXXXXXXXXXXXXXXXXXXXXXXXXXXXXXXXXXXXXXXXXXXXXXXXXXXXXXXXXXXXXXXX X XXXXXXXXXXXXXXX",
">.5X5X,X3X,X,X3X<X3X3X1X1X1X1X3X1X1X1X1X1X1X1X1X1X1X1X1X1X1X1X<X2X4X-./ ' o.o.T ` ` ` ` ` ` ` ` ` ` ` ` ` ` ` ` ` ` ` ` ` ` ` ` ` ` ` ` ` ` ` ` ` ` ` ` ` ` ` ` ` ` ` ` ` ` ` ` ` ` ` ` ` ` ` ` ` ` ` _ _ _ _ _ ` ` ]  .(.#X7XrXzXxXsXxXnXSXGXGXGXGXGXGXGXGXGXGXJXJXJXJXJXJXJXJXJXnXcXnXDXAXJXJXGXGXGXGXGXGXJXJXJXJXJXJXJXJXJXJXJXJXJXJXJXJXJXJXJXJXJXJXJXJXJXJXJXJXJXJXJXJXJXJXGXJXJXSXAXAXAXDXbXhXcXCXSXGXJXGXGXGXGXGXGXGXGXGXSXGXSXSXSXGXGXGXGXGXGXGXGXGXGXSXJXJXJXJXJXJXJXJXJXJXJXJXJXJXJXJXJXJXJXJXJXJXJXJXJXJXJXJXJXJXJXJXJXJXJXJXJXJXJXJXJXJXJXJXJXJXJXJXJXJXJXJXJXJXJXJXJXJXJXJXJXJXJXJXJXKXJXGXJXJXGXGXGXGXGXGXGXGXGXGXJXJXJXJXJXJXJXJXGXJXJXGXGXGXGXAXAXCXnXbXxXhXxXbXDXAXAXAXSXGXGXGXSXGXSXCXbXxXhXhXhXxXxXhXcXCXGXGXGXSXGXJXJXGXGXGXHXHXDXnXvXsXtXtXfXOXA - o o $ 0 c c x c f k b k f f d d 7 < < 7 7 t w y f k k k v v v v v l l l j h y y y h z l l l l l l l l l l l l l l j j j l j j j h h h h p p h h j j j j j j j j j h h h h h h j j j h h h h p r r r w w u 7 8 m V V K J J H H H J J J H H J J J P J J H L H P R (.Q.I.I.R.R.T.T.T.T.I.P.T.T.T.T.T.T.T.T.T.T.T.T.T.T.U.U.T.T.T.T.U.U.U.U.E.W.^.{.|..X.X.XXXXXXXXXXXXXXXXXXXXXXXXXXX XXXXXXXXXXXXXXXXXXXXXXXXXXXXXXXXXXXXXXXXXXXXXXXXXXXXX XXXXXXXXX X X XXXXXXXXXXXXXXX",
"5X5X5X3X3X1X3X3X<X3X1X1X1X1X1X1X1X1X1X1X1X1X1X1X1X1X1X1X1X1X1X<X2X>X-.' ' ` o.` o.o.` ` ` ` ` ` ` ` ` ` ` ` ` ` ` ` ` ` ` ` ` ` ` ` ` ` ` ` ` ` ` ` ` ` ` ` ` ` ` ` ` ` ` ` ` ` ` ` ` ` ` ` ` ` ` ` ` _ _ _ _ _ ` ] ]  .+X#X7XrXrXzXrXxXnXGXJXGXGXGXGXGXGXGXGXGXJXJXJXJXJXJXJXJXGXnXcXbXCXSXJXJXJXJXJXJXJXJXJXJXJXJXJXJXJXJXJXJXJXJXJXJXJXJXJXJXJXJXJXJXJXJXJXJXJXJXJXJXJXJXJXJXJXJXGXGXGXSXAXAXCXcXxXnXDXJXJXGXJXJXJXJXJXJXJXJXJXJXJXJXJXJXJXJXJXJXJXJXJXJXJXJXJXJXJXJXJXJXJXJXJXJXJXJXJXJXJXJXJXJXJXJXJXJXJXJXJXJXJXJXJXJXJXJXJXJXJXJXJXJXJXJXJXJXJXJXJXJXJXJXJXJXJXJXJXJXJXJXJXJXJXJXJXJXJXJXJXJXJXJXJXJXJXJXJXJXJXJXJXJXJXJXJXJXJXJXJXJXJXJXJXJXJXJXJXJXJXJXJXJXSXNXcXhXhXxXbXnXNXDXGXJXJXGXGXSXCXbXxXxXxXxXxXrXrXcXCXGXJXGXSXSXGXSXGXHXHXHXKXHXHXNXbXxXrXsXrX{.S $ . o $ 0 c c c f f f k f d 7 7 < < < < < < < 7 t y f k l b v v v b v l l h h y y h z l l l l l l l l l l l l l l l l l l l l l j h p p p h j j j j j j j j j j j j j h h h h h h h h h h h h h p r r w w u 8 8 m q V U J J H H H J J J J J J J J J J J H H P P { (.Q.P.I.R.R.T.P.P.P.P.P.T.T.T.U.T.T.T.T.T.T.T.T.T.T.T.T.T.U.P.P.U.U.R.!.^.{.}.|.|.|..X.XXXXXXXXX XXXXXXXXXXXXXXXXXXXXXXXXXXXXXXXXXXXXXXXXXXXXXXXXXXXXXXXXXXXXXXXXXXXXXXXXXXXXXXXXXXXXX XXXXXXXXX X XXX",
"5X5X3X3X1X1X1X3X<X3X3X1X1X1X1X1X1X1X1X1X1X1X1X1X1X1X1X1X1X1X1X<X2X;.-.) ' ` ` ` o.o.` ` ` ` ` ` ` ` ` ` ` ` ` ` ` ` ` ` ` ` ` ` ` ` ` ` ` ` ` ` ` ` ` ` ` ` ` ` ` ` ` ` ` ` ` ` ` ` ` ` ` ` ` ` ` ` ` _ _ _ _ _ ` ] ]  .+X#X7XrXrXzXrXxXnXGXJXGXGXGXGXGXGXGXGXGXJXJXJXJXJXJXJXJXGXnXcXbXNXGXJXJXJXJXJXJXJXJXJXJXJXJXJXJXJXJXJXJXJXJXJXJXJXJXJXJXJXJXJXJXJXJXJXJXJXJXJXJXJXJXJXJXJXJXGXGXGXSXAXAXDXbXcXnXDXGXJXGXJXJXJXJXJXJXJXJXJXJXJXJXJXJXJXJXJXJXJXJXJXJXJXJXJXJXJXJXJXJXJXJXJXJXJXJXJXJXJXJXJXJXJXJXJXJXJXJXJXJXJXJXJXJXJXJXJXJXJXJXJXJXJXJXJXJXJXJXJXJXJXJXJXJXJXJXJXJXJXJXJXJXJXJXJXJXJXJXJXJXJXJXJXJXJXJXJXJXJXJXJXJXJXJXJXJXJXJXJXJXJXJXJXJXJXJXJXJXJXJXSXGXGXDXnXbXhXrXxXcXbXnXNXCXDXDXDXDXNXbXxXhXhXhXhXhXxXbXCXGXJXGXSXSXGXGXGXHXHXHXHXHXHXAXNXvXxXrXzX_.B o o o - 0 c c c c k k f 7 < < < - < < < < 7 7 t u f l v v b v v v b v l l h f y y h z l v l l l l l l l l l l l l l l l l l l l j h p p p j j j j j j j j j j j j j j j h h h h h h h h h h h h p y r r w u 8 8 m q V U J J J H H J J J J J J J J J J J J H P P { (.Q.P.I.R.R.T.P.P.P.P.P.T.T.T.U.T.T.T.T.T.T.T.T.T.T.T.T.T.T.U.U.U.U.R.W.{.{.OX|..X.X.XXXXXXXXXXX X XXXXXXXXXXXXX X XXXXXXXXXXXXXXXXXXXXXXXXXXXXXXXXXXXXXXXXXXXXXXXXXXXXXXXXXXXXXXXXXXXXXXXXXXXXX X XXX",
"5X5X3X3X1X1X1X3X<X3X3X1X1X1X1X1X1X1X1X1X1X1X1X1X1X1X1X1X1X1X1X<X2X;.-.) ' ` ` ` o.o.` ` ` ` ` ` ` ` ` ` ` ` ` ` ` ` ` ` ` ` ` ` ` ` ` ` ` ` ` ` ` ` ` ` ` ` ` ` ` ` ` ` ` ` ` ` ` ` ` ` ` ` ` ` ` ` ` ` _ _ _ _ ` ` ]  .+X7X7XhXrXzXrXxXnXGXJXGXGXGXGXGXGXGXGXGXJXJXJXJXJXJXJXJXJXnXxXcXNXGXJXGXJXJXJXJXJXJXJXJXJXJXJXJXJXJXJXJXJXJXJXJXJXJXJXJXJXJXJXJXJXJXJXJXJXJXJXJXJXJXJXJXJXJXGXGXGXGXSXAXAXNXbXbXCXGXGXGXJXJXJXJXJXJXJXJXJXJXJXJXJXJXJXJXJXJXJXJXJXJXJXJXJXJXJXJXJXJXJXJXJXJXJXJXJXJXJXJXJXJXJXJXJXJXJXJXJXJXJXJXJXJXJXJXJXJXJXJXJXJXJXJXJXJXJXJXJXJXJXJXJXJXJXJXJXJXJXJXJXJXJXJXJXJXJXJXJXJXJXJXJXJXJXJXJXJXJXJXJXJXJXJXJXJXJXJXJXJXJXJXJXJXJXJXJXJXJXJXSXGXGXJXAXNXbXhXhXhXhXxXcXbXbXbXnXnXbXcXhXhXhXhXrXhXbXnXAXGXGXSXSXSXGXGXGXHXKXKXHXHXHXHXNXbXxXrXhXH.= . o o - c c c c c b c 0 < $ $ $ $ < < s s t t f f k k v b b v v v b v l l f y y f j l l v l l l l l l l l l l l l l l l l l l j h p y p h j j j j j j j j j j j j j j j j j j j j j j j j h h h p r r r u u 8 8 m q V K J J H H H J J J J J J H H J H H J H P P { (.Q.P.T.R.T.T.T.T.P.P.P.T.T.T.T.T.T.T.T.T.T.T.T.T.T.T.T.U.R.R.R.U.R.Q.{.}.oX|..X.X.XXX X X XXXXX X XXXXX X XXXXX X XXXXXXXXXXXXXXXXXXXXXXXXXXXXXXXXXXXXXXXXXXXXXXXXXXXXXXXXXXXXXXXXXXXXXXX XXXXX XXXXX",
"5X3X3X1X1X1X1X1X<X3X3X1X1X1X1X1X1X1X1X1X1X1X1X1X1X1X1X1X1X1X1X<X2X;.&.) ` ` ` ` o.o.` ` ` ` ` ` ` ` ` ` ` ` ` ` ` ` ` ` ` ` ` ` ` ` ` ` ` ` ` ` ` ` ` ` ` ` ` ` ` ` ` ` ` ` ` ` ` ` ` ` ` ` ` ` ` ` ` ` _ _ _ _ ` ` ] ] +X7X7XrXrXzXrXxXnXGXJXGXGXGXGXGXGXGXGXGXJXJXJXJXJXJXJXJXJXnXxXxXnXSXJXGXJXJXJXJXJXJXJXJXJXJXJXJXJXJXJXJXJXJXJXJXJXJXJXJXJXJXJXJXJXJXJXJXJXJXJXJXJXJXJXJXJXJXGXGXGXGXGXSXGXDXnXbXCXSXGXGXJXJXJXJXJXJXJXJXJXJXJXJXJXJXJXJXJXJXJXJXJXJXJXJXJXJXJXJXJXJXJXJXJXJXJXJXJXJXJXJXJXJXJXJXJXJXJXJXJXJXJXJXJXJXJXJXJXJXJXJXJXJXJXJXJXJXJXJXJXJXJXJXJXJXJXJXJXJXJXJXJXJXJXJXJXJXJXJXJXJXJXJXJXJXJXJXJXJXJXJXJXJXJXJXJXJXJXJXJXJXJXJXJXJXJXJXJXJXJXJXJXGXGXJXGXAXNXnXcXcXxXhXhXhXxXxXcXcXcXxXhXhXxXxXXXcXnXDXGXGXGXAXSXSXGXGXJXHXKXKXKXHXHXHXCXnXcXrXXXS O . o o - C c c c x c 0 < $ $ $ $ < < 7 f f k k k x v b v v b b v v b v l z f y y f j l l v v v l l l l l l l l l l l l l l 5.l j h y y p h j j j j j j j j j j j j j j j j j j j j j j j j h h h h r r r u w 8 8 0 q V U J J H H H J J J J J H H H H H J J H J P { (.Q.P.T.R.R.T.T.T.U.P.T.T.T.T.T.T.T.T.T.T.T.T.T.T.T.T.T.U.U.R.R.E.W.{.OX|.|. X.X.X.X XXXXX X X XXXXXXXXX X X XXX XXXXXXXXXXXXXXXXXXXXXXXXXXXXXXXXXXXXXXXXXXXXXXXXXXXXXXXXXXXXXXXXXXXXXXX X XXXXXXXXXXX",
"3X3X3X1X1X1X1X1X3X3X3X1X1X1X1X1X1X1X1X1X1X1X1X1X1X1X1X1X1X1X1X<X2X;.&.) ` ` ` ` ` ` ` ` ` ` ` ` ` ` ` ` ` ` ` ` ` ` ` ` ` ` ` ` ` ` ` ` ` ` ` ` ` ` ` ` ` ` ` ` ` ` ` ` ` ` ` ` ` ` ` ` ` ` ` ` ` ` ` ` ` _ _ _ _ ` ]  .+X#X@XrXrXzXhXxXnXGXJXGXGXGXGXGXGXGXGXGXJXJXJXJXJXJXJXJXJXnXxXxXnXAXJXGXJXJXJXJXJXJXJXJXJXJXJXJXJXJXJXJXJXJXJXJXJXJXJXJXJXJXJXJXJXJXJXJXJXJXJXJXJXJXJXJXJXJXGXGXGXGXGXGXGXGXCXnXCXSXGXJXJXJXJXJXJXJXJXJXJXJXJXJXJXJXJXJXJXJXJXJXJXJXJXJXJXJXJXJXJXJXJXJXJXJXJXJXJXJXJXJXJXJXJXJXJXJXJXJXJXJXJXJXJXJXJXJXJXJXJXJXJXJXJXJXJXJXJXJXJXJXJXJXJXJXJXJXJXJXJXJXJXJXJXJXJXJXJXJXJXJXJXJXJXJXJXJXJXJXJXJXJXJXJXJXJXJXJXJXJXJXJXJXJXJXJXJXJXJXJXJXJXJXGXGXGXGXGXAXCXnXnXbXcXcXcXbXcXxXhXhXhXhXhXxXhXbXCXGXJXJXSXAXSXSXGXGXHXHXHXKXKXHXCXCXCXNXbXcXzXS o . o - B C C c C c 0 < - $ $ $ < 9 d k b v b b b b b b b v b b v v b v l j y y y h j l v v v v v l l l l l l l l l l l l l v l h p y p h h j j j j j j j j j j j j j j j j j j j j j j j j h h h h r r r r w u 8 0 q V U J J H H H J J J J J J J H J J J J H J U { (.!.P.I.R.R.T.T.T.T.T.T.T.T.T.T.T.T.T.T.T.T.T.T.T.T.T.T.U.U.R.Q.^.{.OX|. X|.|.|. X XXXXX XXXXXXXXX XXXXXXXXXXXXX X XXXXXXXXXXXXXXXXXXXXXXXXXXXXXXXXXXXXXXXXXXXXXXXXXXXXXXXXXXXXXXXXX X X XXXXXXXXXXXXX",
"3X3X1X1X1X1X1X1X<X3X3X1X1X1X1X1X1X1X1X1X1X1X1X1X1X1X1X1X1X1X1X<X2X;.&.) ` ` ` ` ` ` ` ` ` ` ` ` ` ` ` ` ` ` ` ` ` ` ` ` ` ` ` ` ` ` ` ` ` ` ` ` ` ` ` ` ` ` ` ` ` ` ` ` ` ` ` ` ` ` ` ` ` ` ` ` ` ` ` ` _ _ _ _ _ ` ]  .+X#X@XrXrXzXhXxXnXGXJXGXGXGXGXGXGXGXGXGXJXJXJXJXJXJXJXJXJXNXcXhXbXDXJXGXJXJXJXJXJXJXJXJXJXJXJXJXJXJXJXJXJXJXJXJXJXJXJXJXJXJXJXJXJXJXJXJXJXJXJXJXJXJXJXJXJXJXJXGXGXGXGXGXSXGXDXCXCXAXGXJXJXJXJXJXJXJXJXJXJXJXJXJXJXJXJXJXJXJXJXJXJXJXJXJXJXJXJXJXJXJXJXJXJXJXJXJXJXJXJXJXJXJXJXJXJXJXJXJXJXJXJXJXJXJXJXJXJXJXJXJXJXJXJXJXJXJXJXJXJXJXJXJXJXJXJXJXJXJXJXJXJXJXJXJXJXJXJXJXJXJXJXJXJXJXJXJXJXJXJXJXJXJXJXJXJXJXJXJXJXJXJXJXJXJXJXJXJXJXJXJXGXGXJXJXJXJXJXJXGXSXDXCXCXNXNXCXbXcXhXhXhXrXhXhXbXnXDXJXJXGXAXSXJXFXGXHXHXHXHXHXCXCXCXCXCXCXbXcX%XB X   o 0 l.A C c c 0 < - $ $ $ - < 0 f x b b b b b b b b b b b 6.v v b v l j r r y h j v v v v v v v l l l l l l l l l l l l l j h y y h h j l l l l j j j j j j j j j j j j j j j j j j j j h h h h r r r r w u 8 8 q V K J J H H H J J H J J J H H P J P H H P U { (.!.P.I.R.R.T.T.T.T.T.T.T.T.T.T.T.T.T.T.T.T.T.T.T.T.T.T.T.R.Q.].{.oX|.|. X|.|.|. XXX X XXXXXXXXX X XXXXXXXXXXXXX X XXXXXXXXXXXXXXXXXXXXXXXXXXXXXXXXXXXXXXXXXXXXXXXXXXXXXXXXXXXXXXXXXXX X XXXXXXXXXXXXX",
"3X3X1X1X1X1X1X1X<X3X3X1X1X1X1X1X1X1X1X1X1X1X1X1X1X1X1X1X1X1X1X<X2X;.[ ) ` ` ` ` ` ` ` ` ` ` ` ` ` ` ` ` ` ` ` ` ` ` ` ` ` ` ` ` ` ` ` ` ` ` ` ` ` ` ` ` ` ` ` ` ` ` ` ` ` ` ` ` ` ` ` ` ` ` ` ` ` ` ` ` _ _ _ _ ' ` ]  .+X#X@XrXrXzXzXxXnXGXJXGXGXGXGXGXGXGXGXGXJXJXJXJXJXJXJXJXGXNXcXhXbXDXJXJXJXJXJXJXJXJXJXJXJXJXJXJXJXJXJXJXJXJXJXJXJXJXJXJXJXJXJXJXJXJXJXJXJXJXJXJXJXJXJXJXJXJXJXGXGXGXGXGXSXGXGXAXDXAXGXGXJXJXJXJXJXJXJXJXJXJXJXJXJXJXJXJXJXJXJXJXJXJXJXJXJXJXJXJXJXJXJXJXJXJXJXJXJXJXJXJXJXJXJXJXJXJXJXJXJXJXJXJXJXJXJXJXJXJXJXJXJXJXJXJXJXJXJXJXJXJXJXJXJXJXJXJXJXJXJXJXJXJXJXJXJXJXJXJXJXJXJXJXJXJXJXJXJXJXJXJXJXJXJXJXJXJXJXJXJXJXJXJXJXJXJXJXJXJXJXJXGXGXJXJXJXJXJXGXJXJXGXGXSXAXAXAXbXcXhXhXhXhXhXxXnXCXAXGXGXSXGXGXJXFXHXAXAXAXCXCXCXCXCXbX.X].P.^ A = O   o C _.Y.C c 0 < - $ $ $ $ < 7 0 k x b b b b b b b b b b 6.6.b b v v l j r r y h z l v v 5.v v v v v l l l l l l l l l l j h p y p h j j l l l l l j j j j j j j j j j j j j j j j j j j h h h h r r r r w u 8 8 q q K J J H H H J H H H J J J J P P J H K P U { (.!.I.R.R.E.R.T.T.T.U.T.T.T.T.T.T.T.T.T.T.T.T.T.T.T.T.T.T.E.].}.oX.X|.|..X.X X X XXXXX|.XXXXXXXX XXXXXXXXXXXXXXX XXXXXXXXXXXXXXXXXXXXXXXXXXXXXXXXXXXXXXXXXXXXXXXXXXXXXXXXXXXXXXXXXXX X XXXXXXXXXXXXXXX",
"3X3X1X1X1X1X1X1X3X3X1X1X1X1X1X1X1X1X1X1X1X1X1X1X1X1X1X1X1X1X1X<X4X;.[ ) ` ` T ` ` ` ` ` ` ` ` ` ` ` ` ` ` ` ` ` ` ` ` ` ` ` ` ` ` ` ` ` ` ` ` ` ` ` ` ` ` ` ` ` ` ` ` ` ` ` ` ` ` ` ` ` ` ` ` ` ` ` ` ` _ _ _ _ ' ` ]  .$X#X@XrXrXzXhXxXnXGXJXGXGXGXGXGXGXGXGXGXJXJXJXJXJXJXJXJXGXNXcXhXcXCXGXJXJXJXJXJXJXJXJXJXJXJXJXJXJXJXJXJXJXJXJXJXJXJXJXJXJXJXJXJXJXJXJXJXJXJXJXJXJXJXJXJXJXJXJXGXGXGXGXGXGXSXJXJXDXDXGXAXJXJXJXJXJXJXJXJXJXJXJXJXJXJXJXJXJXJXJXJXJXJXJXJXJXJXJXJXJXJXJXJXJXJXJXJXJXJXJXJXJXJXJXJXJXJXJXJXJXJXJXJXJXJXJXJXJXJXJXJXJXJXJXJXJXJXJXJXJXJXJXJXJXJXJXJXJXJXJXJXJXJXJXJXJXJXJXJXJXJXJXJXJXJXJXJXJXJXJXJXJXJXJXJXJXJXJXJXJXJXJXJXJXJXJXJXJXJXJXJXJXJXGXJXJXJXGXAXGXGXJXGXGXAXAXDXbXxXhXhXhXxXxXbXCXDXSXGXSXAXGXJXJXHXHXAXCXZXCXZXCXbX.XP.B = O O - O O X . C {.'.Z 0 < - $ $ $ $ - < 0 k x b b b b b b b b k k v 6.6.5.v v v l j r r y h z v v v 5.5.v v v v l l l l l l l l l l h h y y h j j j l l l l l j j j j j j j j j j j j j j j j j j j h h h h r r r r w u 8 8 q q K J J H J H J H H H J J J J J J J J H P U { (.Q.I.R.E.E.R.T.T.T.T.T.T.T.T.T.T.T.T.T.T.T.T.T.T.T.T.T.T.W.{.|..X|.|.|.%XXX XXXXXXX X|.XXXXXXXX XXXXXXXXXXXXXXXXXXXXXXXXXXXXXXXXXXXXXXXXXXXXXXXXXXXXXXXXXXXXXXXXXXXXXXXXXXXXXXXXXXXXXXXXXXXXXXXXXXXXX",
"3X3X3X1X1X1X1X1X1X1X1X1X1X1X1X1X1X1X1X1X<X<X<X<X1X1X3X3X2X2X<X4X4X;.&.) ` o.T o.o.o.o.` ` ` _ ` ` ` ` ` ` ` ` ` ` ` ` ` ` ` ` ` ` ` ` ` ` ` ` ` ` ` ` ` ` ` ` ` ` ` ` ` ` ` ` ` ` ` ` ` ` ` ` ` ` ` ` ` ` ` ` ` ` ] ] ] +X8X7XhXhXzXrXxXnXGXJXGXGXGXGXGXJXJXJXJXJXJXJXJXJXJXJXJXGXNXcXhXcXNXSXJXGXGXGXGXGXGXJXJXJXJXJXJXJXJXJXJXJXJXJXJXJXJXJXJXJXJXJXJXJXJXJXJXJXJXJXJXJXJXJXJXJXJXJXJXJXJXJXJXGXGXGXGXGXGXGXGXJXJXJXJXJXJXJXJXJXJXJXJXJXJXJXJXJXJXJXJXJXJXJXJXJXJXJXJXJXJXJXJXJXJXJXJXJXJXJXJXJXJXJXJXJXJXJXJXJXJXJXJXJXJXJXJXJXJXJXJXJXJXJXJXJXJXJXJXJXJXJXJXJXJXJXJXJXJXJXJXJXJXJXJXJXJXJXJXJXJXJXJXJXJXJXJXJXJXJXJXJXJXJXJXJXJXJXJXJXJXJXJXJXJXJXJXJXJXJXJXJXJXJXJXJXJXJXJXGXGXJXJXGXGXAXnXxXzXhXhXhXhXbXNXAXAXAXAXSXGXGXJXHXZXCXZXVXVXVXZXnX].B - o     . . o O X o * A.rXY.0 - $ $ $ - - < 7 f k k x b b b b b b x b b b 6.6.v v v v z f r y h j l v v v v v v v v v v v 5.v l l l l l j y r p h j l l j l l l l l l l l l j j j j j j j j j j j j j j j z j h f r r r r w u 8 9 q q U K J J J J J J J J J J J J J J J J P P Y { (.Q.I.T.R.R.R.T.R.T.T.T.T.T.T.T.T.T.T.T.P.T.T.T.P.T.E.^.{.{.OX X.X.X.X|. X X.X.X.X.X X XXXXX X XXXXXXXXXXXXXXXXXXXXXXXXXXXXXXXXXXXXXXXXXXXXXXXXXXXXXXXXXXXXXXXXXXXXXXXXXXXXXXXXXXXXXXXXXXXXXXX X X XXX",
"3X3X3X3X1X1X1X1X1X1X1X1X1X1X1X1X1X1X1X1X<X<X<X<X1X1X1X3X2X2X<X4X4X>.[ ) ` o.T o.o.o.o.o.` ` _ ` ` ` ` ` ` ` ` ` ` ` ` ` ` ` ` ` ` ` ` ` ` ` ` ` ` ` ` ` ` ` ` ` ` ` ` ` ` ` ` ` ` ` ` ` ` ` ` ` ` ` ` ` ` ` ` ` ` ` ] ] $X8X7XhXhXzXrXzXnXGXJXGXGXGXGXGXJXJXJXJXJXJXJXJXJXJXJXJXJXCXcXhXxXnXAXGXGXGXGXGXGXGXJXJXJXJXJXJXJXJXJXJXJXJXJXJXJXJXJXJXJXJXJXJXJXJXJXJXJXJXJXJXJXJXJXJXJXJXJXJXJXJXJXJXGXGXGXGXGXGXGXGXJXJXJXJXJXJXJXJXJXJXJXJXJXJXJXJXJXJXJXJXJXJXJXJXJXJXJXJXJXJXJXJXJXJXJXJXJXJXJXJXJXJXJXJXJXJXJXJXJXJXJXJXJXJXJXJXJXJXJXJXJXJXJXJXJXJXJXJXJXJXJXJXJXJXJXJXJXJXJXJXJXJXJXJXJXJXJXJXJXJXJXJXJXJXJXJXJXJXJXJXJXJXJXJXJXJXJXJXJXJXJXJXJXJXJXJXJXJXJXJXJXJXJXJXJXJXJXJXJXGXJXJXGXGXDXnXxXzXrXrXhXcXnXCXAXSXSXGXGXGXJXHXKXHXCXZXVXVXVXbXR.B O     . X o . . o o . O B Y.A.1 $ o $ - < < 7 d k x b b b b b b b b b b b b b 6.6.b 6.b z y r y h j l v b 6.v v v v v v v v 5.v l l l l j j r r p h j l l j l l l l l l l l l j j j j j j j j j j j j j j j z z h f r r r w w 8 8 9 q q U K J J J J J J J J J J J J J J J H P P Y !.(.Q.I.I.R.R.R.T.T.T.T.T.T.T.T.T.T.T.T.T.T.T.T.T.T.E.].].}.OX|..X%X.X.X|. X X.X.X.X.X X XXX X XXXXXXXXX XXXXXXX XXXXXXXXXXXXXXXXXXXXXXXXXXXXXXXXXXXXXXXXXXXXXXXXXXXXXXXXXXXXXXXXXXXXX XXXXXXXXXXX X XXX",
"3X3X3X3X3X1X1X1X1X1X1X1X1X1X1X1X1X1X1X1X<X<X<X<X1X3X3X3X3X2X<X4X4X>.[ ) ` o.` ` o.o.` ` ` ` ` ` ` ` ` ` ` ` ` ` ` ` ` ` ` ` ` ` ` ` ` ` ` ` ` ` ` ` ` ` ` ` ` ` ` ` ` ` ` ` ` ` ` ` ` ` ` ` ` ` ` ` ` ` ` ` ` ` ` ` ] ] $X#X7XhXhXzXrXzXnXGXJXGXGXGXGXGXGXGXGXJXJXJXJXJXJXJXJXJXJXDXbXhXxXnXDXGXGXGXGXGXGXGXJXJXJXJXJXJXJXJXJXJXJXJXJXJXJXJXJXJXJXJXJXJXJXJXJXJXJXJXJXJXJXJXJXJXJXJXJXJXJXJXJXJXGXGXGXGXGXGXGXGXJXJXJXJXJXJXJXJXJXJXJXJXJXJXJXJXJXJXJXJXJXJXJXJXJXJXJXJXJXJXJXJXJXJXJXJXJXJXJXJXJXJXJXJXJXJXJXJXJXJXJXJXJXJXJXJXJXJXJXJXJXJXJXJXJXJXJXJXJXJXJXJXJXJXJXJXJXJXJXJXJXJXJXJXJXJXJXJXJXJXJXJXJXJXJXJXJXJXJXJXJXJXJXJXJXJXJXJXJXJXJXJXJXJXJXJXJXJXJXJXJXJXJXJXJXJXJXJXJXGXJXJXJXAXNXbXxXhXrXrXxXbXCXGXHXHXGXGXGXGXJXHXHXHXCXCXVXbXnX[.N O     X .     .   . o X . - S C - O o $ < < 0 7 f x b b b b b b b x x x b b b b 6.6.6.6.b z y y f j z v b 6.6.5.5.v v v v v v 5.5.v v l l j h r y h j l l l l l l l l l l l l l l j j j j j j j j j j j j j j z z h f r r r r w 8 8 9 q q U K J J J J J J J J J J P P P P J P P P Y !.(.Q.P.T.R.T.R.T.T.T.T.T.T.T.T.T.T.T.T.T.T.T.T.R.E.].{.}..X X.X.X%X.X.X X X X.X.X.X.X.X.XXXXXXXXXXXXX X XXXXX X XXXXXXXXXXXXXXXXXXXXXXXXXXXXXXXXXXXXXXXXXXXXXXXXXXXXXXXXXXXXXXXXXXXXX X XXXXXXXXXXXXXXX",
"3X3X3X3X1X3X1X1X1X1X1X1X1X1X1X1X1X1X1X1X<X<X<X<X3X3X3X3X2X2X<X4X4X=.[ ) ` o.` ` o.` ` ` ` ` ` ` ` ` ` ` ` ` ` ` ` ` ` ` ` ` ` ` ` ` ` ` ` ` ` ` ` ` ` ` ` ` ` ` ` ` ` ` ` ` ` ` ` ` ` ` ` ` ` ` ` ` ` ` ` ` ` ` ` ` ] ] $X#X7XhXrXzXrXzXnXGXJXGXGXGXGXGXGXGXGXGXJXJXJXJXJXJXJXJXJXAXbXhXhXbXCXGXGXGXGXGXGXGXJXJXJXJXJXJXJXJXJXJXJXJXJXJXJXJXJXJXJXJXJXJXJXJXJXJXJXJXJXJXJXJXJXJXJXJXJXJXJXJXJXJXGXGXGXGXGXGXGXGXJXJXJXJXJXJXJXJXJXJXJXJXJXJXJXJXJXJXJXJXJXJXJXJXJXJXJXJXJXJXJXJXJXJXJXJXJXJXJXJXJXJXJXJXJXJXJXJXJXJXJXJXJXJXJXJXJXJXJXJXJXJXJXJXJXJXJXJXJXJXJXJXJXJXJXJXJXJXJXJXJXJXJXJXJXJXJXJXJXJXJXJXJXJXJXJXJXJXJXJXJXJXJXJXJXJXJXJXJXJXJXJXJXJXJXJXJXJXJXJXJXJXJXJXJXJXJXJXJXGXGXJXJXAXnXcXzXhXhXxXbXnXDXJXGXGXGXJXJXJXHXHXHXZXCXBXVXVXjXA O . . o X       X X X O O X O = - O O $ - < < 7 7 f x b b x b b x x b b b b b b 6.8.6.6.6.b l h y y h l l v 6.6.5.5.5.v v v v v 5.5.5.v l j h y r y h l v v l l l l l l l l l l l l l j j j j j j j j j j j j j z z h y r r r r w 8 8 9 q V U K J J J J J J J P J J P P P P P P J P Y { (.Q.P.I.T.T.R.T.T.T.T.T.T.T.T.U.T.T.T.T.P.T.R.Q.].{.OX.XXXXX.X.X.X.X.X.X.X.X.X.X.X.X.X.XXXXXXXXXXXXX X XXXXX X X XXXXXXX X XXXXXXXXXXXXXXXXXXXXXXXXXXXXXXXXXXXXXXXXXXXXXXXXXXXXXXX X X XXXXXXXXXXXXXXX",
"3X3X3X3X1X1X1X1X1X1X1X1X1X1X1X1X1X1X1X1X<X<X<X<X3X3X3X3X2X3X2X2X4X=.' ) ` o.` ` ` ` ` ` ` ` ` ` ` ` ` ` ` ` ` ` ` ` ` ` ` ` ` ` ` ` ` ` ` ` ` ` ` ` ` ` ` ` ` ` ` ` ` ` ` ` ` ` ` ` ` ` ` ` ` ` ` ` ` ` ` ` ` ` ` ` ` ] $X#X7XhXrXzXrXzXnXSXGXGXGXGXGXGXGXGXGXGXJXJXJXJXJXJXJXJXJXAXnXhXzXbXNXGXGXGXGXGXGXGXJXJXJXJXJXJXJXJXJXJXJXJXJXJXJXJXJXJXJXJXJXJXJXJXJXJXJXJXJXJXJXJXJXJXJXJXJXJXJXJXJXJXGXGXGXGXGXGXGXGXJXJXJXJXJXJXJXJXJXJXJXJXJXJXJXJXJXJXJXJXJXJXJXJXJXJXJXJXJXJXJXJXJXJXJXJXJXJXJXJXJXJXJXJXJXJXJXJXJXJXJXJXJXJXJXJXJXJXJXJXJXJXJXJXJXJXJXJXJXJXJXJXJXJXJXJXJXJXJXJXJXJXJXJXJXJXJXJXJXJXJXJXJXJXJXJXJXJXJXJXJXJXJXJXJXJXJXJXJXJXJXJXJXJXJXJXJXJXJXJXJXJXJXJXJXJXJXJXGXSXGXJXJXDXbXxXhXzXcXbXnXDXGXJXGXJXJXJXKXHXHXZXCXZXVXBXVXZXE.= X . . .     X X X o X X O X X X . . - - = 1 < 7 0 f x b x x x b k k k k b b b b b 6.6.b v v l j r y f j l v v b 5.5.5.5.5.v v v v 5.5.v l h p r r p j l 5.5.v l l l l l l l l l l l l l l j j j j j j j j j j j z j h f r r w r u 8 8 9 q V U K J J J J J J J P J J J J J J J J P P Y { (.Q.I.I.R.R.R.T.T.P.T.T.T.T.U.U.T.T.T.T.P.T.Q.].{.oXoX.X.XXX.X.X.X.XXXXX.X.X.X.X.X.X.X.XXXXXXXXXXXXXXX XXXXXXXXXXXXXXXXX X X XXXXXXXXXXXXXXXXXXXXXXXXXXXXXXXXXXXXXXXXXXXXXXXXXXXXXXXXXXX X X XXXXXXX X",
"3X3X3X3X1X1X1X1X1X1X1X1X1X1X1X1X1X1X1X1X<X<X<X<X3X3X3X3X2X2X2X4X4X=.' _ ` o.` ` ` ` ` ` ` ` ` ` ` ` ` ` ` ` ` ` ` ` ` ` ` ` ` ` ` ` ` ` ` ` ` ` ` ` ` ` ` ` ` ` ` ` ` ` ` ` ` ` ` ` ` ` ` ` ` ` ` ` ` ` ` ` ` ` _ ` ` ] $X#X7XhXrXzXrXzXnXSXGXGXGXGXGXGXGXGXGXGXJXJXJXJXJXJXJXJXGXSXnXxXxXcXnXSXGXGXGXGXGXGXJXJXJXJXJXJXJXJXJXJXJXJXJXJXJXJXJXJXJXJXJXJXJXJXJXJXJXJXJXJXJXJXJXJXJXJXJXJXJXJXJXJXJXJXJXJXJXJXJXJXJXJXJXJXJXJXJXJXJXJXJXJXJXJXJXJXJXJXJXJXJXJXJXJXJXJXJXJXJXJXJXJXJXJXJXJXJXJXJXJXJXJXJXJXJXJXJXJXJXJXJXJXJXJXJXJXJXJXJXJXJXJXJXJXJXJXJXJXJXJXJXJXJXJXJXJXJXJXJXJXJXJXJXJXJXJXJXJXJXJXJXJXJXJXJXJXJXJXJXJXJXJXJXJXJXJXJXJXJXJXJXJXJXJXJXJXJXJXJXJXJXJXJXJXJXJXJXJXSXGXGXGXGXCXbXxXzXcXnXNXDXAXGXGXHXGXKXJXHXHXAXZXVXVXVXVXVXbXS o X o X . . . .     o O O O X       . * 0 0 1 1 0 d c x b b x x x k b b b b b b b v b 6.v v v l j r y h j l l v v 5.5.5.5.5.5.v v v 5.5.l j h y y p h l v 5.v v l l l l l l l l l l l l l l l l l j j j j j j j j z j h f r r w r u 8 9 9 q V U K J J J J J J J P P J P J J J J J K P Y !.(.Q.I.I.I.R.R.T.T.T.I.I.U.U.U.U.T.T.T.T.R.Q.].{.oX.X.X.X X X X X X.XXXXX.X.X.X.X.X.X.X.XXXXXXXXXXXXXXX XXXXXXXXXXXXXXXXX X X X XXXXXXXXXXXXXXXXXXXXXXXXXXXXXXXXXXXXXXXXXXXXXXXXXXXXXXXXX XXX X XXX X X",
"3X3X3X3X1X1X1X1X1X1X1X1X1X1X1X1X3X3X1X1X<X<X<X<X1X1X3X3X2X2X3X4X4X=.) _ ` o.` ` ` ` ` ` ` ` ` ` ` ` ` ` ` ` ` ` ` ` ` ` ` ` ` ` ` ` ` ` ` ` ` ` ` ` ` ` ` ` ` ` ` ` ` ` ` ` ` ` ` ` ` ` ` ` ` ` ` ` ` ` ` ` ` ` ) ` ` ] $X#X@XzXrXzXhXxXnXSXGXGXGXGXGXGXGXGXGXGXJXJXJXJXJXJXJXJXGXJXNXxXxXcXbXDXGXGXGXGXGXGXJXJXJXJXJXJXJXJXJXJXJXJXJXJXJXJXJXJXJXJXJXJXJXJXJXJXJXJXJXJXJXJXJXJXJXJXJXJXJXJXJXJXJXJXJXJXJXJXJXJXJXJXJXJXJXJXJXJXJXJXJXJXJXJXJXJXJXJXJXJXJXJXJXJXJXJXJXJXJXJXJXJXJXJXJXJXJXJXJXJXJXJXJXJXJXJXJXJXJXJXJXJXJXJXJXJXJXJXJXJXJXJXJXJXJXJXJXJXJXJXJXJXJXJXJXJXJXJXJXJXJXJXJXJXJXJXJXJXJXJXJXJXJXJXJXJXJXJXJXJXJXJXJXJXJXJXJXJXJXJXJXJXJXJXJXJXJXJXJXJXJXJXJXJXJXJXJXJXGXGXGXGXAXnXcXxXxXbXCXDXAXGXJXGXAXHXKXKXHXHXZXCXVXVXVXVXVX[.D . . . . . .   X - B S A A 1 o     . o C l.C 0 1 0 0 c x x x k k k k k x x b x k k h l b 6.6.b l j r y h j l v v b 5.5.5.5.5.5.5.v v v v l j h p p j j l 5.v l l v l l l l l l l l l l l l l l l l l l l l l l l l z z h f y r w w u 7 9 9 q V U K K J J J J J J P P P H H H P P P P P Y ~.(.Q.I.!.!.R.T.T.T.T.I.I.U.U.U.U.U.U.U.R.W.].}.oX|.|..X.X X X.X.XXXXX.X.X.X.X X X.X.X.X.X X XXX XXXXXXXXXXXXXXXXXXXXXXXXX|. X X X XXXXXXXXXXXXXXXXXXXXXXXXXXXXXXXXXXXXXXXXXXXXXXX X XXXXXXXXXXXXXXXXX X",
"3X3X3X3X1X1X1X1X1X1X1X1X1X1X1X1X1X3X3X1X<X<X<X<X1X3X3X3X2X2X2X4X4X=.) _ ` ` ` ` ` ` ` ` ` ` ` ` ` ` ` ` ` ` ` ` ` ` ` ` ` ` ` ` ` ` ` ` ` ` ` ` ` ` ` ` ` ` ` ` ` ` ` ` ` ` ` ` ` ` ` ` ` ` ` ` ` ` ` ` ` ` ` ` ) ` ` ] $X#X@XzXXXzXhXxXnXSXGXGXGXGXGXGXGXGXGXGXJXJXJXJXJXJXJXJXGXJXCXcXxXxXbXCXGXGXGXGXGXGXJXJXJXJXJXJXJXJXJXJXJXJXJXJXJXJXJXJXJXJXJXJXJXJXJXJXJXJXJXJXJXJXJXJXJXJXJXJXJXJXJXJXJXJXJXJXJXJXJXJXJXJXJXJXJXJXJXJXJXJXJXJXJXJXJXJXJXJXJXJXJXJXJXJXJXJXJXJXJXJXJXJXJXJXJXJXJXJXJXJXJXJXJXJXJXJXJXJXJXJXJXJXJXJXJXJXJXJXJXJXJXJXJXJXJXJXJXJXJXJXJXJXJXJXJXJXJXJXJXJXJXJXJXJXJXJXJXJXJXJXJXJXJXJXJXJXJXJXJXJXJXJXJXJXJXJXJXJXJXJXJXJXJXJXJXJXJXJXJXJXJXJXJXJXJXJXJXJXGXJXJXGXDXnXxXxXcXnXDXAXSXGXJXGXAXAXHXKXHXHXCXVXVXVXVXVXBXH.= o . .   . X X * A xXnXLXDXP.-   X . O A _.l.0 1 < 0 c c x k f f d 7 7 7 7 7 7 7 < y j b 6.6.6.l h y y h z l v 6.6.5.5.5.5.5.5.5.5.v v v l h p p h j l v v l l l 5.l l l l l l l l l l l l l l l l l l l l l l l l z z h f y r w w u 7 9 9 q U U K K K J J J J J P J P H H H H H P K P R !.(.Q.I.!.R.!.T.T.T.T.T.I.U.U.U.U.U.U.R.T.].{.|..X.X.X.X.X.X.XXX%XXXXX.X X X X X X.X.X.X.XXX X X XXXXXXXXXXXXXXXXXXXXXXXXX|.|. X X XXXXXXXXXXXXXXXXXXXXXXXXXXXXXXXXXXXXXXXXXXX X X XXXXXXXXXXXXXXXXXXXXX",
"3X3X1X,X1X1X1X3X1X1X1X1X1X1X1X1X1X1X1X3X<X<X<X<X<X<X<X<X2X2X2X4X4X-.' ` ` ` ` ` ` ` ` ` ` ` ` ` ` ` ` ` ` ` ` ` ` ` ` ` ` ` ` ` ` ` ` ` ` ` ` ` ` ` ` ` ` ` ` ` ` ` ` ` ` ` ` ` ` ` ` ` ` ` ` ` ` ` ` ` ` ` ` ` ` o.` ] ..#X7XXXrXrXzXxXbXDXGXGXGXGXGXGXGXGXGXGXGXGXGXGXGXGXGXGXGXJXDXbXxXzXcXnXSXGXSXGXJXJXJXJXJXJXJXJXJXJXJXJXJXJXJXJXJXJXJXJXJXJXJXJXJXJXJXJXJXJXJXJXJXJXJXJXJXJXJXJXJXJXJXJXJXJXJXJXJXJXJXJXJXJXJXJXJXJXJXJXJXJXJXJXJXJXJXJXJXJXJXJXJXJXJXJXJXJXJXJXJXJXJXJXJXJXJXJXJXJXJXJXJXJXJXJXJXJXJXJXJXJXJXJXJXJXJXJXJXJXJXJXJXJXJXJXJXJXJXJXJXJXJXJXJXJXJXJXJXJXJXJXJXJXJXJXJXJXJXJXJXJXJXJXJXJXJXJXJXJXJXJXJXJXJXJXJXJXJXJXJXJXJXJXJXJXJXJXJXJXJXJXJXJXJXJXJXJXJXJXJXAXGXJXDXbXcXbXDXDXAXAXHXGXGXGXGXGXHXHXHXZXVXVXVXVXbXZXbXB o o O o .   . 1 {.SXLXLXPXLXcXB   X X X C OXA.< < 0 d f d 7 < < < < < < < < < < < < < r v 6.6.6.l f r y j v v b b 6.5.5.5.5.5.5.5.5.5.5.v j y r y h v v v v l l l l l l l l l l l l l l l l l l l l l l l l l l l l z z j h r w t w u 7 9 m q U U J K K J J P I J I I J L L L H H H K K R ~.(.Q.I.Q.!.R.Y.T.T.R.T.U.U.U.U.U.R.E.^.{..X.X.X.X.X.X.X.X.X.X.X.X X X X.X.X.X.X.X X X X XXXXXXX X X XXXXXXXXXXXXXXXXXXXXX X X X XXXXXXXXXXXXXXXXXXXXXXXXXXXXXXXXXXXXXXXXXXXXXXXXXXXXXXXXX X X XXXXXXXXX",
"3X3X1X,X1X1X1X3X1X1X1X1X1X1X1X1X1X1X1X1X<X<X<X<X<X<X<X<X2X2X2X4X4X-.' ` ` ` ` ` ` ` ` ` ` ` ` ` ` ` ` ` ` ` ` ` ` ` ` ` ` ` ` ` ` ` ` ` ` ` ` ` ` ` ` ` ` ` ` ` ` ` ` ` ` ` ` ` ` ` ` ` ` ` ` ` ` ` ` ` ` ` ` ` _ o.` ] ..#X7X@XrXrXzXzXbXDXGXGXGXGXGXGXGXGXGXGXGXGXGXGXGXGXGXGXGXJXDXbXxXzXcXnXAXGXGXGXJXJXGXJXJXJXJXJXJXJXJXJXJXJXJXJXJXJXJXJXJXJXJXJXJXJXJXJXJXJXJXJXJXJXJXJXJXJXJXJXJXJXJXJXJXJXJXJXJXJXJXJXJXJXJXJXJXJXJXJXJXJXJXJXJXJXJXJXJXJXJXJXJXJXJXJXJXJXJXJXJXJXJXJXJXJXJXJXJXJXJXJXJXJXJXJXJXJXJXJXJXJXJXJXJXJXJXJXJXJXJXJXJXJXJXJXJXJXJXJXJXJXJXJXJXJXJXJXJXJXJXJXJXJXJXJXJXJXJXJXJXJXJXJXJXJXJXJXJXJXJXJXJXJXJXJXJXJXJXJXJXJXJXJXJXJXJXJXJXJXJXJXJXJXJXJXJXJXJXJXPXGXAXSXCXnXnXCXDXAXAXAXGXGXGXGXGXHXHXHXHXZXZXVXVXVXBXVXrXN o . . X o X * {.UXPXLXLXPXLXDXP.-   X . * _.`.C 0 0 < < < < < < < < < < < < < < < < s h 6.6.6.6.l y r y j v b b 6.6.6.5.5.5.5.5.5.5.5.5.l h y r p h v v v v v l l l v l l l v l l l l l l l l l l l l l l l l l l l z z j h r w t w u 7 9 m q U U J K K J J J J J I I J L L H H H H K P R ~.(.!.!.!.!.Y.Y.U.T.R.T.T.U.U.U.R.!.Q.{.}..X.X.X.X.X.X.X.X.X.X.X.X X.X X X.X.X.X.X.X.X X XXXXXXXXX X XXXXXXXXXXXXXXXXXXXXX X X X XXXXXXXXXXXXXXXXXXXXXXXXXXXXXXXXXXXXXXXXX X XXXXXXXXX XXX X XXXXXXXXXXX",
"3X3X1X,X<X<X1X3X1X1X1X1X1X1X1X1X1X1X1X1X<X<X<X<X<X<X<X<X2X2X2X4X4X-.' ` ` ` ` ` ` ' ` ` ` ` ` ` ` ` ` ` ` ` ` ` ` ` ` ` ` ` ` ` ` ` ` ` ` ` ` ` ` ` ` ` ` ` ` ` ` ` ` ` ` ` ` ` ` ` ` ` ` ` ` ` ` ` ` ` ` ` ` ` _ o.o.]  .+X7XXXrXrXzXzXcXNXGXGXGXGXGXGXGXGXGXGXGXGXGXGXGXGXGXGXGXJXDXnXcXrXxXbXDXGXGXGXJXJXGXJXJXJXJXJXJXJXJXJXJXJXJXJXJXJXJXJXJXJXJXJXJXJXJXJXJXJXJXJXJXJXJXJXJXJXJXJXJXJXJXJXJXJXJXJXJXJXJXJXJXJXJXJXJXJXJXJXJXJXJXJXJXJXJXJXJXJXJXJXJXJXJXJXJXJXJXJXJXJXJXJXJXJXJXJXJXJXJXJXJXJXJXJXJXJXJXJXJXJXJXJXJXJXJXJXJXJXJXJXJXJXJXJXJXJXJXJXJXJXJXJXJXJXJXJXJXJXJXJXJXJXJXJXJXJXJXJXJXJXJXJXJXJXJXJXJXJXJXJXJXJXJXJXJXJXJXJXJXJXJXJXJXJXJXJXJXJXJXJXJXJXJXJXJXJXJXJXJXGXSXAXDXCXDXJXAXSXAXAXHXGXGXGXHXHXHXHXHXZXVXVXVXVXVXVXH.= . .     X = Q.FXLXLXLXLXLXLXLXcXB   X   - A `.C < < < $ $ $ $ < < < 7 7 t t t t r r h v 6.6.6.v j y r h l v b b 6.6.6.6.5.5.5.5.5.5.5.v j p r y h j v v v v v v l l v v l l v l l l l l l l l l l l l l l l l l l l l l j h r w t w u 7 9 m q U P J J K K K J J J L L L L L H H H K P P R ~.(.!.!.!.!.!.I.U.U.I.U.I.U.R.R.!.^.{.OX|.|.|.|.|.|.|.|.|. X.X.X.X.X.X.X.X.X.X.X.X.X.X.X.XXXXXXXXXXXXXXXXXXXXXXXXXXXXXXXXX X X X XXXXXXXXXXXXXXXXXXXXXXXXXXXXXXXXXXXXXXXXX XXXXXXXXXXX X X X XXXXXXXXXXX",
"3X3X3X1X<X<X1X3X1X1X1X1X1X1X1X1X1X1X1X1X<X<X<X<X<X<X<X<X2X2X2X4X4X-.' _ ` ` ` ` ' ' ` ` ` ` ` ` ` ` ` ` ` ` ` ` ` ` ` ` ` ` ` ` ` ` ` ` ` ` ` ` ` ` ` ` ` ` ` ` ` ` ` ` ` ` ` ` ` ` ` ` ` ` ` ` ` ` ` ` ` ` ` ` _ o.o.]  .+X@XXXrXhXzXzXcXNXGXGXGXGXGXGXGXGXGXGXGXGXGXGXGXGXGXGXJXGXSXnXcXrXzXcXCXAXGXGXJXGXGXGXJXJXJXJXJXJXJXJXJXJXJXJXJXJXJXJXJXJXJXJXJXJXJXJXJXJXJXJXJXJXJXJXJXJXJXJXJXJXJXJXJXJXJXJXJXJXJXJXJXJXJXJXJXJXJXJXJXJXJXJXJXJXJXJXJXJXJXJXJXJXJXJXJXJXJXJXJXJXJXJXJXJXJXJXJXJXJXJXJXJXJXJXJXJXJXJXJXJXJXJXJXJXJXJXJXJXJXJXJXJXJXJXJXJXJXJXJXJXJXJXJXJXJXJXJXJXJXJXJXJXJXJXJXJXJXJXJXJXJXJXJXJXJXJXJXJXJXJXJXJXJXJXJXJXJXJXJXJXJXJXJXJXJXJXJXJXJXJXJXJXJXJXJXJXJXJXGXJXJXGXAXSXGXJXSXSXAXAXGXGXGXGXHXHXKXHXZXZXVXVXVXVXVXkXS O . . o . O A DXLXPXPXLXLXLXLXLXSX!.-     X 1 Z 0 $ $ $ $ $ $ < < 7 f k k k v l v v 6.b 6.8.8.6.v j y y h l v 6.b 6.6.6.6.6.5.5.5.5.5.5.l h y r p j l v v v v v v v l v v v l l l l l l l l l l l l l l l l l l l l l l l j h r w t u u 8 8 q q U J J K K K H J J J L L L L H H P P K F V R { (.Q.!.!.!.!.I.I.I.I.I.I.R.R.Q.^.{.oXXXXX|.|.|.|.|.|.|.|. X.X.X.X.X.X.X.X X.X.X.X.X.X.X.XXXXXXXXXXXXXXXXXXXXXXXXXXXXXXXXX X X X XXXXXXXXXXXXXXXXXXXXXXXXXXXXXXXXXXXXXXXXX X XXXXXXXXX X XXXXXXXXXXXXXXX",
"3X3X3X1X<X<X1X3X1X1X1X1X1X1X1X1X1X1X1X1X<X<X<X<X<X<X<X<X2X2X2X4X>X-.) _ ` ` ` ` ' ' ` ` ` ` ` ` ` ` ` ` ` ` ` ` ` ` ` ` ` ` ` ` ` ` ` ` ` ` ` ` ` ` ` ` ` ` ` ` ` ` ` ` ` ` ` ` ` ` ` ` ` ` ` ` ` ` ` ` ` ` _ _ _ _ o.]  .+X@XXXrXzXzXzXxXnXGXGXGXGXGXGXGXGXGXGXGXGXGXGXGXGXGXJXJXGXSXDXbXhXrXzXnXDXGXGXJXGXGXGXJXJXJXJXJXJXJXJXJXJXJXJXJXJXJXJXJXJXJXJXJXJXJXJXJXJXJXJXJXJXJXJXJXJXJXJXJXJXJXJXJXJXJXJXJXJXJXJXJXJXJXJXJXJXJXJXJXJXJXJXJXJXJXJXJXJXJXJXJXJXJXJXJXJXJXJXJXJXJXJXJXJXJXJXJXJXJXJXJXJXJXJXJXJXJXJXJXJXJXJXJXJXJXJXJXJXJXJXJXJXJXJXJXJXJXJXJXJXJXJXJXJXJXJXJXJXJXJXJXJXJXJXJXJXJXJXJXJXJXJXJXJXJXJXJXJXJXJXJXJXJXJXJXJXJXJXJXJXJXJXJXJXJXJXJXJXJXJXJXJXJXJXJXJXJXJXGXJXJXJXGXGXGXSXSXSXFXFXGXGXGXJXHXKXKXHXZXZXVXVXVXlXVX[.1 o . X o O B zXLXLXPXPXLXLXLXLXPXLXcXB . . X O - - $ $ $ - < < 7 d x b b b b 6.6.6.6.8.8.8.8.6.b l j y h j v 6.6.6.6.6.6.6.6.6.6.5.5.5.v j p r r h l 5.5.v v v 5.v v v 5.v v v v l l l v l l l l l l l l l l l l l l l l l j y r w t u u 8 8 q V U U J P P H H J J L L I I I H K P K P F V R { (.~.!.!.!.!.!.!.I.I.I.I.!.Q.^.{.|.XX%XXX|.|.|.|.|.|.|.|. X XXXXXXXXXXXXX X XXXXXXXXXXXXXXXXXXXXXXXXXXXXX X X X XXXXXXXXX X X X XXXXXXXXXXXXXXXXXXXXXXXXXXXXXXXXXXXXXXXXXXXXXXXXXXXXXXXXXXXXXXXXXXXXXXX",
"3X3X3X3X1X<X1X1X1X1X1X1X1X1X1X1X1X1X1X1X<X<X<X<X<X<X<X<X2X2X2X4X>X-.) _ ` _ ` ` ' ' ` ` ` ` ` ` ` ` ` ` ` ` ` ` ` ` ` ` ` ` ` ` ` ` ` ` ` ` ` ` ` ` ` ` ` ` ` ` ` ` ` ` ` ` ` ` ` ` ` ` ` ` ` ` ` ` ` ` ` ` _ _ T _ o.]  .(.@XXXrXzXzXzXxXnXSXGXGXGXGXGXGXGXGXGXGXGXGXGXGXGXJXJXJXGXGXSXnXzXrXhXbXDXGXGXGXJXGXJXJXJXJXJXJXJXJXJXJXJXJXJXJXJXJXJXJXJXJXJXJXJXJXJXJXJXJXJXJXJXJXJXJXJXJXJXJXJXJXJXJXJXJXJXJXJXJXJXJXJXJXJXJXJXJXJXJXJXJXJXJXJXJXJXJXJXJXJXJXJXJXJXJXJXJXJXJXJXJXJXJXJXJXJXJXJXJXJXJXJXJXJXJXJXJXJXJXJXJXJXJXJXJXJXJXJXJXJXJXJXJXJXJXJXJXJXJXJXJXJXJXJXJXJXJXJXJXJXJXJXJXJXJXJXJXJXJXJXJXJXJXJXJXJXJXJXJXJXJXJXJXJXJXJXJXJXJXJXJXJXJXJXJXJXJXJXJXJXJXJXJXJXJXJXJXJXJXJXJXGXGXGXSXAXJXFXJXJXGXGXGXGXHXKXKXHXZXVXVXlXVXVXlXH.$ . o X   - Q.SXPXPXPXLXLXLXPXLXPXLXIXP.O X O O o $ $ $ $ < 7 f c x b b b b b b 5.v 6.6.8.8.8.6.v z h y h z v 6.6.6.6.6.6.6.6.6.6.6.5.5.l j y r y j v 6.5.5.v v 5.v v v 5.5.v v v v l l v v l l l l l l l l l l l l l l l j j y r t w u 8 8 m q V U U P K H H H J J L L I L H F F K P P P Y X.{ (.~.{ !.!.!.!.!.!.!.!.!.Q.].{.oXXX%XXX.X|.|.|.|.|.|.|.|. X XXXXXXXXXXXXX X XXXXXXXXXXXXXXXXXXXXXXXXXXXXX XXX X XXXXXXXXX X X X XXXXXXXXXXXXXXXXXXXXXXXXXXXXXXXXXXXXXXXXXXXXXXXXXXXXXXXXXXXXXXXXXXXXXXX",
"3X3X3X3X1X<X1X1X1X1X1X1X1X1X1X1X1X1X1X1X<X<X<X<X<X<X<X<X2X2X2X4X>X-.) _ ` _ ` ` ' ' ' ` ` ` ` ` ` ` ` ` ` ` ` ` ` ` ` ` ` ` ` ` ` ` ` ` ` ` ` ` ` ` ` ` ` ` ` ` ` ` ` ` ` ` ` ` ` ` ` ` ` ` ` ` ` ` ` ` ` ` _ _ T _ o.]  .(.@XXXsXhXzXrXxXnXSXGXGXGXGXGXGXGXGXGXGXGXGXGXGXJXJXJXJXSXGXGXnXxXhXrXcXCXGXGXGXJXJXJXJXJXJXJXJXJXJXJXJXJXJXJXJXJXJXJXJXJXJXJXJXJXJXJXJXJXJXJXJXJXJXJXJXJXJXJXJXJXJXJXJXJXJXJXJXJXJXJXJXJXJXJXJXJXJXJXJXJXJXJXJXJXJXJXJXJXJXJXJXJXJXJXJXJXJXJXJXJXJXJXJXJXJXJXJXJXJXJXJXJXJXJXJXJXJXJXJXJXJXJXJXJXJXJXJXJXJXJXJXJXJXJXJXJXJXJXJXJXJXJXJXJXJXJXJXJXJXJXJXJXJXJXJXJXJXJXJXJXJXJXJXJXJXJXJXJXJXJXJXJXJXJXJXJXJXJXJXJXJXJXJXJXJXJXJXJXJXJXJXJXJXJXJXJXJXJXJXJXGXGXGXGXGXSXJXFXFXJXGXGXGXHXKXKXHXHXZXVXVXlXlXVXkXS o o o .   B cXLXPXPXPXLXLXLXPXLXPXLXLX@X: X o $ o - - - < 7 f c x b b b b b 6.b 6.6.6.6.6.8.8.6.l h y y j l b 6.8.6.6.6.6.6.6.6.6.6.6.5.l h r r p j 5.6.5.5.5.v v v v v v v 5.v v v v l v v v l v v l l l l l l l l l l l l j y r t t u 7 8 m q U U U P J J J J L L L L H H F F P U Y Y E X.X.| ~.!.{ !.!.!.!.!.!.!.!.Q.{.}.oX XXXXXXX X X X X X X X X XXXXXXXXX X X XXX XXXXXXXXX X XXXXXXXXXXXXXXXXXXXXXXXXXXXXXXXXXXX X X X X X XXX XXXXXXXXXXXXXXXXXXXXXXXXXXXXX X XXXXXXXXX X XXXXXXXXXXXXXXXXXXX",
"5X3X3X3X1X<X1X1X1X1X1X1X1X1X1X1X1X1X1X1X<X<X<X<X<X<X<X<X2X2X4X4X>X-.) _ _ _ ` ` ' ' ' ` ` ` ` ` ` ` ` ` ` ` ` ` ` ` ` ` ` ` ` ` ` ` ` ` ` ` ` ` ` ` ` ` ` ` ` ` ` ` ` ` ` ` ` ` ` ` ` ` ` ` ` ` ` ` ` ` ` ` ` ` T _ o.]  .(.@X@X@XzXzXrXzXnXSXGXGXGXGXGXGXGXGXGXJXJXGXGXGXJXJXJXJXSXGXJXNXcXzXrXxXNXGXGXGXJXJXJXJXJXJXJXJXJXJXJXJXJXJXJXJXJXJXJXJXJXJXJXJXJXJXJXJXJXJXJXJXJXJXJXJXJXJXJXJXJXJXJXJXJXJXJXJXJXJXJXJXJXJXJXJXJXJXJXJXJXJXJXJXJXJXJXJXJXJXJXJXJXJXJXJXJXJXJXJXJXJXJXJXJXJXJXJXJXJXJXJXJXJXJXJXJXJXJXJXJXJXJXJXJXJXJXJXJXJXJXJXJXJXJXJXJXJXJXJXJXJXJXJXJXJXJXJXJXJXJXJXJXJXJXJXJXJXJXJXJXJXJXJXJXJXJXJXJXJXJXJXJXJXJXJXJXJXJXJXJXJXJXJXJXJXJXJXJXJXJXJXJXJXJXJXJXJXJXGXGXGXJXJXJXGXJXJXFXFXJXJXGXGXHXHXKXHXHXZXVXVXlXlXVXrXN o o o   X Y.SXLXLXLXPXLXLXLXLXLXLXLXLXSXA - X O $ = C k.c c x x x b b b 6.b b b b 6.6.6.6.8.8.6.l y y y j l 6.6.8.6.6.6.6.6.6.6.6.6.6.6.j h r r h l 5.6.5.5.5.5.v v v v v v v v v v v v v v v v v v v l l l l l l l l l l l j y r t t 7 7 8 m q U U U P J J J L L L L L H F K P Y E  . .| | | | | { { { ~.~.!.!.{ { !.Q.}.oX X X X|.|. X X X X X X X X XXXXXXXXX X XXXXXXXXXXXXX X X XXXXXXXXXXXXXXXXXXXXXXXXXXXXXXXXXXX X X X X X X X XXXXXXXXXXXXXXXXXXXXXXXXXXXXX XXXXXXXXX X X XXXXX X XXXXXXXXXXX",
"3X3X3X3X1X1X<X<X1X1X1X1X1X1X1X1X1X1X1X1X1X1X1X1X<X1X<X3X2X4X4X4X>X-.) ) ) ` ` ` ` ` ` ` ` ` ` ` ` ` ` ` ` ` ` ` ` ` ` ` ` ` ` ` ` ` ` ` ` ` ` ` ` ` ` ` ` ` ` ` ` ` ` ` ` ` ` ` ` ` ` ` ` ` ` ` ` ` ` ` ` ` ` ` _ ` ` ]  .~.#X@X7XsXzXzXxXbXDXGXGXGXGXGXGXSXSXSXIXGXGXGXGXGXGXGXJXJXSXSXDXbXzXzXxXnXDXAXSXGXJXGXJXJXJXJXJXJXJXJXJXJXJXJXJXJXJXJXJXJXJXJXJXJXJXJXJXJXJXJXJXJXJXJXJXJXJXJXJXJXJXJXJXJXJXJXJXJXJXJXJXJXJXJXJXJXJXJXJXJXJXJXJXJXJXJXJXJXJXJXJXJXJXJXJXJXJXJXJXJXJXJXJXJXJXJXJXJXJXJXJXJXJXJXJXJXJXJXJXJXJXJXJXJXJXJXJXJXJXJXJXJXJXJXJXJXJXJXJXJXJXJXJXJXJXJXJXJXJXJXJXJXJXJXJXJXJXJXJXJXJXJXJXJXJXJXJXJXJXJXJXJXJXJXJXJXJXJXJXJXJXJXJXJXJXJXJXJXJXJXJXJXJXJXJXJXJXJXJXJXJXJXJXJXJXJXJXJXJXJXJXJXJXKXGXHXKXHXZXVXVXlXVXVXH.= . . . . * zXPXLXLXPXLXLXLXLXLXLXLXLXLXLX{.= . 1 S Y.{.'.l.C c x b 8.6.8.8.6.6.b b b b b 6.6.8.5.j y p h 6.6.6.6.6.6.6.6.6.6.6.8.8.8.v j p y r h l 5.5.v 5.5.5.5.5.5.5.5.5.5.5.5.5.5.5.5.5.5.5.5.v v v v 5.5.v v l l l l l l h y t 7 7 8 9 0 q q K U J I H H L L L H F F P P P Y  . . . .| | | | | | | | | | | { { { (.(.}. X@X XXX X|.|. X X X X X X X XXXXXXXXXXXXXXXXX.X.X.X.X.X.X.X.XXXXXXXXX XXX X X X X XXXXXXXXXXX|.|. X X X XXXXXXXXXXXXXXXXXXXXXXXXXXXXXXXXXXXXX XXXXXXXXXXX X.X.X.X.X.X.X.X.X",
"3X3X3X3X1X<X<X<X1X1X1X1X1X1X1X1X1X1X1X1X1X1X1X1X1X1X<X3X2X2X4X4X>X-.' ) ) ` ` o.o.o.` ` ` ` ` ` ` ` ` ` ` ` ` ` ` ` ` ` ` ` ` ` ` ` ` ` ` ` ` ` ` ` ` ` ` ` ` ` ` ` ` ` ` ` ` ` ` ` ` ` ` ` ` ` ` ` ` ` ` ` o.o.` ` ` ]  ...#X@X@X@XzXzXxXbXDXGXGXGXGXGXGXSXSXSXIXGXGXGXGXGXGXGXGXGXHXSXDXnXxXzXxXbXCXAXGXGXJXJXJXJXJXJXJXJXJXJXJXJXJXJXJXJXJXJXJXJXJXJXJXJXJXJXJXJXJXJXJXJXJXJXJXJXJXJXJXJXJXJXJXJXJXJXJXJXJXJXJXJXJXJXJXJXJXJXJXJXJXJXJXJXJXJXJXJXJXJXJXJXJXJXJXJXJXJXJXJXJXJXJXJXJXJXJXJXJXJXJXJXJXJXJXJXJXJXJXJXJXJXJXJXJXJXJXJXJXJXJXJXJXJXJXJXJXJXJXJXJXJXJXJXJXJXJXJXJXJXJXJXJXJXJXJXJXJXJXJXJXJXJXJXJXJXJXJXJXJXJXJXJXJXJXJXJXJXJXJXJXJXJXJXJXJXJXJXJXJXJXJXJXJXJXJXJXJXJXJXJXJXJXJXJXJXJXJXJXJXJXJXJXJXGXHXKXHXZXVXVXlXlXVXH.- . X o X S nXLXLXLXPXLXLXLXLXLXLXLXLXLXLXcXA S Y.{.oXrXoXA.Z x b b 8.8.8.8.8.6.6.b b b b 6.6.6.v h y p h 6.6.6.6.6.6.6.6.6.6.6.6.8.6.v j p y y h l 5.5.v 5.5.5.5.5.5.5.5.5.5.5.5.5.5.5.5.5.5.v 5.v v v v 5.5.v v l l l l l k h y u 7 7 8 9 m q V K U J P H H H L H H F F P I Y  . . . .| | | | | | | | | | | | | | | | (.(.}. X XXX X X X X X X X X X X XXXXXXXXXXXXXXXXX.X.X.X.X.X.X.X.XXXXXXXXX X X X X X X X X XXXXXXX|.|. X X X XXXXXXXXXXXXXXXXXXXXXXXXXXXXXXXXXXXXX X XXXXXXXXX X X.X.X.X.X.X.X.X",
"1X1X1X1X<X<X<X<X1X1X1X1X1X1X1X1X1X1X1X1X1X1X1X1X1X1X<X<X2X2X4X4X>X&.' ) ) ` ` o.o.o.` ` ` ` ` ` ` ` ` ` ` ` ` ` ` ` ` ` ` ` ` ` ` ` ` ` ` ` ` ` ` ` ` ` ` ` ` ` ` ` ` ` ` ` ` ` ` ` ` ` ` ` ` ` ` ` ` ` ` ` ` ` ` _ ` ] ] ..+X#X@X@X@XzXxXbXDXSXGXGXGXGXGXSXSXSXGXGXGXGXGXGXGXGXGXGXGXGXSXnXcXzXhXcXnXDXGXGXGXJXJXJXJXJXJXJXJXJXJXJXJXJXJXJXJXJXJXJXJXJXJXJXJXJXJXJXJXJXJXJXJXJXJXJXJXJXJXJXJXJXJXJXJXJXJXJXJXJXJXJXJXJXJXJXJXJXJXJXJXJXJXJXJXJXJXJXJXJXJXJXJXJXJXJXJXJXJXJXJXJXJXJXJXJXJXJXJXJXJXJXJXJXJXJXJXJXJXJXJXJXJXJXJXJXJXJXJXJXJXJXJXJXJXJXJXJXJXJXJXJXJXJXJXJXJXJXJXJXJXJXJXJXJXJXJXJXJXJXJXJXJXJXJXJXJXJXJXJXJXJXJXJXJXJXJXJXJXJXJXJXJXJXJXJXJXJXJXJXJXJXJXJXJXJXJXJXJXJXJXJXJXJXJXJXJXJXJXJXJXJXJXJXGXHXKXHXVXVXVXVXlXlXS o . X X O Q.GXLXLXLXLXLXLXLXLXLXLXLXLXLXLXJXxXoXzXxXzXrXtX_.k.C b b 8.8.8.8.8.6.b b b b b 6.6.6.l h y p j 6.6.6.6.6.6.6.6.6.6.6.6.8.6.l h r y h j v 6.6.5.5.5.5.5.5.5.5.5.5.5.5.5.5.5.5.5.v v v v v v v v v v v v l l l l l k h y w 7 8 8 m q q V K U J J J H H H F F F F P Y  ... . .| | | | | | | | | | | | | | | | | (.(.}. X X X X X X X X X X X X X XXXXXXXXXXXXXXXXX.X.X.X.X.X.X.X.XXXXX X X X|.|.|.|.|.|.|. X X X X|.|. X X X XXXXXXXXXXXXXXXXXXXXXXXXXXXXXXXXXXXXX X XXXXXXXXX.X XXXXXXXXXXXXXXX",
"1X<X1X1X<X1X1X1X1X1X1X1X1X1X1X1X1X1X1X1X1X1X1X1X1X1X<X<X<X<X4X4X;.&.' ) ' ` ` o.` o.` ` ` ` ` ` ` ` ` ` ` ` ` ` ` ` ` ` ` ` ` ` ` ` ` ` ` ` ` ` ` ` ` ` ` ` ` ` ` ` ` ` ` ` ` ` ` ` ` ` ` ` ` ` o.` ` ` ` ` ` ` ` ` ` ` ]  .(.#X@X@X@X7XzXcXnXDXGXGXGXGXGXGXGXGXGXGXGXGXGXGXGXGXGXGXGXGXHXNXbXzXhXxXbXCXGXGXGXJXJXJXJXJXJXJXJXJXJXJXJXJXJXJXJXJXJXJXJXJXJXJXJXJXJXJXJXJXJXJXJXJXJXJXJXJXJXJXJXJXJXJXJXJXJXJXJXJXJXJXJXJXJXJXJXJXJXJXJXJXJXJXJXJXJXJXJXJXJXJXJXJXJXJXJXJXJXJXJXJXJXJXJXJXJXJXJXJXJXJXJXJXJXJXJXJXJXJXJXJXJXJXJXJXJXJXJXJXJXJXJXJXJXJXJXJXJXJXJXJXJXJXJXJXJXJXJXJXJXJXJXJXJXJXJXJXJXJXJXJXJXJXJXJXJXJXJXJXJXJXJXJXJXJXJXJXJXJXJXJXJXJXJXJXJXJXJXJXJXJXJXJXJXJXJXJXJXJXJXJXJXJXJXJXJXJXJXJXJXJXJXJXGXHXHXZXZXVXVXVXVXkXN . . . X * |.PXLXLXLXLXLXLXLXLXLXLXLXLXLXLXLXHXbXhXrX.XoXtXyXl.C b b 8.8.7.8.8.6.6.6.b b b 6.6.6.l p y h j 6.6.6.6.6.6.6.6.6.6.6.6.6.5.j h r y h l 6.6.6.5.5.5.5.5.5.5.5.5.5.5.5.5.5.5.5.5.v v v v v v v v v v v v l l l l l j f u u 7 8 8 m q q V U J J J P P K H F F P P Y E  . . . .| | | | | | | | | | | | | | | | | (.(.(.}. X X X X X X X X X X X X XXXXXXXXXXXXXXXXX.X.X.X.X.X.X.X.XXXXX X X|.|.|.|.oXoX|.|.|.|. X X|.|. X X X XXXXXXXXXXXXXXXXXXXXXXXXXXXXXXXXXXXXX X XXXXXXXXX.X.XXXXXXXXXXXXXXX",
"1X1X1X1X<X1X1X1X1X1X1X1X1X1X1X1X1X1X1X1X1X1X1X1X1X1X<X<X<X<X4X4X;.[ ) ) ' ` ` o.` ` ` ` ` ` ` ` ` ` ` ` ` ` ` ` ` ` ` ` ` ` ` ` ` ` ` ` ` ` ` ` ` ` ` ` ` ` ` ` ` ` ` ` ` ` ` ` ` ` ` ` ` ` ` ` o.` ` ` ` ` ] ` ` _ ` ` ]  .(.+X7X@X@X7XzXcXnXDXGXGXGXGXGXGXGXGXGXJXJXJXJXJXJXJXGXGXJXJXGXDXnXxXhXhXcXnXAXGXGXJXJXJXJXJXJXJXJXJXJXJXJXJXJXJXJXJXJXJXJXJXJXJXJXJXJXJXJXJXJXJXJXJXJXJXJXJXJXJXJXJXJXJXJXJXJXJXJXJXJXJXJXJXJXJXJXJXJXJXJXJXJXJXJXJXJXJXJXJXJXJXJXJXJXJXJXJXJXJXJXJXJXJXJXJXJXJXJXJXJXJXJXJXJXJXJXJXJXJXJXJXJXJXJXJXJXJXJXJXJXJXJXJXJXJXJXJXJXJXJXJXJXJXJXJXJXJXJXJXJXJXJXJXJXJXJXJXJXJXJXJXJXJXJXJXJXJXJXJXJXJXJXJXJXJXJXJXJXJXJXJXJXJXJXJXJXJXJXJXJXJXJXJXJXJXJXJXJXJXJXJXJXJXJXJXJXJXJXJXJXJXJXJXHXHXHXZXZXVXVXVXVXW.=   X   X A nXLXLXLXPXLXLXPXLXLXLXLXLXLXLXLXLXPXnXrXrXrX.XtXyXS.Z x b 8.7.7.8.8.6.6.6.6.6.6.6.6.5.j y r h l 6.6.6.6.6.6.6.6.6.6.6.6.6.l j p r h l 5.6.6.6.6.5.5.5.5.5.5.5.5.5.5.5.5.5.5.5.5.v v v v v v 5.5.v v v v l l l l j j f u u 7 8 8 q q q V K J L J P K K H F F P Y Y  . . . . .| | | | | } } } } } | | | | | | | | (.(.}.oX X XXXXX X X XoXoXoX X XXXXXXXXXXXXXXXXX.X.X.X.X.X.X.X.X X X X|.|.|.oXoXoXoXoXoX|.|.|. X|.|. X X X XXXXXXXXXXXXXXXXXXXXXXXXXXXXXXXXXXXXXXXXXXXXX.X.X.X.XXXXXXXXXXXXXXX",
"<X<X1X<X1X1X1X1X1X1X1X1X1X1X1X1X1X1X1X1X1X1X1X1X1X1X<X<X<X<X4X4X>.[ ) ) ` ` ` o.` ` ` ` ` ` ` ` ` ` ` ` ` ` ` ` ` ` ` ` ` ` ` ` ` ` ` ` ` ` ` ` ` ` ` ` ` ` ` ` ` ` ` ` ` ` ` ` ` ` ` ` ` ` ` ` o.` ` ` ` ` ] ` ` _ _ ` ]  ...+X8X7XXX%X7XxXbXNXGXGXGXGXGXGXGXGXJXJXJXJXJXJXJXJXGXGXJXJXGXAXnXcXhXhXxXbXDXGXJXGXJXJXJXJXJXJXJXJXJXJXJXJXJXJXJXJXJXJXJXJXJXJXJXJXJXJXJXJXJXJXJXJXJXJXJXJXJXJXJXJXJXJXJXJXJXJXJXJXJXJXJXJXJXJXJXJXJXJXJXJXJXJXJXJXJXJXJXJXJXJXJXJXJXJXJXJXJXJXJXJXJXJXJXJXJXJXJXJXJXJXJXJXJXJXJXJXJXJXJXJXJXJXJXJXJXJXJXJXJXJXJXJXJXJXJXJXJXJXJXJXJXJXJXJXJXJXJXJXJXJXJXJXJXJXJXJXJXJXJXJXJXJXJXJXJXJXJXJXJXJXJXJXJXJXJXJXJXJXJXJXJXJXJXJXJXJXJXJXJXJXJXJXJXJXJXJXJXJXJXJXJXJXJXJXJXJXJXJXJXJXJXJXHXHXHXZXZXVXVXVXVXH.$   X   O Q.PXLXLXLXPXLXLXLXLXLXLXLXLXLXLXLXLXPXnXrXrXzXrXrXfX`.k.x b 8.7.7.8.8.6.6.6.8.6.6.6.6.v h r r j v 6.6.6.6.6.6.6.6.6.6.6.6.5.l h y y j v 6.6.6.6.6.5.5.5.5.5.5.5.5.5.5.5.5.5.5.5.5.v v v v v v 5.5.v v v v l l l l j h f u 7 8 8 m q q V K J U L J P K K P F F P Y  . .| |  .| | | | | } } } } } } } } | | | | | | ~.(.}.}.oX XXXXX X X X XoXoX X XXXXXXXXXXXXXXXXX.X.X.X.X.X.X.XXXXX X|.|.|.oXoXoXoXoXoXoXoX|.|.|.|.|. X X X XXXXXXXXXXXXXXXXXXXXXXXXXXX XXXXXXXXXXXXXXXXX.X.X.X.XXXXXXXXXXXXXXX",
"1X1X1X1X1X1X1X1X1X1X1X1X1X1X1X1X1X1X1X1X1X1X1X1X1X1X<X<X<X<X<X4X=.[ ) ) ` ` ` o.o.o.` ` ` ` ` ` ` ` ` ` ` ` ` ` ` ` ` ` ` ` ` ` ` ` ` ` ` ` ` ` ` ` ` ` ` ` ` ` ` ` ` ` ` ` ` ` ` ` ` ` ` ` ` ` o.o.` ` ` ] ] ` ` _ _ _ ` ]  .+X8X7XXX%X7XhXcXNXGXGXGXGXGXGXGXGXJXJXJXJXJXJXJXJXJXGXJXJXGXGXCXbXxXhXhXcXNXGXJXGXJXJXJXJXJXJXJXJXJXJXJXJXJXJXJXJXJXJXJXJXJXJXJXJXJXJXJXJXJXJXJXJXJXJXJXJXJXJXJXJXJXJXJXJXJXJXJXJXJXJXJXJXJXJXJXJXJXJXJXJXJXJXJXJXJXJXJXJXJXJXJXJXJXJXJXJXJXJXJXJXJXJXJXJXJXJXJXJXJXJXJXJXJXJXJXJXJXJXJXJXJXJXJXJXJXJXJXJXJXJXJXJXJXJXJXJXJXJXJXJXJXJXJXJXJXJXJXJXJXJXJXJXJXJXJXJXJXJXJXJXJXJXJXJXJXJXJXJXJXJXJXJXJXJXJXJXJXJXJXJXJXJXJXJXJXJXJXJXJXJXJXJXJXJXJXJXJXJXJXJXJXJXJXJXJXJXJXJXJXGXGXJXAXHXHXZXZXVXVXVXVXA O   .   = oXLXLXPXLXPXLXLXLXLXLXLXLXLXLXLXLXLXLXDXxXrXrX.XrXdXyXl.C Z 8.8.8.8.8.8.8.8.8.8.6.8.6.l h r r j 6.6.6.6.6.6.6.6.6.6.6.6.6.v j p r h l 5.6.6.5.5.6.5.5.5.5.5.5.5.5.5.5.5.5.5.5.5.5.v 5.5.v v v v 5.v v v v v v l l j h f u 7 8 8 m q q K U J U J J P H K P K K Y E  . .| | | | | | | } } } } } } } } } } | | | | | ~.(.(.}.oX XXXXX X X X XoXoX X XXXXXXXXXXXXXXXXXXX.X.X.X.X.X.X.X X X|.|.oXoXoXoXoXOXoXoXoXoX|.|.|.|. X X X XXXXXXXXXXXXXXXXXXXXXXXXX X XXXXXXXXX.X.X X.X.X.X.X.XXXXXXXXXXXXXXX",
"3X3X3X1X1X1X1X1X1X1X1X1X1X1X1X1X1X1X1X1X1X1X1X1X3X1X<X<X<X<X<X4X=.[ ) ' ` ` ` o.o.` ` ` ` ` ` ` ` ` ` ` ` ` ` ` ` ` ` ` ` ` ` ` ` ` ` ` ` ` ` ` ` ` ` ` ` ` ` ` ` ` ` ` ` ` ` ` ` ` ` ` ` ` ` ` o.o.` ` ` ` ] ` ` _ _ _ ` ]  .+X8X7XXX7X7X%XcXnXGXGXGXGXGXGXGXGXJXJXJXJXJXJXJXJXJXGXJXJXGXGXDXbXxXhXhXcXnXGXJXSXJXJXJXJXJXJXJXJXJXJXJXJXJXJXJXJXJXJXJXJXJXJXJXJXJXJXJXJXJXJXJXJXJXJXJXJXJXJXJXJXJXJXJXJXJXJXJXJXJXJXJXJXJXJXJXJXJXJXJXJXJXJXJXJXJXJXJXJXJXJXJXJXJXJXJXJXJXJXJXJXJXJXJXJXJXJXJXJXJXJXJXJXJXJXJXJXJXJXJXJXJXJXJXJXJXJXJXJXJXJXJXJXJXJXJXJXJXJXJXJXJXJXJXJXJXJXJXJXJXJXJXJXJXJXJXJXJXJXJXJXJXJXJXJXJXJXJXJXJXJXJXJXJXJXJXJXJXJXJXJXJXJXJXJXJXJXJXJXJXJXJXJXJXJXJXJXJXJXJXJXJXJXJXJXJXJXJXJXJXJXGXJXAXHXHXZXZXVXVXVXlXS o   . X B xXLXLXLXLXPXLXLXPXLXLXLXLXLXLXLXLXLXLXGXnXxXrXrXxXdXdXA.Z Z b b 6.8.8.8.8.8.8.8.8.8.6.l p w r j 6.6.6.6.6.6.6.6.6.6.6.6.6.v j p r j l 6.6.5.v 6.6.5.5.5.5.5.5.5.5.5.5.5.5.5.5.5.5.v v v v v v 5.5.v v v v v v l l h f f u 8 8 0 m q V K J U J L J P K K P K K Y  . .| | | | | | | | } } } } } } } } } } | | | | | { (.(.}.oX XXXXX X X X XoX X X XXXXXXXXXXXXXXXXX.X.X.X.X.X.X.X.X X X|.|.oXoXoXoXOXOXoXoXoXoX|.|.|.|. X X X XXXXXXXXXXXXXXXXXXXXXXXXX X X XXXXXXX.X.X X X.X.X.X.XXXXXXXXXXXXXXX",
"4X3X3X1X1X1X1X<X1X1X1X1X1X1X1X1X1X1X1X1X1X1X1X1X,X<X2X<X<X<X4X4X-.' ' ' ' _ ` o.` ` ` ` ` ` ` ` ` ` ` ` ` ` ` ` ` ` ` ` ` ` ` ` ` ` ` ` ` ` ` ` ` ` ` ` ` ` ` ` ` ` ` ` ` ` ` ` ` ` ` ` ` ` ` ` ` ` ` ] ` ` ` ` ` _ _ _ ` ] *.$X#X@X@XXX%XhXmXnXSXGXJXHXGXKXJXGXJXJXJXJXJXJXJXJXJXGXGXJXJXGXDXCXxXrXrXcXbXCXGXJXJXGXGXGXGXGXGXGXJXJXJXJXJXJXJXJXJXJXJXJXJXJXJXJXJXJXJXJXJXJXJXJXJXJXJXJXJXJXJXJXJXJXJXJXJXJXJXJXJXJXJXJXJXJXJXJXJXJXJXJXJXJXJXJXJXJXJXJXJXJXJXJXJXJXJXJXJXJXJXJXJXJXJXJXJXJXJXJXJXGXGXGXJXJXJXGXGXGXGXGXGXGXGXGXJXJXJXJXJXJXJXJXGXGXGXGXGXGXGXGXJXJXJXJXJXJXJXJXJXJXJXJXJXJXJXJXJXJXJXJXJXJXJXJXJXJXJXJXJXJXJXJXJXJXJXJXJXJXJXJXJXJXJXJXJXJXJXJXJXJXJXJXJXJXJXJXJXJXJXJXJXJXJXJXJXJXJXJXGXIXGXJXGXHXKXHXVXVXVXVXlXN o .     A DXLXLXLXLXLXLXLXLXLXLXLXLXLXLXLXLXPXLXPXCXxXhXxXxXsXdX'.Z x Z b 6.6.8.8.8.6.6.8.7.7.v h r w h 6.8.8.8.8.8.6.6.6.6.6.6.6.5.j p r r l 5.6.6.6.6.6.6.6.6.6.6.6.5.5.5.5.5.5.5.5.5.5.5.v v v v v v v l l l v 5.5.v l j y f y 8 8 8 q q U U U J J J I P H P K P K P Y  .|  .| | | | | | } } } } } } } } } } | | | | | | | (.(.}.oX XXXXX X X X XoXoX X X.XXXXXXXXXXXXXXX.X.X.X.X.X.X.X.X X X|.|.oXoXOXOXOXOXOXoXoX|.|. XXXXXXXXXXXXXXXXX X X X XXXXXXXXXXXXXXX XXXXXXXXXXXXX.X X.X|.|.|..X.X.X.XXXXX.X",
"4X3X3X1X1X1X1X<X1X1X1X1X1X1X1X1X1X1X1X1X1X1X1X1X,X<X3X<X<X<X4X4X-.' ' ) ' ' ` o.` ` ` ` ` ` ` ` ` ` ` ` ` ` ` ` ` ` ` ` ` ` ` ` ` ` ` ` ` ` ` ` ` ` ` ` ` ` ` ` ` ` ` ` ` ` ` ` ` ` ` ` ` ` ` ` ` ` ` ` ` ` ` ` ` _ _ o.o.@.*.$X#X@X@X7X%XzXcXnXAXGXJXGXGXJXJXGXJXJXJXJXJXJXJXJXJXGXGXGXJXGXAXCXbXhXhXxXbXNXAXGXGXGXGXGXGXGXGXGXJXJXJXJXJXJXJXJXJXJXJXJXJXJXJXJXJXJXJXJXJXJXJXJXJXJXJXJXJXJXJXJXJXJXJXJXJXJXJXJXJXJXJXJXJXJXJXJXJXJXJXJXJXJXJXJXJXJXJXJXJXJXJXJXJXJXJXJXJXJXJXJXJXJXJXJXJXJXJXJXJXJXJXGXGXGXGXGXGXGXGXGXJXJXJXJXJXJXJXJXJXJXJXJXGXGXGXGXGXGXGXGXJXJXJXJXJXJXJXJXJXJXJXJXJXJXJXJXJXJXJXJXJXJXJXJXJXJXJXJXJXJXJXJXJXJXJXJXJXJXJXJXJXJXJXJXJXJXJXJXJXJXJXJXJXJXJXJXJXJXJXJXJXJXJXJXJXJXJXJXIXGXGXGXGXHXKXHXVXVXVXVXlXN o .   . A SXLXLXLXLXLXLXLXLXLXLXLXLXLXLXLXLXPXLXPXDXcXhXxXxXsXdX'.l.x b b 8.8.8.8.8.6.6.8.7.7.l p w w h 6.8.8.8.8.8.8.8.6.6.6.6.6.v h p y p v 5.6.6.6.6.6.6.6.6.6.6.6.5.5.5.6.5.5.5.5.5.5.5.v v v v v v v v l l v 5.5.v l j y y u 8 8 m q q U K J J J J I P H P K K K P Y  .| | | | | | | } } | | } } } } } } | | | | | | | ~.(.(.}.oX XXXXX X X X XoXoX X X.XXXXXXXXXXXXXXX.X.X.X.X.X.X.X.X X X|.oXoXoXOXOXOXOXOXoXoX|.|. XXXXXXXXXXXXXXX X X X XXXXXXXXXXXXXXX X XXXXXXXXXXX.X X X.X|.|.|..X.X.X.XXX.XoX",
"3X3X3X1X1X1X1X<X1X1X1X1X1X1X1X1X1X1X1X1X1X1X1X1X<X<X<X<X<X<X4X4X-.' ) ) ' _ ` ` ` ` ` ` ` ` ` ` ` ` ` ` ` ` ` ` ` ` ` ` ` ` ` ` ` ` ` ` ` ` ` ` ` ` ` ` ` ` ` ` ` ` ` ` ` ` ` ` ` ` ` ` ` ` ` ` ` ` ` ` ` ` ] ` ` _ _ ` @.*.*.(.#X@X X@X%XzXcXnXDXHXGXGXGXGXJXGXJXJXJXJXJXJXJXJXJXGXGXGXJXGXAXDXnXcXhXxXcXnXDXGXGXGXGXGXGXGXGXGXJXJXJXJXJXJXJXJXJXJXJXJXJXJXJXJXJXJXJXJXJXJXJXJXJXJXJXJXJXJXJXJXJXJXJXJXJXJXJXJXJXJXJXJXJXJXJXJXJXJXJXJXJXJXJXJXJXJXJXJXJXJXJXJXJXJXJXJXJXJXJXJXJXJXJXJXJXJXJXJXGXJXJXPXJXJXGXGXSXGXGXGXGXGXJXJXJXJXJXJXJXJXJXJXGXGXGXGXGXGXGXGXJXJXJXJXJXJXJXJXJXJXJXJXJXJXJXJXJXJXJXJXJXJXJXJXJXJXJXJXJXJXJXJXJXJXJXJXJXJXJXJXJXJXJXJXJXJXJXJXJXJXJXJXJXJXJXJXJXJXJXJXJXJXJXJXJXJXJXJXIXIXGXGXGXHXKXHXZXVXVXVXkXN o .   O R.PXLXLXLXLXLXLXLXLXLXLXLXLXLXLXLXLXPXLXLXAXbXhXhXjXrXdXyXA.Z b b 8.8.8.8.8.8.6.8.8.7.l r w r j 6.8.8.8.8.8.8.8.6.6.6.6.6.l h p p h v 5.6.6.6.6.6.6.6.6.6.6.6.6.5.5.6.6.5.5.5.5.5.5.5.5.5.v v v v v v l v 5.v l j h r u t 8 8 m q V U U J J J J J P P K P P P P Y  . .| | | | | } } } } | } } } } } | | | | | | | | ~.(.(.}.oX XXXXX X XoX X X X X X|..XXXXXXXXXXXXX.X.X.X.X.X.X.X.X X X|.oXoXOXOXOXOXOXoXoXoX|. X X X XXXXXXXXX X X X XXXXXXXXXXXXXXXXX X X.X.X X X.X.X X.X|.|.|.|.|..X.X.X|.OX{.",
"4X3X3X1X1X1X1X<X1X1X1X1X1X1X1X1X1X1X1X1X1X1X1X1X<X<X<X<X<X<X4X4X-.' ) ) ' _ ` ` ` ` ` ` ` ` ` ` ` ` ` ` ` ` ` ` ` ` ` ` ` ` ` ` ` ` ` ` ` ` ` ` ` ` ` ` ` ` ` ` ` ` ` ` ` ` ` ` ` ` ` ` ` ` ` ` ` ` ` ` ` ` ] ` o.` _ ` ]  . .~.#X@X@XXX%XzXcXnXDXAXGXGXGXGXJXGXGXGXGXGXGXGXGXGXJXGXGXGXJXGXAXDXNXbXhXhXxXbXCXGXGXGXGXGXGXGXGXJXJXJXJXJXJXJXJXJXJXJXJXJXJXJXJXJXJXJXJXJXJXJXJXJXJXJXJXJXJXJXJXJXJXJXJXJXJXJXJXJXJXJXJXJXJXJXJXJXJXJXJXJXJXJXJXJXJXJXJXJXJXJXJXJXJXJXJXJXJXJXJXJXJXJXJXJXJXJXJXJXSXSXGXJXJXJXGXSXGXGXJXJXJXGXGXGXJXJXJXJXJXJXJXJXGXGXGXGXGXGXGXGXJXJXJXJXJXJXJXJXJXJXJXJXJXJXJXJXJXJXJXJXJXJXJXJXJXJXJXJXJXJXJXJXJXJXJXJXJXJXJXJXJXJXJXJXJXJXJXJXJXJXJXJXJXJXJXJXJXJXJXJXJXJXJXJXJXJXJXGXIXIXGXGXGXHXKXZXZXVXVXVXkXN o .   = {.LXLXLXLXLXLXLXLXLXLXLXLXLXLXLXLXLXLXLXLXHXnXhXrXjXrXtXtX`.k.b b 7.8.8.8.8.8.8.8.8.8.j r t y v 8.8.8.8.8.8.8.8.8.8.8.6.v j y y h j 5.6.6.8.6.6.6.6.6.6.6.6.6.6.5.5.6.6.6.5.5.5.5.5.5.5.5.5.v v v 5.v v v v v l j h u t 7 8 8 m q U U J J J J J J J J K P P P P Y  . .| | | | | } } } } | } } } } } | | | | | | | | ~.(.(.}.oX XXXXX X XoXoX X X X X|..XXXXXXXXXXXXX.X.X.X.X.X.X.X.X X|.oXoXoXOXOXOXOXoXoXoX|.|. X X X X XXXXXXX X X XXXXXXXXXXXXXXXXXXXXXXX.X X X X.X.X.X|.|.|.|.|.|..X.XoX}.{.^.",
"3X3X3X1X1X1X1X<X1X1X1X1X1X1X1X1X1X1X1X1X1X1X1X1X<X<X<X<X<X<X<X4X-.' ) ) ' _ ` ` ` ` ` ` ` ` ` ` ` ` ` ` ` ` ` ` ` ` ` ` ` ` ` ` ` ` ` ` ` ` ` ` ` ` ` ` ` ` ` ` ` ` ` ` ` ` ` ` ` ` ` ` ` ` ` ` ` ` ` ` ` ` ` ` o.` _ ` ] ] E { (.@X7XXXXXzXcXnXNXDXGXGXHXHXJXSXGXGXGXGXGXGXGXGXGXGXGXGXJXGXGXAXCXbXhXrXxXcXnXGXGXGXGXGXGXJXJXJXJXJXJXJXJXJXJXJXJXJXJXJXJXJXJXJXJXJXJXJXJXJXJXJXJXJXJXJXJXJXJXJXJXJXJXJXJXJXJXJXJXJXJXJXJXJXJXJXJXJXJXJXJXJXJXJXJXJXJXJXJXJXJXJXJXJXJXJXJXJXJXJXJXJXJXJXJXJXJXJXPXJXSXGXJXJXJXGXGXGXGXGXGXSXAXDXJXJXJXJXJXJXJXJXGXGXGXGXGXGXGXGXJXJXJXJXJXJXJXJXJXJXJXJXJXJXJXJXJXJXJXJXJXJXJXJXJXJXJXJXJXJXJXJXJXJXJXJXJXJXJXJXJXJXJXJXJXJXJXJXJXJXJXJXJXJXJXJXJXJXJXJXJXJXJXJXJXJXJXGXGXIXGXGXGXHXKXZXVXVXVXVXkXN o .   B rXLXLXLXLXLXLXLXLXLXLXLXLXLXLXLXLXLXLXLXLXPXNXxXrXjXjXtXdXeXl.b 7.7.8.8.8.8.8.8.8.8.6.h w w h 6.7.7.8.8.8.8.8.8.8.8.8.6.l h r y j v 5.6.8.8.6.6.6.6.6.6.6.6.6.6.6.5.6.6.6.6.6.5.5.5.5.5.5.5.5.5.5.5.v v v l l j h y w t 7 8 8 q q U U J J H H J J J J K P P P P Y  . .| | | | | | | } } | } } } } } } | | | | | | | | (.(.}.oX XXXXX X XoXoX X X X X.X.XXXXXXXXXXXXX.X.X.X.X.X.X.X.X X|.oXoXOXOXOXoXoXoXoXoX|. XXXXXXXXXXXXXXXXXXXXXXXXXXXXXXXXXXXXXXXXX X.X.X.X.X X.X.X|. X X|.|.|.oX|.|.}.].Q.R.",
"3X3X3X1X1X1X1X<X1X1X1X1X1X1X1X1X1X1X1X1X1X1X1X1X1X<X<X<X<X<X<X4X-.' ) ) ' ` ` ` ` ` ` ` ` ` ` ` ` ` ` ` ` ` ` ` ` ` ` ` ` ` ` ` ` ` ` ` ` ` ` ` ` ` ` ` ` ` ` ` ` ` ` ` ` ` ` ` ` ` ` ` ` ` ` ` ` ` ` ` ` ` ` ` ` ` ` ` ] T P V ~.@XzXXXXXzXcXbXnXCXAXAXAXFXFXSXJXGXGXGXGXGXGXGXGXGXGXGXGXGXGXGXDXnXxXhXhXxXnXAXGXGXGXGXGXJXJXJXJXJXJXJXJXJXJXJXJXJXJXJXJXJXJXJXJXJXJXJXJXJXJXJXJXJXJXJXJXJXJXJXJXJXJXJXJXJXJXJXJXJXJXJXJXJXJXJXJXJXJXJXJXJXJXJXJXJXJXJXJXJXJXJXJXJXJXJXJXJXJXJXJXJXJXJXJXJXJXJXGXGXGXGXJXJXGXAXGXGXJXPXPXKXJXJXJXJXJXJXJXJXJXJXGXGXGXGXGXGXGXGXJXJXJXJXJXJXJXJXJXJXJXJXJXJXJXJXJXJXJXJXJXJXJXJXJXJXJXJXJXJXJXJXJXJXJXJXJXJXJXJXJXJXJXJXJXJXJXJXJXJXJXJXJXJXJXJXJXJXJXJXJXJXJXJXJXJXJXGXIXIXGXGXGXHXHXZXVXVXVXVXrXN . .   S bXPXLXLXLXLXLXLXLXLXLXLXLXLXLXLXLXLXLXLXLXPXDXvXrXhXhXjXvXyXS.k.p.7.7.8.8.8.8.8.8.8.l p w r j 6.7.7.7.7.8.8.8.8.8.8.8.6.l h r y j 5.6.6.8.8.6.6.6.6.6.6.6.6.6.6.6.6.6.6.6.6.6.6.5.5.6.6.5.5.5.5.5.5.5.v v l l j p r w u 8 8 m n V U U J J H H J J J J J P P P P Y  . .| | | | | | | } | } } } } } } } | | | | | | | | (.(.}.oX XXXXX X X X X X X X XoX.XXXXXXXXXXXXX.X.X.X.X.X.X.X.X X|.oXoXOXOXoXoXoXoXoX|.|. XXXXXXXXXXXXXXXXXXXXXXXXXXXXXXXXXXXXXXXXX X X.X.X.X.X X X|.|.|.|.|.|.OXOX}.].Q.R.U.",
"3X3X3X1X1X1X1X<X1X1X1X1X1X1X1X1X1X1X1X1X1X1X1X1X1X<X<X<X1X<X<X4X-.' ) ) _ _ ` ` ` ` ` ` ` ` ` ` ` ` ` ` ` ` ` ` ` ` ` ` ` ` ` ` ` ` ` ` ` ` ` ` ` ` ` ` ` ` ` ` ` ` ` ` ` ` ` ` ` ` ` ` ` ` ` ` ` _ ` ` ` ` ` ` _ ` ` ] ] Y , > R OXzXXXXXzXcXbXnXCXDXAXAXFXFXSXSXGXGXGXGXGXGXGXGXGXGXGXGXGXGXJXAXnXcXxXxXhXbXCXGXGXGXGXGXJXJXJXJXJXJXJXJXJXJXJXJXJXJXJXJXJXJXJXJXJXJXJXJXJXJXJXJXJXJXJXJXJXJXJXJXJXJXJXJXJXJXJXJXJXJXJXJXJXJXJXJXJXJXJXJXJXJXJXJXJXJXJXJXJXJXJXJXJXJXJXJXJXJXJXJXJXJXJXJXJXJXJXJXJXJXGXGXGXGXJXJXJXPXPXPXPXKXJXJXJXJXJXJXJXJXJXGXGXGXGXGXGXGXGXJXJXJXJXJXJXJXJXJXJXJXJXJXJXJXJXJXJXJXJXJXJXJXJXJXJXJXJXJXJXJXJXJXJXJXJXJXJXJXJXJXJXJXJXJXJXJXJXJXJXJXJXJXJXJXJXJXJXJXJXJXJXJXJXJXJXJXJXIXIXIXGXGXHXHXZXVXVXVXVX[.D . X   A CXPXLXLXLXLXLXLXLXLXLXLXLXLXLXLXLXLXLXLXPXPXGXbXrXhXhXjXvXdX`.p.p.7.7.8.8.8.8.8.8.8.j r r p l 8.9.7.7.7.7.7.8.8.8.8.8.6.l h r y j 5.6.6.8.8.6.6.6.6.6.6.6.6.6.6.6.6.6.6.6.6.6.6.6.5.6.6.6.6.5.5.5.5.5.v l l l j y r w t u u n n U U J P H H H H J J J K H P P P Y  . .| | } | | | } } } } } } } } } } } | | | | | | | (.(.}.oX XXXXX X X X X X X X XoX.XXXXXXXXXXXXX.X.X.X.X.X.X.X.X X|.oXOXOXOXoXoXoX|.|.|. XXXXXXXXXXX X XXX XXXXXXXXXXXXXXXXXXXXXXXXX.X X.X.X.X.X X X|.|.|.|.|.|.OX{.].Q.R.R.R.",
"3X3X3X1X1X1X1X<X1X1X1X1X1X1X1X1X1X1X1X1X1X1X1X1X1X<X<X<X1X2X<X4X-.' ) ) _ ` ` ` ` ` ` ` ` ` ` ` ` ` ` ` ` ` ` ` ` ` ` ` ` ` ` ` ` ` ` ` ` ` ` ` ` ` ` ` ` ` ` ` ` ` ` ` ` ` ` ` ` ` ` ` ` ` ` ` ` _ ` ` ` ` ` ` ` ` ] ] E U > : A {.xXXXXXzXcXxXnXNXDXAXSXFXFXSXSXGXGXGXGXGXGXGXGXGXGXGXGXGXJXJXSXNXcXxXxXhXcXnXGXGXGXGXGXJXJXJXJXJXJXJXJXJXJXJXJXJXJXJXJXJXJXJXJXJXJXJXJXJXJXJXJXJXJXJXJXJXJXJXJXJXJXJXJXJXJXJXJXJXJXJXJXJXJXJXJXJXJXJXJXJXJXJXJXJXJXJXJXJXJXJXJXJXJXJXJXJXJXJXJXJXJXJXJXJXJXJXPXAXbX{.P.A A A A H.E.{.hXbXCXDXJXJXJXJXJXJXJXJXGXGXGXGXGXGXGXGXJXJXJXJXJXJXJXJXJXJXJXJXJXGXGXGXGXJXJXJXJXJXJXJXJXJXJXJXJXJXJXJXJXJXJXJXJXJXJXJXJXJXJXJXJXJXJXJXJXJXJXJXJXJXJXJXJXJXJXJXJXJXJXJXJXJXJXGXGXGXIXGXGXAXKXZXVXVXBXVX[.* . X . A AXPXLXLXLXLXLXLXLXLXLXLXLXLXLXLXLXLXLXLXPXLXJXnXhXhXhXjXxXdX'.k.p.7.7.8.8.8.8.8.8.6.h r r h l 8.9.7.7.7.7.7.7.8.8.8.6.6.l h r p j 6.6.8.8.8.6.6.6.6.8.6.6.6.6.6.6.6.6.6.6.6.6.6.6.6.6.6.6.6.6.b b b b v l l l j y w w u u 8 n n U U J J H H H H J J J K H P F P Y  . .| | | | | } } } } } } } } } } } } | | | | | | | (.(.(.oX XXXXX X X X X X X X XoX|.XXXXXXXXXXXXXX.XXX.XXX.XXXXX X|.oXOXOXOXoXoX|.|.|. X XXXXXXXXXXXXX X X XXXXXXXXXXXXXXXXXXXXXXXXX.X X.X.X.X.X X X|.|.|.|.|.|.OX{.E.U.U.R.R.",
"1X1X1X1X1X1X1X1X1X1X1X1X1X1X1X1X1X1X1X1X1X1X1X1X1X1X<X4X<X2X4X;.&.) ) ' _ ` ` _ ` ` ` ` ` ` ` ` ` ` ` ` ` ` ` ` ` ` ` ` ` ` ` ` ` ` ` ` ` ` ` ` ` ` ` ` ` ` ` ` ` ` ` ` ` ` ` ` ` ` ` ` ` ` ` ` ` ` ` ` ` ` _ ` _ ` ]  .Y V > > C Q.xXxX|.hXcXhXxXbXDXGXGXSXSXJXGXGXGXGXGXGXGXGXGXGXGXGXGXGXGXGXSXDXnXcXhXhXxXcXDXAXJXJXJXGXGXJXJXJXJXJXJXJXJXJXJXJXJXJXJXJXJXJXJXJXJXJXJXJXJXJXJXJXJXJXJXJXJXJXJXJXJXJXJXJXJXJXJXJXJXJXJXJXJXJXJXJXJXJXJXJXJXJXJXGXGXJXJXJXJXJXGXGXGXJXJXGXGXGXJXGXJXJXJXJXGXJXSXSXnX{.A * O X O O - D B S A {.nXJXJXHXCXCXHXKXAXKXKXKXKXKXHXKXGXGXGXJXGXGXGXGXGXGXGXJXJXIXIXIXGXGXGXGXJXJXJXJXJXJXJXKXGXGXGXGXJXJXJXJXJXJXJXJXJXJXJXJXJXJXJXJXJXJXJXJXJXJXJXJXJXJXJXJXJXJXJXJXGXGXGXGXGXSXSXGXJXHXHXZXZXVXVXBX].* X .   Q.PXJXLXLXLXLXLXLXLXLXLXLXLXLXLXLXLXLXLXLXLXLXLXCXhXhXhXxXsXsXyXS.Z p.p.7.8.7.7.8.b z r h l 6.6.6.8.8.7.7.7.7.8.8.8.7.8.l h r y h 5.6.6.6.6.6.6.6.6.6.6.6.6.6.6.6.6.6.6.6.6.b 6.b 6.6.6.6.b b 6.6.b b v v v l h y y w u u f n n U U J J L L L L L H H J H H H F F Y ]  . .| | | } } } } } } } } } } } } } } | | | | | ..(.(.}. X XXXXX X X X X X X X X X X X XXXXXXXXX XXXXXXXXXXXXXXX XoX}.{.}.OXoXoX XXXXXXX X|.XXXXXXXXXXXXXXXXXXXXXXXXXXXXXXXXXXXX.X.X.X.X.XXXXXXX.X|.oX|..X.XoX}.].W.E.T.T.T.E.",
"1X1X1X1X1X1X1X1X1X1X1X1X1X1X1X1X1X1X1X1X1X1X1X1X1X1X,X3X<X2X4X;.&.' ' ' ' ' ` ) ` ` ` ` ` ` ` ` ` ` ` ` ` ` ` ` ` ` ` ` ` ` ` ` ` ` ` ` ` ` ` ` ` ` ` ` ` ` ` ` ` ` ` ` ` ` ` ` ` ` ` ` ` ` ` ` ` ` ` ` ` _ _ ` ) ]  .E W q 9 9 C Y.sXxX.XhXxXhXhXbXCXHXGXGXGXJXGXGXGXGXGXGXGXGXGXGXGXGXGXGXGXGXGXDXnXbXxXhXxXcXNXDXJXJXJXGXGXJXJXJXJXJXJXJXJXJXJXJXJXJXJXJXJXJXJXJXJXJXJXJXJXJXJXJXJXJXJXJXJXJXJXJXJXJXJXJXJXJXJXJXJXJXJXJXJXJXJXJXJXJXJXJXJXJXJXGXGXGXGXGXJXJXJXJXJXJXJXJXJXJXJXSXAXGXJXGXGXJXSXSXSXSXnXOXA B O X . O O O - D A {.vXCXCXnXCXCXKXKXKXKXHXHXHXKXKXJXJXJXJXJXKXJXHXGXGXGXGXGXGXGXIXGXGXJXGXGXJXJXJXJXJXKXGXGXGXGXJXJXJXJXJXJXJXJXJXJXJXJXJXJXJXJXJXJXJXJXJXJXJXJXJXJXJXJXJXJXJXJXHXGXGXGXGXSXSXSXJXHXAXZXZXVXVXBXW.= . .   Q.LXPXLXLXLXLXLXLXLXLXLXLXLXLXLXLXLXLXLXLXLXLXLXCXcXhXXXzXsXsXyXS.k.k.p.7.8.7.7.8.x z y h v 6.8.8.8.7.7.7.7.8.8.8.8.7.6.l p r p j 5.6.6.6.6.6.6.6.6.6.8.6.6.6.6.6.6.6.6.6.6.6.b b b b 6.6.v 6.6.6.b b v b v j y y y w u 8 n n U U J L L L L L L L H H H H H H K F I E  .| | | } | | | | | } } } } } } } } | | | | | | ..(.(.}. XXXXXXX X X X X X X X X X X X XXXXXXXXX XXXXXXXXXXXXXXX|.oX}.{.}.OXoXoX XXXXXXX X|. XXXXX XXXXXXXXX X XXXXXXXXXXXXXXXXXXXXX.X.X.X.X.X.X|.|.|..X.XoX{.].Q.E.T.T.T.T.T.",
"1X1X1X1X1X1X1X1X1X1X1X1X1X1X1X1X1X1X1X1X1X1X1X1X1X1X<X3X<X<X4X;.&.' ' ' ' ' ` ) ` ` ` ` ` ` ` ` ` ` ` ` ` ` ` ` ` ` ` ` ` ` ` ` ` ` ` ` ` ` ` ` ` ` ` ` ` ` ` ` ` ` ` ` ` ` ` ` ` ` ` ` ` ` ` ` ` ` ` ` ` ` ` ` ] ]  .E V > 9 0 0 A.tXxXrXhXhXhXrXcXNXAXGXGXSXJXGXGXGXGXGXGXGXGXGXGXGXGXGXGXGXGXGXSXDXnXcXhXhXxXnXDXJXJXGXGXJXGXJXJXJXJXJXJXJXJXJXJXJXJXJXJXJXJXJXJXJXJXJXJXJXJXJXJXJXJXJXJXJXJXJXJXJXJXJXJXJXJXJXJXJXJXJXJXJXJXJXJXJXJXJXJXJXJXGXGXGXGXGXGXJXJXJXJXJXGXJXJXJXJXPXGXAXGXJXGXGXGXPXJXGXJXPXGXbX.XA D o   X X X o O * S ].nXHXZXCXKXKXKXKXAXHXHXHXKXKXKXKXKXKXKXKXKXJXHXJXGXGXGXGXJXJXJXJXGXGXGXGXJXJXJXJXJXJXJXJXJXJXJXJXJXJXJXJXJXJXJXJXJXJXJXJXJXJXJXJXJXJXJXJXJXJXJXJXJXJXJXJXHXGXGXGXGXSXSXSXJXHXHXHXZXVXVXBXT.=       Q.LXPXLXLXLXLXLXLXLXLXLXLXLXLXLXLXLXLXLXLXLXLXLXDXcXxXrXrXrXsXfX`.k.k.8.8.7.7.7.6.k h h j 5.6.8.7.7.7.8.8.8.8.7.7.7.8.5.j y r h l 6.6.6.6.8.8.8.8.6.6.8.8.6.6.6.6.6.6.6.6.6.6.b b 6.6.6.6.6.6.6.8.6.6.v v j y u u u u 8 m n U U U U I J L L L L L H H J P H H P P P Y  . . .| | | | | | | } } } } } } } } | | | | | | ..(.(.}. X X X X X X X X X X X X X X X XXXXXXXXX X X X X X X XoXoXoX}.}.}.OXoXoX XXXXXXX X|. XXX X XXXXXXXXXXX XXXXXXXXXXXXXXXXXXXXXXX.X.X.X|..XoX|..X.XoX{.^.E.R.T.P.P.P.P.P.",
"1X1X1X1X1X1X1X1X1X1X1X1X1X1X1X1X1X1X1X1X1X1X1X1X<X1X<X3X<X2X4X;.&.' _ ' ' ' ` ` ` ` ` ` ` ` ` ` ` ` ` ` ` ` ` ` ` ` ` ` ` ` ` ` ` ` ` ` ` ` ` ` ` ` ` ` ` ` ` ` ` ` ` ` ` ` ` ` ` ` ` ` ` ` ` ` ` ` ` ` ` ` ` ` ] ] E W q 9 9 0 0 l.yXxXrXrXhXrX.XxXnXDXGXGXSXSXGXGXGXGXGXGXGXGXGXGXGXGXGXGXGXGXJXJXSXNXbXhXhXxXbXNXGXJXGXGXJXGXJXJXJXJXJXJXJXJXJXJXJXJXJXJXJXJXJXJXJXJXJXJXJXJXJXJXJXJXJXJXJXJXJXJXJXJXJXJXJXJXJXJXJXJXJXJXJXJXGXGXGXGXGXGXGXGXGXJXPXJXJXJXGXGXGXGXGXGXGXGXJXJXGXGXJXJXGXAXGXPXGXGXSXAXAXAXGXJXnXW.B - O X     .   o B ).nXAXHXZXZXKXKXKXKXJXHXKXKXKXKXHXHXHXHXKXKXHXHXHXHXHXGXJXJXJXJXGXGXGXGXJXJXJXJXJXJXJXJXJXJXJXJXJXJXJXJXJXJXJXJXJXJXJXJXJXJXJXJXJXJXJXJXJXJXJXJXJXJXJXJXHXGXGXGXGXSXSXSXSXHXHXHXZXVXVXBXH.-       W.LXPXLXLXLXLXLXLXLXLXLXLXLXLXLXLXLXLXLXLXLXLXLXGXbXcXhXhXsXsXfX'.l.Z 8.8.7.7.8.b k h h l 6.8.8.8.7.7.8.8.8.8.7.7.8.8.l h y y j 5.6.6.6.6.8.8.8.8.6.6.8.8.8.6.6.6.6.6.6.6.6.6.6.6.6.6.6.6.6.6.8.8.8.5.v j p u u 8 8 m n n U U U U J H L L L L L H H H J J J P P P P Y E  . . . .| | | | | } } } } } } } } | | | | | | (.(.(.}. XXXXX X X X X X X X X X X X X XXXXXXXXX X X XoXoXoXoXoXoXOX}.}.OXOXoX|.XXXXXXXXXX|. XXX X XXXXXXXXX X XXXXXXXXXXXXXXXXXXXXXXXXXXX.X.X.X.X.X|.OX{.W.E.R.T.P.P.P.P.P.P.",
"1X1X1X1X1X1X1X1X1X1X1X1X1X1X1X1X1X1X1X1X1X1X1X1X<X1X<X3X<X2X4X;.&._ ` _ ' ' ` ` ` ` ` ` ` ` ` ` ` ` ` ` ` ` ` ` ` ` ` ` ` ` ` ` ` ` ` ` ` ` ` ` ` ` ` ` ` ` ` ` ` ` ` ` ` ` ` ` ` ` ` ` ` ` ` ` ` ` ` ` ` ` ` ] ]  .E U m 9 7 d 1 l.{.tXxXrXrXrX.XxXnXDXGXGXSXAXGXGXGXGXGXGXGXGXGXGXGXGXGXGXGXGXJXJXJXDXnXcXhXhXxXnXDXGXGXGXGXGXJXJXJXJXJXJXJXJXJXJXJXJXJXJXJXJXJXJXJXJXJXJXJXJXJXJXJXJXJXJXJXJXJXJXJXJXJXJXJXJXJXJXJXJXJXJXJXJXGXGXGXGXGXGXGXGXJXJXGXSXSXGXJXJXGXGXSXSXGXGXJXJXAXSXGXGXGXJXJXJXAXSXJXJXJXJXGXAXJXNXoXl.1 O     .     o * A .XKXHXZXHXKXKXHXAXHXHXHXHXHXHXZXHXHXHXHXHXHXKXKXKXKXKXKXJXJXGXGXGXGXJXJXJXJXJXJXJXJXJXJXJXJXJXJXJXJXJXJXJXJXJXJXJXJXJXJXJXJXJXJXJXJXJXJXJXJXJXJXJXJXGXGXGXGXGXFXFXFXSXGXHXHXZXVXVXBXH.-   .   W.LXPXLXLXLXLXLXLXLXLXLXLXLXLXLXLXLXLXLXLXLXLXLXJXnXcXxXxXxXsXfX'.A.Z 8.8.7.7.6.l z f j l 6.8.8.8.8.8.8.8.8.8.7.7.8.6.j p y h l 6.6.6.6.8.8.8.6.6.6.6.8.8.8.8.8.6.6.6.6.6.6.6.6.6.6.6.6.6.6.8.7.8.6.5.l a u u 8 8 m n W W U U J K K H L L L L H H H H J P P P J K K P Y E  . ... .| |  .} } } } } } } } } | | | | | ..(.(.(. X XXXXX X X X X X X X X X|.|. X XXXXXXXXX X X|.oXoXoXOXOXOX}.}.}.OXoXoX XXXXXXXXXXX|. XXXXXXXXXXXXXXXXXXXXXXXXX X X XXXXXXXXXXXXXXXXXXXXX%X.X}.{.Q.R.R.R.T.P.P.P.P.T.T.",
"1X1X1X1X1X1X1X1X1X1X1X1X1X1X1X1X1X1X1X1X1X1X1X1X<X<X<X3X<X2X4X=.&._ ` _ ' ' ` ` ` ` ` ` ` ` ` ` ` ` ` ` ` ` ` ` ` ` ` ` ` ` ` ` ` ` ` ` ` ` ` ` ` ` ` ` ` ` ` ` ` ` ` ` ` ` ` ` ` ` ` ` ` ` ` ` ` ` ` ` ` ` ] ] ] E W q 0 9 7 d d Z `.yXsXjXrXhXrXxXbXCXAXGXJXSXGXGXGXGXGXGXGXGXJXJXJXJXJXJXJXJXGXJXPXSXNXbXxXhXxXbXNXAXGXGXGXJXJXJXJXJXJXJXJXJXJXJXJXJXJXJXJXJXJXJXJXJXJXJXJXJXJXJXJXJXJXJXJXJXJXJXJXJXJXJXJXJXJXJXJXJXJXJXJXJXGXGXGXGXGXGXGXGXJXGXGXJXJXAXCXNXbXbXbXcXbXbXbXbXCXAXGXAXAXGXGXAXJXGXSXAXGXJXJXGXGXPXKXbXQ.B - .     X . . - A oXHXKXHXZXCXCXCXCXZXZXZXZXZXZXZXZXZXZXZXZXHXHXKXKXHXJXJXJXJXGXGXGXJXJXJXJXJXJXJXJXJXJXJXJXJXJXJXJXJXJXJXJXJXJXJXJXJXJXJXJXJXJXJXJXJXJXJXJXJXJXJXJXHXGXGXGXGXFXFXFXSXGXHXHXZXVXVXBXH.-   X . W.LXPXLXLXLXLXLXLXLXLXLXLXLXLXLXLXLXLXLXLXLXPXLXPXNXcXxXxXxXxXsXeXS.Z 8.p.p.8.b z f f j l 6.8.8.8.8.8.8.8.8.8.7.8.6.5.p y y j 5.8.8.6.8.8.8.8.8.8.8.8.8.8.8.8.8.8.6.6.6.6.6.6.6.6.6.6.6.6.6.8.8.8.5.5.a a u 8 8 m n W E W W J H H H H H L L H H K K K J P J P J K P P P Y  . . . . .| | | } } } } } } } | | | | | ....(.(.}. X X XXXXX X X X X X XXXXX|.|. X XXXXXXXXX X X|.oXoXOX}.}.{.}.}.OXOXoXoX XXXXX%XXXXX|. XXXXXXXXXXXXXXXXXXXXXXXXXXX X XXXXXXXXXXXXXXXXXXXXX.XOX{.W.!.R.R.!.R.U.P.P.P.T.E.",
"1X1X1X1X1X1X1X1X1X1X1X1X1X1X1X1X<X<X1X1X1X1X1X1X<X<X2X3X2X2X>X=.&._ ' _ ' _ ` ` ` ` ` ` ` ` ` ` ` ` ` ` ` ` ` ` ` ` ` ` ` ` ` ` ` ` ` ` ` ` ` ` ` ` ` ` ` ` ` ` ` ` ` ` ` ` ` ` ` ` ` ` ` ` ` ` ` ` ` ` ` ` ] ] E Y V m 9 7 7 d c Z `.yXtXtXhXhXhXxXbXNXAXGXJXSXGXGXGXGXGXGXGXGXJXJXJXJXJXJXJXJXGXJXPXJXDXnXcXhXxXcXnXDXJXGXGXJXJXJXJXJXJXJXJXJXJXJXJXJXJXJXJXJXJXJXJXJXJXJXJXJXJXJXJXJXJXJXJXJXJXJXJXJXJXJXJXJXJXJXJXJXJXJXJXJXGXGXGXGXGXGXGXGXPXDXnXbX.XR.A S S S S S S S S S H.oXDXPXPXPXJXGXSXGXGXGXGXGXHXHXKXPXPXKXCX{.S - .   . . . O = B .XnXCXCXCXnXbXBXVXVXVXVXVXVXVXVXVXVXVXZXZXZXZXZXHXHXHXHXKXKXKXJXJXGXJXJXFXFXFXJXJXJXJXJXJXJXJXJXJXJXJXJXJXJXJXJXJXJXJXJXJXJXJXJXJXJXJXJXJXJXJXJXHXGXGXGXGXSXFXSXSXGXHXHXZXVXVXBXH.-   X . W.LXPXLXLXLXLXLXLXLXLXLXLXLXLXLXLXLXLXLXLXLXPXLXPXCXxXjXjXxXsXsXyX`.k.k.p.p.8.x z h h l 5.8.7.7.8.8.8.7.8.8.8.7.8.6.l w r p j 6.8.8.8.8.8.8.8.8.8.8.8.8.8.8.6.8.8.8.6.8.8.6.6.6.6.6.6.6.8.6.8.6.5.5.5.a y u 8 8 q U E E E I H F H H H H H H H H K K K K P J K P P K P P Y Y  . . . . .| | | | | } } } | | | | | ....(.#X X X X X XXXXX X X X X X XXXXX|.|. X XXX XXXXX X|.oXoXOX}.{.{.{.{.}.OXOXoX|.XXXX%X%XXXXX X XXXXXXX X XXXXXXXXXXXXXXXXX XXXXXXXXXXX.X.X.X.X.X.X}.{.W.R.R.R.R.R.T.P.P.P.T.E.Q.",
"1X1X1X1X1X1X1X1X1X1X1X1X1X1X1X1X<X<X1X1X1X1X1X<X<X<X2X<X2X2X>X=.&._ ' _ ) _ ` ` ` ` ` ` ` ` ` ` ` ` ` ` ` ` ` ` ` ` ` ` ` ` ` ` ` ` ` ` ` ` ` ` ` ` ` ` ` ` ` ` ` ` ` ` ` ` ` ` ` ` ` ` ` ` ` ` ` ` ` ` ` ] ] ] E W q 0 9 7 t d c i.S.yXtXtXjXjXxXcXbXNXAXJXJXSXGXGXGXGXGXGXGXGXJXJXJXJXJXJXJXJXSXGXJXJXDXnXbXxXxXxXbXDXJXGXGXJXJXJXJXJXJXJXJXJXJXJXJXJXJXJXJXJXJXJXJXJXJXJXJXJXJXJXJXJXJXJXJXJXJXJXJXJXJXJXJXJXJXJXJXJXJXJXJXJXGXGXGXGXGXGXGXGXxX].A S * O X . . .         . . O B A R.OXnXGXJXJXJXJXGXGXHXHXJXHXJXKXPXLXCX{.A = O .   X . . O A OXnXnXCXCXbXVXVXVXVXVXVXVXVXVXVXVXVXVXVXZXVXVXHXHXHXHXKXKXKXJXJXJXJXJXJXFXFXFXJXJXJXJXJXJXJXJXJXJXJXJXJXJXJXJXJXJXJXJXJXJXJXJXJXJXJXJXJXJXJXJXHXGXGXGXGXSXSXSXSXHXHXHXZXVXVXBXl.- . X X ).LXPXLXLXLXLXLXLXLXLXLXLXLXLXLXLXLXLXLXLXLXPXPXPXCXjXtXjXjXrXsXfX'.k.Z p.p.6.l h f h v 6.8.7.7.7.7.7.7.7.8.8.7.8.5.j t r p l 6.8.8.8.8.8.8.8.8.8.8.8.8.8.8.8.8.8.6.8.8.8.8.6.6.6.6.8.8.6.8.8.6.5.5.j a y u 8 m q W E *.T I F F L H H H H H H K K P P K P K K P H K F H P Y E  . . ...| | | | | | | | | | | | ....(.(.#X@X@X XXXXXXXXX X X X X XXXXXXX|.|. X XXX XXXXX X|.oXoXOX}.{.{.{.{.}.OXOXoX|.XXXX%X%XXXXX X XXXXXXX X X X XXXXXXXXXXXXXXXXXXXXX.X.X.X.X|.oX|.oX{.^.E.R.R.!.R.T.P.P.P.P.T.E.Q.",
"1X1X1X1X1X1X1X1X1X1X1X1X1X1X1X1X<X<X<X,X1X1X1X1X<X<X2X<X,X4X>X-.' ` ` ` ` ` ` ` ` ` ` ` ` ` ` ` ` ` ` ` ` ` ` ` ` ` ` ` ` ` ` ` ` ` ` ` ` ` ` ` ` ` ` ` ` ` ` ` ` ` ` ` ` ` ` ` ` ` ` ` ` ` ` ` o.` ` ` ` ] ] E Y V m 9 7 7 d c C i.l.`.yXtXjXhXxXxXbXnXDXGXJXSXGXGXGXGXGXGXJXJXJXJXJXJXJXJXJXJXJXGXGXJXJXDXbXxXcXhXxXnXDXGXJXPXJXJXJXJXJXJXJXJXJXJXJXJXJXJXJXJXJXJXJXJXJXJXJXJXJXJXJXJXJXJXJXJXJXJXGXGXGXGXGXGXJXJXGXGXJXJXJXGXGXGXGXJXJXGXJXGXxX].A S B = O X X .           . .   X - D A {.nXGXJXAXAXKXKXHXKXHXAXHXKXKXCXbXhXl.= . . .       O S .XnXCXVXVXbXVXVXVXVXVXlXlXlXVXVXVXVXVXVXVXVXVXZXZXHXKXKXKXJXJXJXJXJXJXJXSXSXJXJXJXJXJXJXJXJXJXJXJXJXJXJXJXJXJXJXJXJXJXJXJXJXJXJXJXJXJXJXJXJXGXGXGXJXJXFXSXSXSXJXHXKXHXCXVXBXH.- . . O ].LXLXLXLXLXLXLXLXLXLXLXLXLXLXLXLXPXLXLXLXLXPXJXAXtXtXtXtXjXjXrXdXeXk.b 8.p.b f d f l 7.7.7.7.7.7.7.7.7.9.7.7.7.8.l r t r j 5.8.7.7.8.8.8.8.8.8.8.8.8.8.8.8.8.6.6.8.8.8.8.8.6.6.6.8.8.6.6.6.6.6.6.j p u u m m q W E Q *.Q I F L L J P J J J H H H K K P P P P H H H H F P I Y Y  . ... .| | | | | | | ........(.(.(.#X#X X X X X X X X X X X X.X.XXXXX X X X X X X X XoXoXoXOXOX}.{.{.}.OXOXoXoX|.XXXXXXXXXXXXXXXXXX XXXXXXXXXXXXXXXXX|.|.XXXXXXXXXXXXXX.X.X.XoX}.{.].E.E.E.R.R.T.P.P.P.P.P.P.T.T.R.",
"1X1X1X1X1X1X1X1X1X1X1X1X1X1X1X1X<X<X<X,X1X1X1X<X<X<X2X<X,X4X>X-.' ` ` ` _ ` ` ` ` ` ` ` ` ` ` ` ` ` ` ` ` ` ` ` ` ` ` ` ` ` ` ` ` ` ` ` ` ` ` ` ` ` ` ` ` ` ` ` ` ` ` ` ` ` ` ` ` ` ` ` ` ` ` ` ` ` ` ` ) ] ] E W V 0 9 7 7 d x i.i.l.`.yXtXjXjXhXxXcXnXCXSXFXSXGXGXGXGXGXGXJXJXJXJXJXJXJXJXJXJXJXGXJXJXJXAXnXcXcXxXxXbXCXAXJXJXJXJXJXJXJXJXJXJXJXJXJXJXJXJXJXJXJXJXJXJXJXJXJXJXJXJXJXJXJXJXJXJXAXGXJXJXGXGXGXJXSXAXAXSXJXJXPXPXJXJXGXSXGXGXJXJXPXSXnXbXXX].P.A B * - o X X .   .       . O 1 A {.NXPXPXKXHXCXHXZXCXCXCXZXZXCXCXhXA -     X . . . * T.bXVXVXCXVXVXVXVXlXlXlXlXlXlXlXlXlXlXlXlXVXVXZXZXZXZXKXKXHXHXJXJXJXJXJXFXSXJXJXJXJXJXJXJXJXJXJXJXJXJXJXJXJXJXJXJXJXJXJXJXJXJXJXJXJXJXJXJXJXGXKXGXJXJXFXSXSXSXJXHXKXHXVXVXBXl.O . . O {.LXLXLXLXLXLXLXLXLXLXLXLXLXLXLXLXLXLXPXLXLXNXyXW.l.E.yXtXjXhXrXxXyXA.Z p.p.l d d f x 7.7.7.7.7.7.7.7.7.7.7.7.7.8.l r t r j 6.8.7.7.8.8.8.8.8.8.8.8.8.8.8.8.8.8.6.8.8.8.8.8.8.6.6.8.8.7.6.6.6.v l p u u 8 m q W E E Q *.Q I F L L P J J J J J H H H K H H H K H H H H F H P I Y Y ]  . .| | ..~.(.(.(.(.(.(.(.(.(.#X#X#X X X X X X XXX X X X X.X.XXXXXXX X X X X|.|.|.oXoXoXOXOX}.{.{.}.OXOXoXoX|.XXXXXXXXXXXXXXXXXX X X XXXXXXXXX X X|.|. XXXXXXX X XXXXX.X|.OX{.^.Q.!.R.R.U.U.P.P.P.P.P.P.P.T.T.T.",
"1X1X1X1X1X1X1X1X1X1X1X1X1X1X1X1X<X<X1X1X1X1X1X<X<X<X<X<X<X4X>X-.' _ _ _ _ _ ` ` ` ` ` ` ` ` ` ` ` ` ` ` ` ` ` ` ` ` ` ` ` ` ` ` ` ` ` ` ` ` ` ` ` ` ` ` ` ` ` ` ` ` ` ` ` ` ` ` ` ` ` ` ` ` ` ` ` ` ` ` ] ] ] E U q 9 7 7 d g 2.i.i.j.`.yXtXxXjXhXhXxXbXNXAXSXSXGXGXGXGXGXGXJXJXJXJXJXJXJXJXJXJXGXJXJXJXJXGXCXbXcXxXxXcXnXDXJXJXJXJXJXJXJXJXJXJXJXJXJXJXJXJXJXJXJXJXJXJXJXJXJXJXJXJXJXJXJXJXJXJXPXPXJXJXGXGXGXJXJXJXJXJXJXJXJXJXSXSXSXGXJXGXAXDXAXGXJXJXJXGXDXNXXX{.l.B * - X   X     X X   . O B E.nXKXHXCXCXCXCXCXCXCXVXVXCXCXCXoXB o . .   .   . B .XnXnXCXVXVXVXlXlXlXlXlXlXlXlXlXlXlXlXlXlXVXVXZXZXZXZXHXHXHXHXJXJXJXGXGXGXJXJXJXJXJXJXJXJXJXJXJXJXJXJXJXJXJXJXJXJXJXJXJXJXJXJXJXJXJXJXJXJXKXKXHXJXHXFXSXSXSXJXHXHXHXCXVXBXl.O . . O ].LXLXLXLXLXLXLXLXLXLXLXLXPXLXLXLXLXLXLXKXbXE.S N M H.yXyXtXrXrXvXdXS.k.b b h e d z 6.7.7.7.7.7.7.7.7.7.7.7.7.7.6.j r t y j 6.8.7.7.8.8.8.8.8.8.8.8.8.8.8.8.8.8.8.8.8.8.8.6.8.8.8.8.8.7.6.5.l j y u 8 8 m q W E E Q Q *.Q I F L J J J J J J J H H K H H F H H H H H H F F H P I Y Y Y R { ~.(.(.(.(.(.(.(.(.(.}.}.#X#X#X X X X X X XXX X X X X.X.X.X.XXX X|.|.|.|.|.|.oXoXoXOXOXOX}.{.OXOXoXoXoX|.XXXXXXXXXXXXXXXXXX X X XXXXXXXXXXX XXX X|.|.|.|. X XXX.X|.OX{.].R.U.U.T.P.P.P.P.P.P.P.P.P.P.T.P.P.",
"1X1X1X1X1X1X1X1X1X1X1X1X1X1X1X1X<X<X1X1X1X1X<X<X<X<X<X<X<X4X>X-.' ` _ _ _ _ ` ` ` ` ` ` ` ` ` ` ` ` ` ` ` ` ` ` ` ` ` ` ` ` ` ` ` ` ` ` ` ` ` ` ` ` ` ` ` ` ` ` ` ` ` ` ` ` ` ` ` ` ` ` ` ` ` ` ` ` ` ` ] ] E R q 0 9 7 t d x 2.t.u.j.l.`.tXjXjXrXrXxXbXnXDXAXSXGXGXGXGXGXGXJXJXJXJXJXJXJXJXJXJXGXJXJXGXJXJXAXnXcXxXxXxXbXCXGXJXJXJXJXJXJXJXJXJXJXJXJXJXJXJXJXJXJXJXJXJXJXJXJXJXJXJXJXJXJXJXJXJXJXJXGXGXJXJXJXJXGXGXGXGXGXGXJXJXGXGXGXGXJXPXJXGXSXGXGXSXGXJXJXJXPXJXNXrXE.A 1 - X     X o .   . X * A oXNXCXCXCXnXCXCXVXnXnXVXCXCXnX{.S - X   X X   = H.hXbXVXVXVXVXVXVXVXlXlXlXlXlXlXlXlXlXlXlXVXVXVXVXZXZXZXZXHXHXHXHXKXJXJXGXJXJXJXJXJXJXJXJXJXJXJXJXJXJXJXJXJXJXJXJXJXJXJXJXJXJXJXJXJXJXJXJXJXJXJXJXHXFXSXSXSXJXHXKXHXVXVXBXl.O . . O ].LXLXLXLXLXLXLXLXLXLXLXPXPXLXLXLXLXPXZXuXl.N N 1 M J.uXkXjXrXrXvXdX'.k.x z t t f l 7.9.9.9.7.7.7.7.8.7.7.7.7.7.6.j r w p l 6.7.7.7.8.7.7.7.8.8.7.8.8.8.8.8.8.8.8.8.8.6.6.6.8.8.8.8.8.6.5.l j y u 8 8 m q U E *.*.Q @.*.Q I F L J J J J J J J H H J K H H H H H H H F H H H H H P P P V { (.(.}. X X#X#X#X#X#X#X X#X X X X X X X X XXX X X X X.X.X.X.X.X|.|.|.|.|.|.oXoXoXoXOXOXOXOX}.OXOXoXoX|. XXXXXXXXXXXXXXXXXXX X X X XXXXXXXXX XXXXX|.|.|. XXXXXXX.XOX{.].Q.T.P.P.P.P.P.P.P.P.P.T.T.T.T.P.P.P.",
"1X1X1X1X1X1X1X1X1X1X1X1X1X1X1X1X<X<X,X,X1X1X<X<X4X<X2X3X<X4X;.&._ ` ` _ _ _ ` ` ` ` ` ` ` ` ` ` ` ` ` ` ` ` ` ` ` ` ` ` ` ` ` ` ` ` ` ` ` ` ` ` ` ` ` ` ` ` ` ` ` ` ` ` ` ` ` ` ` ` ` ` ` ` ` ` ` ` ` ] ]  .E W q 9 7 t d g 2.i.s.u.i.l.`.yXjXjXrXrXhXcXbXNXDXSXGXGXGXGXGXGXJXJXJXJXJXJXJXJXJXJXGXJXJXGXJXPXGXDXcXcXxXhXcXNXSXJXJXJXJXJXJXJXJXJXJXJXJXJXJXJXJXJXJXJXJXJXJXJXJXJXJXJXJXJXJXJXJXJXGXGXGXGXJXGXGXSXGXJXPXPXPXJXJXJXJXJXGXGXGXGXSXAXGXGXGXJXGXAXDXAXJXJXJXGXDXbX{.P.B - X   . . . o o X - S ].bXCXnXbXnXCXZXCXVXnXNXCXCXCXOXB O . . o X o N W.kXbXVXBXBXBXVXVXlXlXlXlXlXlXlXlXlXlXlXlXVXVXVXZXZXZXZXZXHXHXHXHXHXKXKXJXJXJXJXJXJXJXJXJXJXJXJXJXJXJXJXJXJXJXJXJXJXJXJXJXJXJXJXJXJXJXJXKXKXGXFXFXFXSXSXSXJXAXHXHXZXVXVXH.- . X o ].LXLXLXLXLXLXLXLXLXLXLXLXLXLXPXLXKXBX`.C 1 1 M M M u.[.kXjXhXxXmXvXeXk.c d t e z 6.p.0.9.9.7.7.7.7.7.9.7.7.7.8.5.h r r h v 8.7.7.7.7.7.7.7.7.7.8.8.8.8.8.8.8.8.8.8.8.6.6.8.8.8.8.8.8.6.v j j y 8 8 m > K E *.*.@.@.@.*.*.I F L H J J J J J J J J J J H H H H H H F F H H F F F K V V V { (.#X#X#X#X@X@X@X@X@X@X X XoX X X X XXXXX.X.X X X X X.X.X.X.X.X|.|.oX|.oXoXoX}.OXOXOXOXOXOX}.OXOXoXoX|. XXXXXXXXXXXXXXXXXXX XXXXXXXXXXXXXXXXXXXXX X|. XXXXX%XXXoX{.^.Q.R.R.U.H.H.H.H.P.P.P.U.T.T.T.P.P.P.P.",
"1X1X1X1X1X1X1X1X1X1X1X1X1X1X1X1X<X<X,X,X1X1X<X<X4X<X2X3X<X4X;.&._ ` ` _ _ ` ` ` ` ` ` ` ` ` ` ` ` ` ` ` ` ` ` ` ` ` ` ` ` ` ` ` ` ` ` ` ` ` ` ` ` ` ` ` ` ` ` ` ` ` ` ` ` ` ` ` ` ` ` ` ` ` ` ` ` ` ] ] ]  .E V m 7 7 e g 4.3.s.a.j.i.u.l.[.tXjXrXrXhXxXbXnXCXAXGXGXGXGXGXGXJXJXJXJXJXJXJXJXJXJXGXJXJXGXGXJXJXAXbXbXxXhXxXnXDXJXJXJXJXJXJXJXJXJXJXJXJXJXJXJXJXJXJXJXJXJXJXJXJXJXJXJXJXJXJXJXJXJXJXJXJXGXGXSXGXJXGXSXAXAXAXAXAXDXCXCXCXDXAXGXJXPXGXGXGXJXGXAXGXJXAXAXDXAXJXJXAXCX.XH.D - O X . X X X X O B ].nXCXnXCXCXCXnXkXjX.X{.].OX].B O .   . X   O S ].|.kXbXBXVXVXVXVXVXVXVXVXVXVXVXVXVXVXlXlXVXVXVXVXZXZXZXZXHXHXKXKXKXKXJXJXJXJXJXJXJXJXJXJXJXJXJXJXJXJXJXJXJXJXJXJXJXJXJXJXJXJXJXJXJXJXKXKXGXFXFXFXSXSXSXJXAXHXHXZXVXVXH.- . . o ].LXLXLXLXLXLXLXLXLXLXLXLXLXLXLXPXkXJ.C 1 M M M M M M `.kXkXhXcXcXvXyXf.f t e h 6.7.d.9.9.9.9.7.7.7.7.9.7.7.7.8.l p r r h 5.8.7.7.7.7.7.7.7.7.7.7.7.7.8.8.8.8.8.8.8.8.6.8.8.8.8.8.6.6.5.l a p u 8 8 m q W *.*.@.Q @.%.*.*.I F L H J J J J J J J J J J L H H H H H H H H H K K K F V V V !.#X@X#X#X@X@X@X@X@X@X X X XoX X X X XXXXX.X.X X X X X.X.X.X.X.X|.|.|.oXoXOX}.OXOXOXOXOXOXOXOXoXoXoXoX X XXXXXXXXXXXXXXXXXXX XXXXXXXXXXXXXXXXXXXXX X X X XXXXXoX{.].Q.R.R.R.R.H.H.H.P.P.P.T.U.T.T.P.P.P.P.H.",
"1X1X1X1X1X1X1X1X1X1X1X1X1X1X1X1X<X<X,X,X1X1X<X<X4X<X2X3X<X4X;.&._ ` ` ` _ _ ` ` ` ` ` ` ` ` ` ` ` ` ` ` ` ` ` ` ` ` ` ` ` ` ` ` ` ` ` ` ` ` ` ` ` ` ` ` ` ` ` ` ` ` ` ` ` ` ` ` ` ` ` ` ` ` ` ` ` ` ] ] ] E W q 9 7 t i z 2.t.s.a.h.i.i.l.`.tXjXhXhXrXhXcXbXCXDXGXGXGXGXGXGXJXJXJXJXJXJXJXJXJXJXJXGXGXGXGXJXJXGXNXnXcXhXhXbXNXGXJXJXJXJXJXJXJXJXJXJXJXJXJXJXJXJXJXJXJXJXJXJXJXJXJXJXJXJXJXJXJXJXGXSXAXGXJXJXGXAXGXbX{.Y.A A A A A A A A A Y.{..XnXDXJXPXGXGXGXJXGXGXGXGXAXAXGXJXGXcXQ.S * O . X   . X . O S [.kXCXbXOXR.A S B N N N B B = o           X = B S A H.W.tXbXVXVXVXVXVXVXVXVXVXVXVXVXVXVXVXVXVXVXVXVXZXZXZXHXHXKXKXKXGXJXJXJXJXJXJXJXJXJXJXJXJXJXJXJXJXJXJXJXJXJXJXJXJXJXJXJXJXJXJXJXKXKXJXJXFXFXSXSXSXGXAXHXKXZXZXVXH.= . . X ).LXLXLXLXLXLXLXLXLXLXLXLXLXPXKXjXH.M M M M M M M M M J.kXkXhXcXcXvXfXA.x d h b 7.p.d.9.9.9.9.9.9.9.9.9.7.7.9.8.l y r y j 6.7.7.7.7.7.7.7.7.7.7.7.7.7.8.8.8.8.8.8.8.8.8.8.8.8.9.8.6.6.l a a p u 8 m q W E *.*.@.Q @.%.*.@.T F I H J J J J J J J J L J H H H H J P J J H H H H K K K V V !.#X#X#X@X X X X@X@X X X X X X X X XXXXXXX.X.X X X X X.X.X.X.X|.|.|.oXoXOX}.OXOXOXOXOXOX}.}.}.oXoXoX|.|.XXXXXXXXXXXXXXXXXXXX XXXXX X XXXXXXXXXXXXX X|.|.oXoXoX{.].W.R.R.R.U.U.H.P.P.P.P.T.U.U.T.P.P.P.P.P.H.",
"1X1X1X1X1X1X1X1X1X1X1X1X1X1X1X1X<X<X,X,X,X1X<X<X4X4X<X3X<X4X;.&._ ` ` ` ` _ ` ` ` ` ` ` ` ` ` ` ` ` ` ` ` ` ` ` ` ` ` ` ` ` ` ` ` ` ` ` ` ` ` ` ` ` ` ` ` ` ` ` ` ` ` ` ` ` ` ` ` ` ` ` ` ` ` ` ` ` ` ] ] E U m 9 7 t g 4.2.s.a.a.h.i.i.u.`.yXjXjXhXrXrXxXbXNXDXGXGXGXGXGXGXJXJXJXJXJXJXJXJXJXJXJXGXSXGXGXGXJXJXDXnXcXhXhXxXnXSXJXJXJXJXJXJXJXJXJXJXJXJXJXJXJXJXJXJXJXJXJXJXJXJXJXJXJXJXJXJXJXJXJXAXDXGXPXAXbX.XP.S 1 - o X X X o X .   X O * B A E.xXNXAXJXJXGXJXSXAXGXJXGXGXAXGXDXnX.XH.1 O X X   . . . = S H.A S D - o X o X X O o X O .   X .     X X   X O - 1 B S H.[.kXVXVXVXVXVXVXVXVXVXVXVXVXVXVXVXVXVXZXZXZXHXHXKXKXKXKXJXJXJXJXJXJXJXJXJXJXJXJXJXGXGXJXJXJXJXJXJXJXJXJXJXJXJXJXJXJXGXKXKXGXJXFXFXSXSXSXSXAXHXKXZXZXVXH.= X . X W.LXLXLXLXLXLXLXLXLXLXLXLXLXKXkXl.M M M M M M M M M M J.kXkXjXcXxXvXfXS.x f k 8.d.d.d.7.7.9.9.9.9.9.9.9.7.7.9.8.l y r y j 6.7.7.7.7.7.7.7.7.7.7.7.7.7.7.8.8.8.8.8.8.8.8.8.9.9.8.8.6.6.j y w y u m q K E *.*.@.@.#.@.%.*.@.T F L H H J J J J J J J J J J J J J J J J W J J J J U J K V V !.#X@X#X@X X X X X@X X X@X X@X X X XXXXXXXXX.X X X X X.X.X.X.X|.|.|.oXOX}.OXOXOXOXOXOXOX}.}.}.oXoXoX|.|.XXXXXXXXXXXXXXXXXXXX XXXXXXX XXXXXXXXX X X X|.oXOX}.{.W.W.E.!.R.R.P.P.H.P.P.P.T.U.T.T.P.P.P.P.P.P.H.",
"1X1X1X1X1X1X1X1X1X1X1X1X1X1X1X1X1X1X1X1X1X1X<X<X4X<X1X,X<X4X=.[ _ ` ` ` ` ` ` ` ` ` ` ` ` ` ` ` ` ` ` ` ` ` ` ` ` ` ` ` ` ` ` ` ` ` ` ` ` ` ` ` ` ` ` ` ` ` ` ` ` ` ` ` ` ` ` ` ` ` ` ` ` ` ` ` _ ` ] ] E W q 9 7 7 e g 2.t.t.t.u.u.u.u.j.l.`.yXvXrXrXsXxXcXnXCXAXGXGXGXGXGXJXJXJXJXJXJXJXJXJXJXJXJXJXJXJXJXJXJXGXAXnXcXhXrXcXNXGXSXGXJXJXJXGXGXJXJXJXJXJXJXJXJXJXJXJXJXJXJXJXJXJXJXJXJXJXJXJXJXJXJXSXCXhXR.S D - O o X o o X X   X X     X X X X = B A oXnXAXKXPXJXPXJXDXCXDXHXDXDXAXCXxXY.B - X . .   . X O O X . X X X X X X . . .   .   .   . . . . . . . . o X . o O 1 S A [.kXVXVXVXlXVXVXlXVXVXlXlXVXVXVXVXVXZXZXZXZXKXKXKXKXKXJXJXJXGXGXGXGXJXGXJXGXGXGXGXJXJXJXJXJXJXJXJXJXJXJXJXJXJXGXHXKXGXHXHXFXFXFXSXSXHXHXHXZXZXVX[.= o . X R.PXLXLXLXPXPXLXLXLXLXJXPXLXBXl.M M M M M M M M M M M B.uXkXjXhXzXvXdXS.Z k 7.d.9.d.7.7.7.7.7.9.9.9.9.7.9.0.7.6.h r r p l 8.7.7.7.7.7.7.7.7.7.7.7.7.7.8.8.8.8.8.8.8.8.8.8.8.8.8.6.v j p y u 8 9 q U E *.*.*.@.@.Q Q @.*.@.T I F H H H H H H H H J J J U U U U U U W W U W W W U U U U V !.#X@XoXoX X@X X X X X X X X X X X X X XXXXXXXXXXXXX.X.X.X.X.XXX X|.oXoXOXOXOX}.OXOXOXoXoXoXoXoXoXoXoX|.XXXXXXXXXXXXXXXXXXXXXXXXXX|.|.|.|..XXX X|.|.|.OX{.Q.!.Q.Q.E.E.T.P.P.P.P.P.T.R.E.T.T.U.U.U.P.P.P.H.H.",
"1X1X1X1X1X1X1X1X1X1X1X1X1X1X1X1X1X1X1X1X3X2X<X<X4X<X,X<X<X4X=.' _ ` ` ` ` ` ` ` ` ` ` ` ` ` ` ` ` ` ` ` ` ` ` ` ` ` ` ` ` ` ` ` ` ` ` ` ` ` ` ` ` ` ` ` ` ` ` ` ` ` ` ` ` ` ` ` ` ` ` ` ` ` ` ` _ ) ] ] E U q 9 7 t d z 2.s.a.t.t.y.y.u.j.l.`.yXtXtXrXrXrXxXbXNXAXGXJXGXGXJXJXGXJXJXJXJXJXJXJXJXJXJXJXJXJXJXJXJXJXGXCXbXxXrXxXnXDXSXGXJXJXJXGXSXJXJXJXJXJXJXJXJXJXJXJXJXJXJXJXJXJXJXJXJXJXJXJXJXPXDXcXR.B = X X X X   X o X X     . X X X X X   X X   O B P.XXDXAXGXAXDXNXnXnXnXDXCXNXbX.XP.B - X X .       . X . . . . . . . . .                   . .   . . . X o X X X o O O 1 S H.kXVXZXVXlXZXVXVXlXVXVXVXlXVXVXVXZXZXZXZXHXHXHXKXKXKXJXGXGXHXJXJXJXSXGXGXGXGXJXJXJXJXJXJXJXJXJXJXJXJXJXJXGXHXHXKXGXHXFXFXFXSXSXGXHXHXZXZXVX[.= o . X R.PXLXPXLXLXPXLXLXLXPXPXKXBX[.S M M M M M M M M M M M B.uXkXjXjXxXcXdX`.k.x p.d.9.9.7.7.9.7.9.9.9.9.9.7.9.9.7.5.h r r h v 8.7.7.7.7.7.7.7.7.7.7.7.7.7.8.8.8.8.8.8.8.8.8.8.8.8.6.v j f r u 8 8 q U E  .*.*.*.@.@.Q @.*.*.*.T I F H H H H P H H K J J U U W W W W U U U U U U W U U U U V !.@X@X@X7X7X X X X X@X@X@X@X@X X X X X XXXXXXXXXXXXXXX.X.X.X.XXX|.|.oXoXOXOX}.}.}.OXOXoXoXoXoXoXoXoXoX|.XXXXXXXXXXXXXXXX.X.X.XXXXX|.|.|.|.XXXX|.|.|.}.{.^.Q.R.Q.E.E.R.T.U.P.P.U.U.R.R.R.T.U.U.U.U.P.P.H.H.H.",
"1X1X1X1X1X1X1X1X1X1X1X1X1X1X1X1X1X1X1X1X3X2X<X<X<X<X<X<X2X2X-.' _ ` ` ` ` ` ` ` ` ` ` ` ` ` ` ` ` ` ` ` ` ` ` ` ` ` ` ` ` ` ` ` ` ` ` ` ` ` ` ` ` ` ` ` ` ` ` ` ` ` ` ` ` ` ` ` ` ` ` ` ` ` ` ` _ T T E Y q 9 9 t d g 2.t.s.s.a.r.y.y.h.j.j.S.uXyXtXrXrXXXrXbXNXDXGXJXJXGXJXJXGXJXJXJXJXJXJXJXJXJXJXJXJXJXJXJXJXJXJXSXCXbXhXhXbXNXDXJXJXGXJXGXAXJXJXJXJXJXJXJXJXJXJXJXJXJXJXJXJXJXJXJXJXJXJXJXJXPXSXbX{.P.A A A S S S S B D = O X X     X X       X X   . O B Q.bXDXDXNXnXnXbXbXhX{.P.S B * - o X o .                                                       . . . X X X . . . . . o = S [.kXVXVXVXVXVXVXlXlXlXlXVXVXVXVXZXZXZXZXHXHXHXKXKXKXJXJXGXGXGXGXSXSXGXGXJXJXJXJXJXJXJXJXJXJXJXJXJXJXJXGXHXHXHXGXHXFXFXFXSXSXGXHXHXZXZXVXOX1 o . X Y.PXLXLXLXLXLXLXLXJXPXLXNX[.S M M M M M M M M M M M M S [.kXjXxXcXcXsXeXl.8.p.d.9.7.8.9.9.9.9.9.9.9.9.9.9.9.7.v p r r j 5.8.7.7.7.7.7.7.7.7.7.7.7.7.7.8.8.8.8.8.8.8.8.8.8.8.b v j y y w u 8 m Z E $X*.*.*.*.@.@.@.*.*.*.*.T I H K J J J J K K J J U U W W W W U U n q q q q q q q q q V R _.OXoXsXzX X@X X X@X@X X X@X X X X XXXXXXXXXXXXXXXXXXXXX.X.XXX|.oXoXOXOX}.}.}.}.OXOXoXoXoXoX|.oXoXoX|.XXXXXXXXXXXXXX.X.X.X.XXX.X.X.X.X.XXXXX.X|.OX{.^.R.R.R.E.E.R.T.U.P.P.P.R.R.R.R.T.U.P.P.U.P.P.P.H.H.H.",
"1X1X1X1X1X1X1X1X1X1X1X1X1X1X1X1X1X1X1X1X3X2X<X<X<X<X<X<X2X,X-.) _ ` ` ` ` ` ` ` ` ` ` ` ` ` ` ` ` ` ` ` ` ` ` ` ` ` ` ` ` ` ` ` ` ` ` ` ` ` ` ` ` ` ` ` ` ` ` ` ` ` ` ` ` ` ` ` ` ` ` ` ` ` ` ` ` T T E U q 9 7 t d z 2.s.a.a.a.r.y.m.h.u.i.l.`.yXtXrXrXXXrXxXbXDXSXJXJXJXJXJXGXJXJXJXJXJXJXJXJXJXJXJXJXJXJXJXJXJXJXJXAXnXbXxXxXbXCXGXGXGXJXJXGXJXJXJXJXJXJXJXJXJXJXJXJXJXJXJXJXGXGXGXGXGXGXGXGXJXSXSXDXDXCXnXnXbXbXcXcXrX{.Q.U.A B = O X X X X X   . X     O * P.rXnXnXxX{.P.A B 1 - o . . . X X X . .   . . . . . . . . . . .                               .   . X X X o o o . . . O = S ].kXVXVXVXVXVXVXlXlXVXVXVXVXVXVXVXVXZXHXHXHXKXKXJXJXGXGXGXGXGXSXSXJXJXJXJXJXJXJXJXJXJXJXJXJXJXJXJXGXHXHXGXGXHXHXFXFXSXSXGXKXHXZXZXVXjXN . . X P.JXLXLXLXLXLXLXLXGXKXKXtXl.M M M M M M M M M M M M 6 C [.kXjXjXcXcXvXyXS.k.p.d.7.8.8.9.9.9.9.9.9.0.0.9.0.9.8.l y r y l 6.7.7.7.7.7.7.7.7.7.7.7.7.7.7.7.7.8.8.8.8.8.8.8.8.8.b j y r u u 8 8 n R G.$X*.*.*.*.@.@.*.*.*.*.*.E I K K J U J U U U U U U U W W W U n n q q 9 m m m m m m 0 0 Z A A.A._.XXsXsX@X@X X X@X@X X X X XXXXXXXXXXXXXXXXXXXXXXXXXXX|.|.oXoXOX}.}.}.{.}.}.OXoXoXoX|.|.|.|.|.|.XXXXXXXXXXXXXX.X.X.X.X.X.X|.|..XXXXXXX|.OX{.^.R.U.U.U.T.T.U.U.U.P.P.P.R.T.T.U.U.U.U.U.U.P.P.H.H.H.l.",
"1X1X1X1X1X1X1X1X1X1X1X1X1X1X1X1X1X1X1X1X3X<X<X<X<X<X<X1X2X>X-./ _ ` ` ` ` ` ` ` ` ` ` ` ` ` ` ` ` ` ` ` ` ` ` ` ` ` ` ` ` ` ` ` ` ` ` ` ` ` ` ` ` ` ` ` ` ` ` ` ` ` ` ` ` ` ` ` ` ` ` ` ` ` ` ` ` T T E U m 9 7 t g z 3.s.a.a.r.r.c.m.h.u.i.j.S.yXtXxXrXrXrXzXcXNXDXJXJXJXJXJXGXJXJXJXJXJXJXJXJXJXJXJXJXJXJXJXJXJXJXJXGXDXnXbXxXcXnXDXAXGXJXPXJXJXJXJXJXJXJXJXJXJXJXJXJXJXJXJXJXGXGXGXGXGXGXGXGXSXSXGXJXGXSXSXAXSXSXSXJXPXPXGXDXDXcX{.U.A B = O X     X X       - B A A S B - O .         X X o . . . . . . X X . . . . . . . .                                 . X X X . .     . . .   . O D S yXkXVXVXVXlXlXlXlXVXVXVXVXVXVXVXZXZXZXHXHXGXGXGXGXGXGXGXSXJXJXGXJXJXJXJXJXJXJXJXJXJXJXJXJXJXJXGXHXHXGXGXJXJXFXFXJXGXGXKXHXZXZXVXkXC o . . A DXLXLXLXLXLXLXLXJXKXZX`.C M M M M M M M M M M M M M S ).kXjXhXcXxXvXfXS.k.p.p.7.8.8.9.9.9.9.9.9.9.9.0.9.7.6.j r r p l 6.7.9.7.7.7.7.7.7.7.7.7.7.7.7.7.8.8.8.8.8.8.8.7.8.b v h y r t 8 9 q U E *.*.*.@.@.@.@.*.*.*.Q Q E E W K K K U U U U U U U V V n n n n q m m 8 9 9 9 9 9 9 9 9 9 0 c c C Z A._.OXXXsX@X@X@X@XoX X XXXXXXXXXXXXXXXXXXXXXXXXXXXXX|.|.oXoXOX}.}.{.{.{.}.OXoXoX|.|.XXXX.X|.|..XXXXXXXXXXXXX.X.X.X.X.X|.oX|..XXX.X.XOX{.^.!.U.U.P.P.P.P.P.U.U.U.T.T.U.U.U.U.U.U.U.U.U.T.P.H.H.A A ",
"1X1X1X1X1X1X1X1X1X1X1X1X1X1X1X1X1X1X1X1X3X<X<X<X<X1X<X1X2X>X&./ _ ` ` ` ` ` ` ` ` ` ` ` ` ` ` ` ` ` ` ` ` ` ` ` ` ` ` ` ` ` ` ` ` ` ` ` ` ` ` ` ` ` ` ` ` ` ` ` ` ` ` ` ` ` ` ` ` ` ` ` ` ` ` ` ` T T Y q 9 9 7 e g 4.3.s.a.a.r.r.y.c.c.u.i.u.l.uXtXxXtXrXzXhXzXnXCXGXJXGXGXGXGXJXJXJXJXJXJXJXJXJXJXJXJXJXJXJXJXJXGXJXJXGXDXnXbXxXbXCXDXGXJXPXJXJXJXJXJXJXJXJXJXJXJXJXJXJXJXJXJXGXGXGXGXGXJXGXGXSXGXJXJXJXJXGXJXJXSXSXSXGXJXJXGXJXSXJXPXDXxXE.A D O . X X     X   X X     . . .               .     . . . . . . . . . . . . . .                             .   . . . X . . . . . . . . . . X O N l.yXVXZXVXVXVXVXVXVXVXVXVXVXVXVXVXZXZXHXHXHXGXGXGXGXGXSXSXJXJXJXJXJXJXJXJXJXJXJXJXJXJXJXJXJXJXGXGXGXGXJXFXFXFXJXJXGXHXKXZXZXZXbXA O . . S nXLXLXPXLXLXLXLXKXZXkXB.M M M M M M M M M M M M M M S J.tXjXhXxXxXxXdXS.k.p.p.7.7.7.0.0.9.9.9.9.9.9.0.0.7.6.h r r h 5.8.9.9.7.7.7.7.7.7.7.7.7.7.7.7.9.9.7.7.8.8.8.8.7.8.b k y y w 8 9 q V W E *.*.*.@.@.@.*.*.*.*.Q *.E E W K U U U U U U U V q q q 8 8 8 8 8 8 8 8 8 7 7 7 7 7 7 8 d 7 7 7 < < c C A._.@XsX@X@X@X X XXXXXXXXXXXXXXXXXXXXXXXXXXXXXXX|.oXoXoXOX}.{.{.{.{.}.OXoXoX|. XXXXXXX.X.X.XXXXXXXXXXXXXXX.X.X.X.XoXoX.X.X.XoX}.{.^.R.U.P.U.U.P.P.P.P.P.U.T.R.R.P.P.U.U.U.U.P.P.P.P.H.H.l.A l.",
"1X1X1X1X1X1X1X1X1X1X1X1X1X1X1X1X1X1X1X1X<X<X<X<X<X1X1X<X2X;.&./ _ ` ` ` ` ` ` ` ` ` ` ` ` ` ` ` ` ` ` ` ` ` ` ` ` ` ` ` ` ` ` ` ` ` ` ` ` ` ` ` ` ` ` ` ` ` ` ` ` ` ` ` ` ` ` ` ` ` ` ` ` ` ` ` ] T E U q 9 7 t e g 2.s.a.a.a.r.r.z.r.y.y.u.u.j.`.yXdXtXrXhXrXzXbXNXAXGXGXGXGXGXJXJXJXJXJXJXJXJXJXJXJXJXJXJXJXJXJXGXJXJXGXGXDXnXcXbXNXDXGXJXGXGXGXGXGXGXGXGXGXGXJXJXJXJXJXJXJXJXGXGXGXGXGXGXGXGXSXSXSXJXJXJXDXDXGXSXDXDXSXSXSXSXSXDXDXSXPXPXDXbX{.B             . . .     .                 . .     . . .                                                       X         . . . . X X X .     . o - C H.kXVXVXlXVXVXVXVXVXVXVXVXVXVXVXZXCXAXHXAXGXGXAXGXFXFXFXJXJXJXJXJXJXJXJXJXJXJXJXJXJXJXJXJXGXGXGXJXJXFXFXFXJXJXKXKXHXZXZXVXVXH.- .   S cXLXLXLXLXLXLXLXPXVXuXw.M M M M M M M M M M M M M M M l.[.jX&XhXzXsXdXS.k.p.p.9.d.d.0.0.0.9.9.9.9.9.d.0.7.5.p w r j 6.7.0.9.7.7.9.7.7.7.7.7.7.7.7.7.7.7.9.9.8.8.8.8.8.b v h y y u 8 m q W E *.*.@.@.@.@.@.*.*.*.*.*.*.G.E W U V V V V n n q q m 8 8 8 u 7 7 7 8 7 8 8 u f f f f u 8 u t t t 2 < < 0 C l._. X@X@X@X@X XXXXXXXXXXXXXXXXXXX%X%X%XXXXX%X|.oXoXOX}.{.{.{.{.{.}.OXoXoX XXXXXXXXX.XoX.X.X.X.X.X.XXXXXXX.X.X.X.X.X.X.XoX{.].Q.!.U.U.P.P.U.U.P.P.U.U.U.U.T.T.P.U.U.T.U.P.P.P.H.H.H.l.l.l.H.",
"1X1X1X1X1X1X1X1X1X1X1X1X1X1X1X1X1X1X1X1X<X<X<X<X<X1X1X<X2X;.&./ _ ` ` ` ` ` ` ` ` ` ` ` ` ` ` ` ` ` ` ` ` ` ` ` ` ` ` ` ` ` ` ` ` ` ` ` ` ` ` ` ` ` ` ` ` ` ` ` ` ` ` ` ` ` ` ` ` ` ` ` ` ` ` ` ] T Y V 9 9 t e i g 2.s.b.m.a.r.z.z.r.r.h.y.u.u.S.yXdXtXtXrXrXzXcXnXAXGXGXGXJXGXJXJXJXJXJXJXJXJXJXJXJXJXJXJXJXJXJXJXJXJXGXGXAXNXvXbXnXDXGXGXGXGXGXGXGXGXGXGXGXGXJXJXJXJXJXJXJXJXGXGXGXGXGXGXGXGXAXSXSXSXAXSXSXJXSXSXSXSXGXJXSXSXSXSXSXIXJXDXzX{.P.* . X X     .       . .   . .   . X X .         . X X X X . .                                                 X       X X .     . . . . . .   . . o = A OXBXVXVXVXVXVXVXVXVXVXVXVXVXZXZXCXHXAXHXHXGXGXFXFXFXFXJXJXJXJXJXJXJXJXJXJXJXJXJXJXJXJXGXGXJXJXFXJXFXFXJXGXGXKXKXHXZXVXVXT.- X   B xXLXLXLXLXLXLXLXPXBXJ.q.M M M M M M M M M M M M M M 6 N E.rX.XhXhXrXdX`.k.p.p.p.d.d.0.0.0.0.9.9.9.9.d.0.7.5.p t r j 6.7.0.9.7.7.9.7.7.7.7.7.7.7.7.7.7.7.9.9.8.8.8.8.8.b h u u u u 8 q H E *.*.@.@.@.o.o.o.@.*.*.@.] G.G.E W n n n n n m m 0 8 7 8 8 f y u t 7 t t t k v b 8.8.b v k y y e e e d d < 7 c A.'.sX@X X@XXXXXXXXXXXXXXXXX%XXX%X%X%XXXXXXX|.oXoXOX}.{.{.{.{.{.{.OXoX|. XXXXXXXXX.XoX.X.X.X.X.X.X.XXXXXXX%XXX.X.X.X.XOX{.W.U.U.U.U.P.P.U.E.Y.T.T.U.U.U.U.U.P.U.T.T.U.P.P.H.H.A A A A H.H.",
"1X1X1X1X1X1X1X1X1X1X1X1X1X1X1X1X1X1X1X1X2X2X<X<X1X1X<X<X4X=.[ ) _ ` ` ` ` ` ` ` ` ` ` ` ` ` ` ` ` ` ` ` ` ` ` ` ` ` ` ` ` ` ` ` ` ` ` ` ` ` ` ` ` ` ` ` ` ` ` ` ` ` ` ` ` ` ` ` ` ` ` ` ` ` ` ` ] ] W q 9 7 t e g 2.s.s.a.a.h.m.b.c.c.c.y.y.u.u.j.uXyXtXtXsXzXhXhXbXDXSXGXJXJXGXJXJXJXJXJXJXJXJXJXJXJXJXJXJXJXJXJXJXJXJXJXJXJXJXNXNXNXCXHXGXGXHXJXJXJXJXJXJXJXJXGXGXGXJXJXSXGXJXJXGXAXSXGXSXDXNXxXcXcXcXcXbXnXDXSXSXSXGXGXSXSXSXJXSXnXzX{.A B * O X                   . .           X X X X X X X X X X X X X X         X X X X X X X . .             . X X .     X .       X . .   .         . . . . o $ N H.kXVXVXlXVXVXVXlXVXVXVXVXVXZXZXCXAXHXHXAXAXFXFXHXHXJXJXJXJXJXJXJXJXJXJXJXJXJXJXJXJXJXJXJXJXJXJXJXJXGXGXGXKXKXKXZXZXVXOXD . o = OXPXPXPXLXLXLXLXKXuXq.M M M M q.M M q.M M M M M 6 6 $ = ).jX.XhXrXxXsX'.k.k.g.p.d.d.0.0.0.9.9.9.9.9.9.0.9.l r w r v 9.9.9.9.9.9.9.9.7.7.9.9.7.7.7.7.7.7.7.7.9.8.8.b b v y u w u y m U T ] @.o.o.o.o.` ] T ] ] ] ] E G.R Z q q m m m 7 9 9 7 7 f j l k f u 7 7 7 f k b 8.p.g.C.C.g.g.9.5.p e e e t t 7 7 c A.OXsXxXzXXXXXXXXXXXXXXXXX%X%X%X%XXXXXXXXX|.oXoXOX}.{.{.{.{.{.}.OXoX|. XXXXXXXXXXXXXXX.X.XoX.X.X.X.X.X%XhX.X.X.X.X}.].E.P.P.P.P.T.T.T.R.R.E.E.T.U.U.U.U.T.U.U.T.U.P.H.l.A A A l.H.H.P.U.",
"1X1X1X1X1X1X1X1X1X1X1X1X1X1X1X1X1X1X1X1X2X2X<X<X1X1X<X<X4X=.[ ) _ ` ` ` ` ` ` ` ` ` ` ` ` ` ` ` ` ` ` ` ` ` ` ` ` ` ` ` ` ` ` ` ` ` ` ` ` ` ` ` ` ` ` ` ` ` ` ` ` ` ` ` ` ` ` ` ` ` ` ` ` ` ` ` ] E U m 9 t w e g 2.s.b.a.b.m.m.c.c.c.c.y.y.y.u.j.`.yXtXtXtXrXzXhXbXNXAXGXJXJXGXJXJXJXJXJXJXJXJXJXJXJXJXJXJXJXJXJXJXJXJXJXJXJXJXCXNXNXCXAXGXGXHXJXJXJXJXJXJXJXJXPXJXGXGXJXJXGXAXDXDXSXGXnXoXP.S B S S S S S S S A A P.Q.{.zXbXnXcX{.A B = O X             X X X .           . X X X X . . X X X . X X O - * B B S S S S S A A A S S S S S B B B 1 = O X X X .   X             X       . . X .   . . . . . O N S kXVXVXlXlXVXVXlXVXVXVXVXVXZXZXHXHXHXAXAXHXFXJXHXJXJXJXJXJXJXJXJXJXJXJXJXJXJXJXJXJXJXJXJXJXJXJXJXGXGXGXJXKXKXZXZXVXjXN . . - {.PXLXLXLXLXLXPXCXJ.M M M M M M q.M M M M M M 6 $ o o $ U.jXrXhXXXxXsXeXl.k.p.p.p.p.0.0.0.9.0.9.9.9.9.0.7.j r w r v 9.9.9.9.9.9.9.9.7.7.9.9.7.7.7.7.7.7.7.9.9.9.b b j y y w u u y 8 W E  . .] @.@.@.E E E E E E Y W Z n m 9 9 7 8 u d d f z z l l l h y t 7 7 u f l 8.7.p.g.f.C.f.f.d.7.j p i e e e t 7 0 C A.OXsXsXXXXXXXXXXXXXXXXX%X%X%X%XXXXXXX X|.oXOXOX}.{.{.{.{.}.OXOXoX|. XXXXXXXXXXXXXXX.X.X.X.X.X.X.X.X.X.XXX.XoX{.{.W.E.T.U.U.U.T.T.T.R.R.R.R.T.T.Y.Y.Y.Y.P.P.P.P.H.H.A A l.H.H.H.P.U.R.",
"1X1X1X1X1X1X1X1X1X1X1X1X1X1X1X1X1X1X1X1X2X2X<X<X1X1X<X4X4X=.' _ _ ` ` ` ` ` ` ` ` ` ` ` ` ` ` ` ` ` ` ` ` ` ` ` ` ` ` ` ` ` ` ` ` ` ` ` ` ` ` ` ` ` ` ` ` ` ` ` ` ` ` ` ` ` ` ` ` ` ` ` ` ` ` ` ] Y q 9 7 w i i 4.3.a.b.b.m.m.b.c.c.c.c.c.y.y.u.i.l.uXtXdXtXrXzXhXcXnXDXJXJXJXGXJXJXJXJXJXJXJXJXJXJXJXJXJXJXJXJXJXJXJXJXJXJXJXJXAXAXCXDXAXHXHXHXJXJXJXJXJXJXJXJXJXJXGXJXGXGXGXPXJXnXOXR.A B O   X X X X X X       . O - * B S A B * O         X .                   . X .       X .     . X O - * B A Y.Q.{.oXzXnXnXnXnXUXDXDXDXNXDXNXnXnXmXxXrXXX{.Y.A A B * - O O       .             . .     . . .     . . O S [.BXVXBXVXVXVXVXVXVXVXVXVXZXHXHXHXAXAXHXHXJXJXJXJXJXJXJXJXJXJXJXJXJXJXJXJXJXJXJXFXFXFXJXJXJXJXGXGXGXKXKXKXHXZXVXbXB X   X {.LXLXLXLXLXLXKXkXB.M q.q.M M M M M C B.B.J.C 6 o o o O l.rXhXhX.XxXsXyXA.Z p.p.p.9.0.0.0.0.0.0.9.9.9.0.7.j r w y 5.9.9.9.9.9.9.9.9.7.7.7.9.7.7.7.7.7.7.7.9.9.9.b l y u u w w u y u q q U U K K K K K U U U V q q m 9 9 9 9 7 7 u d x 6.7.d.d.8.6.l y w s 7 t f l b p.p.p.d.g.f.C.C.C.d.8.l p e w e t d 7 7 Z `.yXsXrXXXXXXXXXXXXXXX%XXX%XXXXX X X XoXoXOXOX}.{.{.{.}.}.OXoXoX|. XXX%XXXXXXXXXXXXX.X.X.X.X|.|.|..X.X.XoX{.].Q.E.T.T.T.T.T.T.T.T.T.T.T.T.T.T.T.Y.U.P.P.H.H.H.H.l.A A H.P.P.U.T.E.E.",
"1X1X1X1X1X1X1X1X1X1X1X1X1X1X1X1X1X1X1X<X2X2X<X1X1X1X1X<X4X-.) ) _ ` ` ` ` ` ` ` ` ` ` ` ` ` ` ` ` ` ` ` ` ` ` ` ` ` ` ` ` ` ` ` ` ` ` ` ` ` ` ` ` ` ` ` ` ` ` ` ` ` ` ` ` ` ` ` ` ` ` ` ` ` ` ` ] W q 9 7 i i i 2.t.b.m.b.b.m.b.c.c.c.c.m.y.y.u.i.j.`.yXvXdXsXzXhXhXbXCXGXJXJXGXJXJXJXJXJXJXJXJXJXJXJXJXJXJXJXJXJXJXJXJXJXJXJXJXHXHXAXAXAXHXHXHXJXJXJXJXJXJXJXJXJXJXGXGXJXGXCXnX{.l.B - O X . .                     . . .               . X X .       .                   X X O - = B S A Y.Q.W.}.cXSXPXPXSXPXLXPXPXPXPXLXLXLXLXLXLXLXLXLXLXPXPXLXPXPXSXnXcXOX^.{ S B - X     .               .     . X X     . o N E.kXVXVXVXVXVXVXVXVXVXVXZXZXHXHXHXHXHXJXHXHXJXJXJXJXJXJXJXJXJXJXJXJXJXJXJXJXFXFXFXFXJXJXJXJXGXGXGXGXKXKXHXZXCXCXS o   . Q.PXLXLXLXPXLXZXuXM q.q.q.M M M M M B.uXkXBXyXl.= o o o S .XhXXX.XxXsXyXS.k.k.p.p.7.0.0.0.0.0.0.0.9.0.9.8.h w r p 6.9.9.9.9.9.9.9.9.7.7.7.7.7.7.7.7.9.7.7.9.9.8.v h y u u w u u y u 8 8 m m 9 m m 9 9 9 9 8 8 8 9 9 7 7 t t f z x 6.p.d.N.N.f.d.6.j w t s s r l 6.8.p.p.p.d.g.g.f.C.C.C.d.7.l i w w t r 7 < c l.'.tXsXXXXXXXXXXXXX%XXXXXXX X X|.|.|.oXoXOXOX}.}.}.}.OXOXoXoXoX|. XXXXXXXXXXXXXXXXX.X.X.X|.|.|.|.|.oXOX{.].E.T.U.T.E.E.R.R.R.R.T.T.T.T.T.T.T.T.Y.P.P.H.H.l.A A l.H.H.P.U.T.R.E.E.E.",
"1X1X1X1X1X1X1X1X1X1X1X1X1X1X1X1X1X1X<X<X2X2X<X1X1X1X<X<X4X-./ ) _ ` ` ` ` ` ` ` ` ` ` ` ` ` ` ` ` ` ` ` ` ` ` ` ` ` ` ` ` ` ` ` ` ` ` ` ` ` ` ` ` ` ` ` ` ` ` ` ` ` ` ` ` ` ` ` ` ` ` ` ` ` ` ] E U 9 9 t i i g t.a.b.b.b.c.c.z.z.z.z.r.y.y.y.y.u.i.l.yXdXvXxXxXzXhXcXnXAXJXJXJXJXJXJXJXJXJXJXJXJXJXJXJXJXJXJXJXJXJXJXJXJXJXJXJXGXHXHXAXHXHXGXGXJXJXJXJXJXJXJXJXJXPXJXAXAXnX].A = - o X o O o X       .             . . X X .   X X X X             .             X O - * B A A.Q.{.sXnXIXLXLXLXLXLXLXLXLXLXLXLXPXPXPXLXLXLXLXLXPXPXPXLXLXLXLXLXLXLXLXLXLXLXLXPXSXbX XQ.S = X       . X               X X X . . . o D H.kXBXVXVXVXVXVXVXVXVXVXZXZXZXAXHXHXJXFXFXJXJXJXJXJXJXJXJXJXJXJXJXJXJXJXJXFXFXFXFXJXJXJXJXGXGXGXGXHXHXHXZXZXVXS O X X P.SXLXLXLXPXLXBXJ.M q.q.q.M M M M B.yXZXKXPXLXBXH.$ . o B {.hXXXXXjXrXdXS.k.k.p.p.7.d.0.0.0.0.0.0.0.0.9.8.h w r h 8.9.9.9.9.9.9.9.9.7.7.7.7.7.7.7.7.9.9.7.9.7.6.j y u u u u w w w w y y u u u u u u u u w r p h j z z l b 6.8.7.p.s.d.g.N.f.d.6.j r t s t r j 6.8.9.p.d.d.g.g.g.g.g.C.C.C.d.8.h i w w r d t 7 c A.yXsXrXXXXXXXXXXX%XXXXX X X|.|.|.oXoXOXOX}.}.}.OXOXOXoXoXoX|. XXXXXXXXXXXXXXXXX.X.X.X.X|.|.|.|.oXOX].].Q.T.P.P.T.E.E.E.R.R.R.T.T.T.T.R.T.T.P.P.H.H.A A A A l.H.P.U.R.R.E.E.R.T.U.",
"1X1X1X1X1X1X1X1X1X1X1X1X1X1X1X1X1X1X<X<X2X2X<X1X1X1X<X<X4X-./ ) _ ` ` ` ` ` ` ` ` ` ` ` ` ` ` ` ` ` ` ` ` ` ` ` ` ` ` ` ` ` ` ` ` ` ` ` ` ` ` ` ` ` ` ` ` ` ` ` ` ` ` ` ` ` ` ` ` ` ` ` ` ` ` ] E q 9 7 w i i 4.s.a.m.b.z.c.c.z.z.z.z.y.y.y.y.y.y.i.j.`.yXvXvXxXzXhXxXbXCXSXJXJXJXJXJXJXJXJXJXJXJXJXJXJXJXJXJXJXJXJXJXJXJXJXJXJXJXGXHXHXHXHXJXJXJXJXJXJXJXJXJXJXHXKXPXDX.XA * O X X . X o o X .                                   X X X       X           X - - B S A Q.OXcXNXSXLXLXLXLXLXLXLXLXLXLXLXLXLXLXLXLXLXLXLXLXLXLXLXLXLXLXLXLXLXLXLXLXLXLXLXLXLXLXLXLXLXPXLXLXDX{.S -                         . . . . . . o = A kXVXVXVXVXlXlXVXVXVXVXZXZXHXHXJXJXFXFXJXJXJXJXJXJXJXJXJXJXJXJXJXJXJXJXFXFXFXFXJXJXJXJXGXGXGXGXHXHXHXZXZXVXH.- X X A nXLXLXLXLXPXkXJ.M q.q.q.q.M M B.[.ZXPXPXPXLXLXcXB o . B ].rX.XrXhXrXdX`.k.k.p.d.9.d.d.0.0.0.0.0.0.0.7.6.p w r h 8.9.9.9.9.9.9.9.9.7.7.7.7.7.7.7.7.9.9.9.7.6.l f r t t t t r e e w w w i i i a a a a a 4.4.4.2.7.0.0.s.s.s.s.s.s.s.g.g.d.s.6.z r t t w r h v 8.p.p.p.p.d.g.f.f.g.g.C.C.C.C.0.5.a w a e d d 7 7 Z '.sXXXXXXXXXXXXXXXXXXX X|.|.OXOXOXOXOXOX}.}.OXOXOXoXoXoXoX|. XXXXXXXXXXXXXXXXX.X.X.X.X.X.X.XoX{.{.Q.E.R.T.T.T.T.T.R.R.R.T.T.T.T.T.R.T.U.P.P.H.H.^ A A l.H.H.P.T.R.R.R.R.R.T.U.P.",
"1X1X1X1X1X1X1X1X1X1X1X1X1X1X1X1X<X<X<X<X2X2X<X<X1X1X<X<X4X-./ ) _ ` ` ` ` ` ` ` ` ` ` ` ` ` ` ` ` ` ` ` ` ` ` ` ` ` ` ` ` ` ` ` ` ` ` ` ` ` ` ` ` ` ` ` ` ` ` ` ` ` ` ` ` ` ` ` ` ` ` ` ` ` ` ] W q 9 u i i <.3.s.a.a.a.z.z.z.z.z.z.r.y.y.y.y.y.r.u.j.l.uXtXvXjXzXhXxXcXnXAXJXJXJXJXJXJXJXJXJXJXJXJXJXJXJXJXJXJXJXJXJXJXJXJXJXJXGXGXGXGXGXJXJXJXJXJXJXJXJXJXJXJXAXCXnX{.S -     X X .     . o o - - O .     X X X .                 X X       X X O = B S P.W.OXmXnXSXPXLXLXLXLXLXLXLXLXLXLXLXLXPXLXLXLXLXPXLXLXLXLXLXLXLXLXLXLXLXLXLXLXLXLXLXLXLXLXLXLXLXLXLXLXLXLXPXLXLXPXmX].B = O                     . X X   o o . $ l.yXlXVXlXlXlXVXVXVXVXZXZXHXHXJXJXFXFXJXJXJXJXJXJXJXJXJXJXJXJXJXJXJXJXFXFXFXFXJXJXJXJXJXGXGXGXHXHXHXHXHXCX[.* X . B xXLXLXLXLXKXuXB.M q.q.q.q.M M J.lXKXPXPXLXPXLXFXH.O . = E.hX.X.XhXrXdX`.k.k.p.d.p.d.d.d.0.0.0.0.0.0.7.6.y t r j 7.9.9.9.9.9.9.9.9.7.7.9.9.7.7.7.7.9.9.9.8.v j y t t t t e e r d d i i g 4.4.4.4.4.4.4.2.3.3.0.n.n.s.s.s.s.d.s.s.s.f.s.s.8.k f t t w p j 6.8.9.p.p.p.p.d.g.g.f.f.g.C.g.f.C.f.0.5.a a y r t 7 < c A.rXXXXXXXXXXXXXXXXXXX|.|.|.OXOXOXOX}.}.}.}.OXOXOXoXoXoX|.|. XXXXX.X.XXXXXXXXX.X.X.X.X.X.XoX}.].W.T.R.T.R.T.T.T.T.T.T.T.T.T.T.T.T.T.U.P.H.H.H.H.l.H.H.H.P.T.R.E.E.R.R.T.U.U.P.P.",
"1X1X1X1X1X1X1X1X1X1X1X1X1X1X1X1X1X1X1X<X2X2X<X<X<X1X<X4X4X-./ _ _ ` ` ` ` ` ` ` ` ` ` ` ` ` ` ` ` ` ` ` ` ` ` ` ` ` ` ` ` ` ` ` ` ` ` ` ` ` ` ` ` ` ` ` ` ` ` ` ` ` ` ` ` ` ` ` ` ` ` ` ` ` ` ] U m 9 u i 3 g 3.s.a.a.r.z.z.c.z.z.z.r.y.y.y.y.y.r.h.u.l.`.yXdXsXxXxXzXcXbXDXJXJXJXJXJXJXJXJXJXJXJXJXJXJXJXJXJXJXJXJXJXJXJXJXJXJXGXGXJXJXJXJXJXJXJXJXJXJXJXJXJXJXPXnXQ.B - X X X . - * B S A H.H.A S * O       .         . .             X O = * S P.{.mXDXGXPXLXPXLXLXLXPXPXLXLXLXLXLXPXPXLXLXLXLXLXLXLXLXLXLXLXLXLXLXLXLXLXLXLXPXPXLXLXLXLXLXLXLXLXLXLXPXLXLXLXLXLXPXPXLXLXLXLXcXQ.B O                     X X X X o o . $ l.yXBXVXVXlXVXVXVXVXZXZXHXKXKXKXJXHXJXJXJXJXJXJXJXJXJXJXJXJXJXJXJXJXFXFXFXFXJXJXJXJXJXGXSXGXHXHXHXHXHXCXhXD X   * .XLXLXLXLXKX[.q.w.q.q.q.q.q.q.[.ZXPXPXKXLXPXLXLX{.= . - R.zX.X.XrXrXdX`.k.p.p.d.d.d.d.d.d.0.0.0.0.0.7.6.y t r j 7.9.9.9.9.9.9.9.9.7.7.9.9.7.7.7.7.9.9.9.6.l f r r e e d d g g g g 4.4.2.3.3.3.3.3.0.0.0.0.0.n.n.n.n.n.s.s.f.g.d.d.s.s.8.l h r t t r h 5.8.7.p.p.p.p.p.d.d.g.f.f.C.C.g.g.C.C.d.5.a a a p t d d c k.rXXXXXXXXXXXXXXXXXXX X|.oXOXOXOX}.}.}.}.}.OXOXoXoXoX|.|. X XXX.X.X.X.XXXXXXX.X.X.X.X.X|.OX{.W.T.R.R.T.T.T.T.T.T.T.T.T.T.T.T.T.T.U.P.P.H.H.H.H.l.H.H.P.T.E.E.E.E.R.U.U.P.P.P.U.",
"1X1X1X1X1X1X1X1X1X1X1X1X1X1X1X1X1X1X1X1X<X2X2X<X3X<X<X4X;.&./ _ _ ` ` ` ` ` ` ` ` ` ` ` ` ` ` ` ` ` ` ` ` ` ` ` ` ` ` ` ` ` ` ` ` ` ` ` ` ` ` ` ` ` ` ` ` ` ` ` ` ` ` ` ` _ ` ` ` ` T _ _ ` ] Y q u 7 t t e 4.s.a.a.a.m.b.b.c.c.b.b.b.b.c.c.c.c.r.u.u.u.l.uXdXtXsXzXxXzXcXnXSXIXSXGXGXGXJXJXJXJXJXJXJXJXJXJXJXJXJXJXJXJXJXJXJXJXGXGXGXGXGXGXGXGXGXGXJXPXGXAXAXGXNXY.* O O = B B A E.{.rXbXnXcX{.A B O X X .             X X X .   - B S A R.{.XXNXSXLXLXLXPXLXLXLXLXLXLXLXLXLXLXLXLXLXLXLXLXLXLXLXLXLXLXLXLXLXLXLXLXLXLXLXLXLXLXLXLXLXLXLXLXLXLXLXLXLXLXLXLXLXLXLXLXLXLXLXLXLXLXLXSXcXP.* X   X               .   . . .   . = S OXBXVXVXVXVXlXVXVXVXZXZXHXKXKXKXKXJXJXJXJXJXJXJXJXJXJXJXJXJXJXJXJXJXJXJXJXJXJXJXGXGXGXGXGXGXHXHXKXZXnXS o X - OXLXPXLXLXKXJ.w.w.w.q.q.q.M B.kXKXPXPXLXPXPXLXPXzXB . O H.%X|..XhXrXsX'.l.k.p.p.d.d.d.d.d.d.d.0.0.0.d.v r w y v 8.9.9.9.9.9.9.9.9.d.0.9.9.9.9.7.7.8.0.7.j r r r r h d g 2.s.s.t.t.s.s.s.s.n.n.n.n.n.n.n.n.n.n.n.n.n.n.n.s.s.s.g.s.s.7.l p w t r y l 5.8.7.9.p.d.p.d.d.d.d.g.g.g.g.C.C.C.C.C.f.0.5.a i y r d d 0 Z '.sXrXXXXXXX|.oX X XoXoXoXOXOX}.}.}.OXoXoXoXoXoX.X.X.X.XXXXXXXXX.X.XrXrX.X.X.X.X.X.X.XOX{.Q.E.R.R.E.R.R.R.T.T.Y.T.T.T.T.U.P.P.H.H.H.H.A A H.H.H.U.T.E.E.E.E.R.T.P.P.P.U.U.Y.T.",
"1X1X1X1X1X1X1X1X1X1X1X1X1X1X1X1X1X:.1X1X<X2X2X2X3X<X<X4X;.&._ _ _ ` ` ` ` ` ` ` ` ` ` ` ` ` ` ` ` ` ` ` ` ` ` ` ` ` ` ` ` ` ` ` ` ` ` ` ` ` ` ` ` ` ` ` ` ` ` ` ` ` ` ` ` _ _ ` ` o._ _ _ ] E W m u t t e d 2.s.a.a.a.h.b.b.c.c.b.m.b.b.c.c.c.c.y.y.u.u.l.`.yXdXsXxXzXzXzXbXDXFXGXGXGXGXJXJXJXJXJXJXJXJXJXJXJXJXJXJXJXJXJXJXJXJXGXGXGXGXGXGXGXGXPXJXGXGXGXGXAXAXP.B = B l.).XXnXGXPXPXDXbX{.A B - X           . X .   X O - * B S P.|.nXGXPXLXLXPXLXLXLXLXLXLXLXLXLXLXLXLXLXLXLXLXLXLXLXLXLXLXLXLXLXLXLXLXLXLXLXLXLXLXLXLXLXLXLXLXLXLXLXLXLXLXLXLXLXLXLXLXLXLXLXLXLXLXLXLXLXLXLXLXLXLXDXOXA *     X X     O X       . X .   X - S [.VXVXVXVXVXlXVXVXZXZXKXKXKXKXKXJXJXJXJXJXJXJXJXJXJXJXJXJXJXJXJXJXJXJXJXJXJXJXGXGXGXGXGXGXGXHXKXZXCXA O o O ).PXPXLXLXZXJ.w.w.w.w.q.w.q.J.lXPXLXPXPXPXPXLXLXbXB . o A XX XXXzXsXsX'.l.k.p.d.d.d.d.d.d.d.0.d.0.0.0.v r w y v 7.9.9.9.9.9.9.9.9.d.0.9.9.9.9.7.7.7.9.8.j r r r w e d 4.s.s.a.t.r.n.n.n.n.n.n.n.n.n.n.n.n.n.n.n.s.n.n.n.n.s.s.s.s.7.2.h r t w y h b 8.7.9.d.d.d.d.d.d.d.d.g.g.g.g.C.C.C.C.C.C.0.5.a p i e d d 7 Z {.rXrXXXXXXXXXXX X XoXoXoXOXOX}.}.}.OXOXoXoXoXoX.X.X.X.XXXXXXXXX.X.X.X.X.X.X.X.X.X.XOX{.W.R.R.R.R.R.R.R.R.R.R.R.T.T.U.P.P.H.H.H.H.H.l.H.H.H.P.P.T.R.E.E.R.R.U.P.P.P.U.U.Y.T.R.",
"1X1X1X1X1X1X1X1X1X1X1X1X1X1X1X1X1X:.1X1X<X2X2X2X<X<X4X4X;.&.o.o._ ` ` ` ` ` ` ` ` ` ` ` ` ` ` ` ` ` ` ` ` ` ` ` ` ` ` ` ` ` ` ` ` ` ` ` ` ` ` ` ` ` ` ` ` ` ` ` ` ` ` ` ` _ ` ` o.o._ _ _ ] E V 8 t t t e g i.s.a.h.h.h.b.b.c.c.b.m.b.b.c.c.c.c.m.y.u.u.u.l.uXdXxXxXzXzXxXcXnXSXJXJXJXGXGXGXJXJXJXJXJXJXJXJXJXJXJXJXJXJXJXJXJXJXGXGXGXGXGXGXGXGXPXPXJXGXHXAXNXvXE.U.W.hXNXDXAXSXPXJXnX{.A * O O .     .           O 1 S l.W.oXzXNXSXPXLXLXLXLXLXLXLXLXLXLXLXLXLXLXLXLXLXLXLXLXLXLXLXLXLXLXLXLXLXLXLXLXLXLXLXLXLXLXLXLXLXLXLXLXLXLXLXLXLXLXLXLXLXLXLXLXLXLXLXLXLXLXLXLXLXLXLXLXLXLXLXLXLXLXDX{.S O X     X X           . X       O S rXVXVXVXVXlXVXVXZXZXZXKXKXKXKXJXJXJXJXJXJXJXJXJXJXJXJXJXJXJXJXJXJXJXJXJXJXJXGXGXGXGXGXGXGXJXCXZXCXP.- X X P.GXPXPXLXBXJ.w.w.w.w.w.w.w.uXZXPXLXPXPXLXPXLXLXNXB . X A oXXXXX7XsXsXeXA.k.p.d.g.d.d.d.d.0.0.0.0.d.0.l r w y 5.7.0.0.0.0.0.0.0.0.d.0.9.9.9.9.7.7.9.7.6.h r r r t e g 2.s.s.a.a.a.M.M.n.n.n.n.n.n.n.n.n.n.n.n.s.s.s.s.n.n.s.s.s.0.4.z r w w y j v 7.7.p.d.d.d.d.d.d.d.d.d.g.g.g.g.f.f.C.C.C.C.0.6.j a p e d d < C _.rXXXXXXXXXXXXX X XoXoXoXOXOX}.}.}.OXOXOXoXoXoX.X.X.X.XXXXX.X.X.X.XoXoX.X.X.X.XoX{.].Q.R.R.R.R.R.R.R.R.R.R.R.R.U.P.P.H.H.H.H.H.A l.H.H.P.P.T.T.E.E.R.R.Y.U.P.P.U.U.T.R.R.R.R.",
"1X1X1X1X1X1X1X1X1X1X1X1X1X1X1X1X1X1X1X1X<X2X<X2X<X<X4X4X>.&.o._ _ ` ` ` ` ` ` ` ` ` ` ` ` ` ` ` ` ` ` ` ` ` ` ` ` ` ` ` ` ` ` ` ` ` ` ` ` ` ` ` ` ` ` ` ` ` ` ` ` ` ` ` ` ` ` ` o.` _ _ ) ] Y q 9 7 t t d x s.a.h.h.h.h.b.b.c.c.b.m.b.b.c.c.c.c.m.r.u.u.i.j.`.yXdXxXxXxXzXzXbXDXJXJXJXGXGXGXJXJXJXJXJXJXJXJXJXJXJXJXJXJXJXJXJXJXGXGXGXGXGXGXGXGXAXHXHXGXJXHXCXnXAXDXGXPXGXDXDXGXCXoXA D O     X O X       O - * S A {.bXSXIXPXPXLXLXLXPXPXPXLXLXLXPXPXPXLXLXLXLXLXLXLXLXLXLXLXLXLXLXLXLXLXLXLXLXLXLXLXLXLXLXLXLXLXLXLXLXLXLXLXLXLXLXLXLXLXLXLXLXLXLXLXLXLXLXLXLXLXLXLXLXLXLXLXLXLXLXPXPXPXPXSXnXP.B             .       . . . . . $ A kXZXVXlXVXVXVXVXZXZXZXKXKXKXJXJXJXJXJXJXJXJXJXJXJXJXJXJXJXJXJXJXJXJXJXJXJXGXGXGXGXGXGXGXGXCXHXDX].= . . S NXLXLXPXkXB.w.w.w.w.w.w.w.kXKXPXLXPXPXLXPXLXLXGXB . . S {.%X%XXXsXsXyXA.k.d.d.g.d.d.d.d.d.0.0.0.d.9.l r w y 6.9.0.0.0.0.0.0.0.0.d.0.9.9.0.9.7.7.9.8.l p r r r w e z s.M.h.a.a.m.M.M.n.n.n.n.n.n.n.n.n.n.n.n.n.s.s.s.s.s.s.7.2.2.g d r r y j 5.8.7.p.d.d.d.p.d.d.d.d.d.d.g.g.g.g.g.C.C.C.C.C.0.8.l a p e d d < C _..XXXXXXXXXXXXX X|.oXoXoXOX}.}.}.OXOXoXoXoX|..X.X.X.XXX.X.X.X.X.X.XoXoX.X.X.XoX{.].R.R.R.R.R.E.R.R.R.R.R.T.T.T.P.P.H.H.H.l.H.H.l.H.H.P.T.E.E.E.E.R.T.U.P.P.P.P.R.R.R.R.R.R.E.",
"1X1X1X1X1X1X1X1X1X1X1X1X1X1X1X1X1X1X1X1X2X2X2X2X<X<X4X4X>.o._ _ _ ` ` ` ` ` ` ` ` ` ` ` ` ` ` ` ` ` ` ` ` ` ` ` ` ` ` ` ` ` ` ` ` ` ` ` ` ` ` ` ` ` ` ` ` ` ` ` ` ` ` ` ` ` ` ` ` _ _ / T E W m 7 t t t d 2.s.s.a.a.b.b.b.b.c.c.b.m.b.b.c.x.x.c.m.r.u.h.u.u.l.uXyXdXxXxXxXxXmXDXSXGXJXGXGXGXJXJXJXJXJXJXJXJXJXJXJXJXJXJXJXJXJXJXGXGXGXGXGXGXGXGXGXAXAXGXPXPXPXPXJXGXGXSXGXPXAXbXW.S O     . X X     X O * A Q.OXbXnXDXGXIXIXIXIXPXPXLXLXLXLXLXLXLXLXLXLXLXLXLXLXLXLXLXLXLXLXLXLXLXLXLXLXLXLXLXLXLXLXLXLXLXLXLXLXLXLXLXLXLXLXLXLXLXLXLXLXLXLXLXLXLXLXLXLXLXLXLXLXLXLXLXLXLXLXLXLXLXLXLXLXPXPXLXLXSXXXS -     X X X X .     . X X o . = l.kXVXVXVXVXVXVXZXZXZXZXKXKXJXJXJXJXJXJXJXJXJXJXJXJXJXJXJXJXJXJXJXJXJXJXJXGXGXGXGXGXGXGXGXHXHXDX.XB .   B vXLXLXPXyXB.w.w.w.w.w.w.B.kXKXPXLXPXPXLXLXLXLXPXS .   B {.%XzXXXsXsXfXS.k.g.d.f.d.d.d.d.d.d.0.0.d.9.j w w r 6.0.0.0.0.0.0.0.0.0.d.0.9.9.9.9.7.7.7.v h r r r e e g 2.s.M.a.a.a.M.b.b.b.b.n.n.n.n.n.n.n.n.n.n.n.n.n.s.s.s.3.4.z g i i r h j l 6.8.7.7.9.9.7.7.9.d.d.d.d.d.d.g.g.g.g.f.C.C.C.C.d.7.5.h i e d d < C _.oXXXXXXXXXXXXX|.|.oXoXoXOX{.{.}.OXOXOXoXoX.X.XXXXXXXXX.X.X.X.X.X.XoX.X.XoXOX{.W.Q.T.T.R.!.E.E.E.R.R.T.T.P.P.P.H.H.H.H.H.H.H.H.P.P.U.R.E.E.E.E.R.T.U.P.P.U.U.T.R.R.R.R.R.E.E.",
"1X1X1X1X1X1X1X1X1X1X1X1X1X1X1X1X1X1X1X1X2X2X2X2X2X4X4X>X-._ / / ` ` ` ` ` ` ` ` ` ` ` ` ` ` ` ` ` ` ` ` ` ` ` ` ` ` ` ` ` ` ` ` ` ` ` ` ` ` ` ` ` ` ` ` ` ` ` ` ` ` ` ` ` ` ` ` ` _ _ ) T E V m 7 t t d g 3.a.r.a.a.b.b.b.b.c.c.b.m.b.b.c.x.x.x.m.r.r.h.u.u.j.S.yXtXxXxXcXxXxXnXDXAXJXJXGXGXJXJXJXJXJXJXJXJXJXJXJXJXJXJXJXJXJXJXGXGXGXGXGXGXGXGXPXGXGXJXJXGXJXPXGXGXAXDXSXAX.XA = O .         X X - B A {.bXDXGXJXJXSXSXSXSXIXPXPXLXLXLXLXLXLXLXLXLXLXLXLXLXLXLXLXLXLXLXLXLXLXLXLXLXLXLXLXLXLXLXLXLXLXLXLXLXLXLXLXLXLXLXLXLXLXLXLXLXLXLXLXLXLXLXLXLXLXLXLXLXLXLXLXLXLXLXLXLXLXLXLXPXPXLXLXLXLXLXLXLXDX{.B O     . . X X . . X . . . o = H.kXVXlXVXVXVXVXZXZXHXKXKXJXJXJXJXJXJXJXJXJXJXJXJXJXJXJXJXJXJXJXJXJXJXJXJXJXJXJXJXJXJXJXKXHXDXmXS X . = |.LXLXPXuXw.w.w.q.w.w.w.B.lXKXPXLXLXPXLXLXPXLXLXS .   B Q.%XzXXXsXxXdXS.k.g.d.g.d.d.d.d.d.d.d.d.d.7.j w w r 6.d.0.0.0.0.0.0.0.0.d.0.9.9.9.9.7.7.6.j r r r r r g z 2.s.h.a.a.h.m.b.b.b.b.b.b.b.b.n.n.b.n.b.b.b.b.n.s.7.2.4.g g e e r p h j l v v v 6.6.6.6.8.7.9.d.d.d.d.d.g.g.g.g.f.C.C.C.C.g.0.5.h p e d d < C _.oXXXXXXXXX|.XX XoXoXoXOXOX{.{.{.OXOXoXoX|..X.XXXXXXXXX.X.X.X.X.X.XoXoXoX{.{.W.R.R.R.R.!.Q.R.R.R.T.U.P.P.P.H.H.l.H.H.H.H.P.P.P.Y.R.E.E.E.E.R.R.U.U.P.P.U.Y.R.R.R.R.R.R.R.E.E.",
"1X1X1X1X1X1X1X1X1X1X1X1X1X1X1X1X1X1X1X<X2X2X2X2X2X4X4X>X-./ / / ` ` ` ` ` ` ` ` ` ` ` ` ` ` ` ` ` ` ` ` ` ` ` ` ` ` ` ` ` ` ` ` ` ` ` ` ` ` ` ` ` ` ` ` ` ` ` ` ` ` ` ` ` ` ` ` o._ _ _ T Y q 8 7 t e g x t.a.a.a.a.b.b.b.b.c.c.b.m.b.b.c.z.x.x.z.z.r.h.h.u.u.l.`.yXdXdXvXxXzXbXCXDXGXJXKXGXJXJXJXJXJXJXJXJXJXJXJXJXJXJXJXJXJXJXGXGXGXGXGXGXGXGXGXGXGXGXJXGXGXGXGXDXDXAXbXE.B - . X o X     O = S P.oXbXSXPXJXSXGXJXIXPXPXIXIXIXPXPXLXLXLXLXLXLXLXLXLXLXLXLXLXLXLXLXLXLXLXLXLXLXLXLXLXLXLXLXLXLXLXLXLXLXLXLXLXLXLXLXLXLXLXLXLXLXLXLXLXLXLXLXLXLXLXLXLXLXLXLXLXLXLXLXLXLXLXLXLXLXLXLXLXLXLXLXLXLXLXLXLXLXbXP.* X . . X o . . o . . X o o 1 H.kXlXVXlXVXVXZXZXZXHXKXJXJXJXJXJXJXJXJXJXJXJXJXJXJXJXJXJXJXJXJXJXJXJXJXJXJXJXJXJXJXJXKXHXDXCXl.O . O _.PXPXPX[.q.w.w.w.w.w.w.J.lXKXPXLXLXPXLXLXPXLXPXS . . * !.%XzXXXrXvXdXS.k.g.d.g.d.d.d.d.d.d.d.d.d.7.h w w r 6.d.9.9.9.9.9.9.9.9.d.0.9.9.9.9.7.7.v y t t e e h z z 2.s.a.h.h.m.a.b.b.b.b.b.b.b.b.b.b.n.b.b.b.n.s.s.7.2.z g i i i e r r r p p p h h h j j l b 8.9.d.d.d.d.d.g.g.g.g.f.f.f.C.C.g.0.5.h i e d d < B _.oXXXXX.XXXoX|.oXoXoXOXOX{.{.{.{.}.OXoXoX.X.X.X%XXX.X.X.X.X.X|..XoXoX}.{.].Q.R.U.R.R.E.Q.Y.Y.U.P.P.P.P.H.H.H.H.A H.H.H.P.P.U.T.E.E.E.E.R.T.U.U.U.U.U.U.T.R.R.E.R.R.R.R.R.R.R.",
"1X1X1X1X1X1X1X1X1X1X1X1X1X1X1X1X1X1X1X<X2X2X2X2X2X4X4X>X-./ _ / ` ` ` ` ` ` ` ` ` ` ` ` ` ` ` ` ` ` ` ` ` ` ` ` ` ` ` ` ` ` ` ` ` ` ` ` ` ` ` ` ` ` ` ` ` ` ` ` ` ` ` ` ` ` ` ` o._ _ ` E W m 8 t t e g 2.t.a.a.a.b.b.b.b.b.c.c.b.m.b.b.c.z.x.x.z.m.c.c.h.u.u.j.`.yXtXdXxXrXhXcXnXCXGXJXKXGXGXJXJXJXJXJXJXJXJXJXJXJXJXJXJXJXJXJXGXGXGXGXGXGXGXGXJXJXGXHXHXJXJXGXGXDXNX.XA = .   . X X . o * A ].xXnXGXSXSXSXPXPXSXSXGXGXGXJXIXIXPXLXLXLXLXLXLXLXLXLXLXLXLXLXLXLXLXLXLXLXLXLXLXLXLXLXLXLXLXLXLXLXLXLXLXLXLXLXLXLXLXLXLXLXLXLXLXLXLXLXLXLXLXLXLXLXLXLXLXLXLXLXLXLXLXLXLXLXLXLXLXLXLXLXLXLXLXLXLXLXLXLXPXLXLXDXQ.1 O . . . . . o . X . o o o N [.VXVXlXVXVXZXZXZXZXKXJXJXJXJXJXJXJXJXJXJXJXJXJXJXJXJXJXJXJXJXJXJXJXJXJXJXJXJXJXJXJXKXAXAXJXQ.- X X Y.JXPXPX[.M w.w.w.w.w.w.J.lXPXPXLXLXPXPXLXPXPXPXS . . * R.%XzXXXrXvXgXS.k.g.d.d.d.d.d.d.d.d.d.d.d.7.h r w r 6.d.9.9.9.9.9.9.9.9.d.0.9.9.9.9.7.7.j r t t t e g 2.z 2.s.a.h.M.m.r.b.b.b.b.b.b.b.b.b.b.b.b.b.a.a.a.3.2.z g e i i g r e r w w w w w r r y f j v 8.9.d.d.d.d.d.g.g.g.g.f.f.f.C.C.g.d.5.h i e t 7 < B _.oXXXXX.X.XoXoXoXoXoXOXOX{.{.{.{.}.OXOXoX.X.X.X%X%XXX.X.X.X|.|..XoXOX{.].Q.R.U.U.R.E.R.Y.U.P.P.P.P.H.H.H.H.l.l.l.H.H.P.U.Y.T.T.E.E.R.R.U.P.P.P.U.U.U.Y.R.R.R.E.R.R.R.R.R.R.R.",
"1X1X1X1X1X1X1X1X1X1X1X1X1X1X1X1X1X1X1X2X2X2X3X3X4X4X4X;.&./ o./ ` ` ` ` ` ` ` ` ` ` ` ` ` ` ` ` ` ` ` ` ` ` ` ` ` ` ` ` ` ` ` ` ` ` ` ` ` ` ` ` ` ` ` ` ` ` ` ` ` ` ` _ ` ` ` ` o.` ` ] E V 9 u t e d z 3.a.a.a.b.b.b.b.b.b.c.c.b.m.b.b.c.x.x.x.z.c.z.z.y.y.y.u.l.`.yXvXtXcXcXhXcXnXSXJXKXKXJXJXJXJXJXJXJXJXJXJXJXJXJXJXJXJXJXJXGXHXGXGXGXGXHXHXGXPXHXAXJXLXPXGXDXCXOXB O . X   .   X * A {.bXGXSXSXSXSXSXSXSXSXGXGXGXGXGXGXIXIXJXPXLXLXLXLXLXLXLXLXLXLXLXLXLXLXLXLXLXLXLXLXLXLXLXLXLXLXLXLXLXLXLXLXLXLXLXLXLXLXLXLXLXLXLXLXLXLXLXLXLXLXLXLXLXLXLXLXLXLXLXLXLXLXLXLXLXLXLXLXLXLXLXLXLXLXLXLXLXLXLXLXLXLXLXLXDXxXA = . . o o . . . o . o o O B yXVXVXVXlXVXZXZXKXKXKXKXKXGXGXGXJXJXJXJXJXJXJXJXJXJXJXJXJXJXJXJXJXJXJXJXJXJXJXJXJXKXHXDXJXxX0     S bXLXKX[.w.w.w.w.w.e.w.K.VXPXPXPXPXLXLXLXLXPXPXS . X - R.%XXXzXsXsXfXS.k.p.g.f.g.d.d.d.d.d.d.d.d.8.p w r y 5.d.d.0.9.9.9.9.9.9.9.9.7.7.0.d.7.5.y t r r t e 4.s.s.s.s.a.a.h.m.M.m.b.b.b.a.a.a.a.b.b.s.a.a.a.t.3.4.g g i e e e e r r w t t t t t t t u r f l 8.9.9.9.d.d.d.d.d.d.g.g.g.f.f.C.g.9.6.p h e d 7 < c _.oXrX|. X|.oXoXoXOXoX}.}.{.}.}.}.OXOXoX|..XXXXXXX%XhX%X.X|.|.|..X}.{.W.E.R.T.T.R.R.R.U.P.P.P.P.H.H.H.H.^ H.H.H.P.P.P.P.U.Y.R.R.T.Y.Y.U.U.P.P.P.R.R.R.R.R.R.R.R.E.E.E.R.E.E.R.",
"1X1X1X1X1X1X1X1X1X1X1X1X1X1X1X1X1X1X1X2X3X3X3X3X4X4X4X;.&./ o._ ` ` ` ` ` ` ` ` ` ` ` ` ` ` ` ` ` ` ` ` ` ` ` ` ` ` ` ` ` ` ` ` ` ` ` ` ` ` ` ` ` ` ` ` ` ` ` ` ` ` ` _ ` ` ` ` ` ` ` ] Y q 8 t e e g 4.t.a.a.a.b.b.b.b.b.b.c.c.b.m.b.b.c.x.x.x.z.c.z.z.c.y.y.u.j.l.uXtXxXxXxXrXzXbXDXSXJXJXGXKXJXJXJXJXJXJXJXJXJXJXJXJXJXJXJXJXGXGXGXGXHXHXHXHXHXGXHXGXGXPXPXDXbXE.B O . . . . O * A {.nXDXAXAXSXSXSXSXSXSXSXSXGXGXGXGXGXGXIXIXPXPXLXLXLXLXLXLXLXLXLXLXLXLXLXLXLXLXLXLXLXLXLXLXLXLXLXLXLXLXLXLXLXLXLXLXLXLXLXLXLXLXLXLXLXLXLXLXLXLXLXLXLXLXLXLXLXLXLXLXLXLXLXLXLXLXLXLXLXLXLXLXLXLXLXLXLXLXLXLXPXLXLXLXPXLXLXPXNXU.= . . o o o . . . o o o = H.kXVXVXVXVXVXZXKXKXJXKXJXJXGXGXJXJXJXJXJXJXJXJXJXJXJXJXJXJXJXJXJXJXJXJXJXJXJXJXJXKXHXDXJXnXS o . 0 xXLXKX[.w.w.w.e.w.w.w.K.VXPXPXLXLXLXLXLXLXPXCXB . X - P.%XXXzXsXsXfXS.k.p.g.g.d.d.d.d.d.d.d.d.d.8.p w r y 5.d.d.0.9.9.9.9.9.0.9.9.7.7.0.d.8.l r t t t t g 8.s.s.s.a.a.a.h.h.m.b.b.m.m.a.a.a.a.b.b.a.a.a.t.3.2.g g i i e e e e r r w w t t t t t t u r h l 8.9.9.9.d.d.d.d.d.d.g.g.g.f.f.f.g.9.5.y p e d < < C _.oXXX|. X|.oXoXoXOXoX}.OX}.}.}.OXOXoXoX|..XXXXXXXXXXX.X.XoXoXOX}.{.].Q.R.T.R.R.R.U.U.P.P.H.H.H.l.l.A l.H.H.H.P.P.P.U.U.Y.T.R.R.Y.Y.U.U.U.U.U.P.R.R.R.R.R.R.R.R.E.E.R.R.E.R.R.",
"1X1X1X1X1X1X1X1X1X1X1X1X1X1X1X1X1X1X1X2X3X3X3X3X4X4X4X;.&./ o._ ` ` ` ` ` ` ` ` ` ` ` ` ` ` ` ` ` ` ` ` ` ` ` ` ` ` ` ` ` ` ` ` ` ` ` ` ` ` ` ` ` ` ` ` ` ` ` ` ` ` ` _ ` ` ` ` _ ` ] E U 0 8 r e i g 2.t.a.a.a.b.m.m.m.b.b.b.b.b.b.b.b.c.c.z.x.z.c.z.z.y.y.y.u.i.j.`.yXdXxXrXrXxXcXnXDXGXGXGXGXJXJXJXJXJXJXJXJXJXJXJXJXJXJXJXJXHXHXGXGXGXGXGXHXJXGXPXPXGXJXNX.XA D X     . - D A ).bXSXPXJXGXAXSXSXSXSXSXSXSXSXGXGXGXGXGXGXIXIXPXPXLXLXLXLXLXLXLXLXLXLXLXLXLXLXLXLXLXLXLXLXLXLXLXLXLXLXLXLXLXLXLXLXLXLXLXLXLXLXLXLXLXLXLXLXLXLXLXLXLXLXLXLXLXLXLXLXLXLXLXLXLXLXLXLXLXLXLXLXLXLXLXLXLXLXLXLXLXLXLXLXLXLXLXLXLXLXLXCX).N o o o . . o o . . . o 1 [.lXVXVXlXBXZXZXHXHXJXJXJXGXGXJXJXJXJXJXJXJXJXJXJXJXJXJXJXJXJXJXJXJXJXJXJXJXJXJXKXHXAXKXDXY.- X - {.LXPX[.B.w.w.e.w.w.e.J.BXPXLXLXLXPXPXLXPXPXhX1 . X O P.%X7XXXrXsXfX`.k.p.d.g.d.d.d.d.d.d.d.d.d.8.p r r y 5.0.0.0.0.9.9.9.0.0.9.9.7.7.d.0.6.j t t s t r x s.s.s.a.a.a.a.a.r.r.m.m.m.m.b.b.a.b.b.a.s.s.s.3.1.g g i i e w e r r r r w w t t t t t t r r h l 8.9.9.9.d.d.d.d.d.d.g.g.g.g.f.f.g.7.l i e e d < < Z _.oXXX|. XoXoXoXoXOXoXOXOX}.OXOXOXOXoXoX.X.X.XXX.X.X.X.X|.oX}.{.{.].Q.E.T.Y.R.R.U.P.P.H.H.^ ^ l.A l.l.H.H.P.P.Y.R.R.R.R.R.R.R.T.U.U.U.U.U.Y.Y.Y.R.R.R.R.R.R.R.R.R.R.E.R.R.R.R.",
"1X1X1X1X1X1X1X1X1X1X1X1X1X1X1X1X1X1X1X2X3X3X3X2X4X4X4X>.&./ _ _ ` ` ` ` ` ` ` ` ` ` ` ` ` ` ` ` ` ` ` ` ` ` ` ` ` ` ` ` ` ` ` ` ` ` ` ` ` ` ` ` ` ` ` ` ` ` ` ` ` ` _ _ ` ` ` ` ` ` ] E q 0 7 e e g 4.2.t.a.a.a.b.m.m.m.b.b.b.b.b.b.b.b.c.c.z.z.z.c.z.r.y.y.y.y.u.i.l.'.dXxXrXxXxXzXbXCXHXGXGXGXGXJXJXJXJXJXJXJXJXJXJXJXJXJXJXJXGXHXGXGXGXGXGXGXJXPXPXGXGXAXrXl.= O   . O * A ].CXDXGXSXAXGXJXGXSXSXSXSXSXSXSXSXGXGXJXGXGXGXIXIXPXPXLXLXLXLXLXLXLXLXLXLXLXLXLXLXLXLXLXLXLXLXLXLXLXLXLXLXLXLXLXLXLXLXLXLXLXLXLXLXLXLXLXLXLXLXLXLXLXLXLXLXLXLXLXLXLXLXLXLXLXLXLXLXLXLXLXLXLXLXLXLXLXLXLXLXLXLXLXLXLXLXLXPXKXKXPXLXLXLXKXyXC $ o o o o o . . . . O S rXVXVXVXVXVXVXCXAXHXHXJXGXGXJXJXJXJXJXJXJXJXJXJXJXJXJXJXJXJXJXJXJXJXJXJXJXJXJXKXKXAXJXIX|.* X X U.JXPX[.B.w.w.w.e.e.e.J.lXLXLXPXLXLXPXPXPXLX).-   X O P.%XzXXXrXsXdX`.k.p.d.d.d.d.d.d.d.d.d.d.d.8.p r r y 5.0.d.0.0.0.9.0.0.d.0.7.7.9.0.7.l y t t s t h 7.s.s.a.a.a.a.a.a.r.r.m.m.m.m.m.b.b.b.n.s.s.s.3.2.<.i i e e e w w r r r r w w t t t t t t r y h l 8.7.9.9.9.d.d.d.d.d.d.g.g.g.f.f.d.7.z p e e d < 0 A {..XXX|. XoXoXoXoXOXoXOXOXOXOXoXoXoXoXoX.X.X.X.X.X.X.X.X.XOX{.].Q.Q.E.T.U.U.P.P.P.H.H.A A A A H.H.H.H.P.P.T.T.E.E.E.E.R.R.Y.U.U.P.P.U.U.Y.T.R.R.R.R.R.R.R.R.R.R.R.R.R.R.R.R.R.",
"1X1X1X1X1X1X1X1X1X1X1X1X1X1X1X1X1X1X3X2X3X3X3X3X4X4X4X=._ / _ _ ` ` ` ` ` ` ` ` ` ` ` ` ` ` ` ` ` ` ` ` ` ` ` ` ` ` ` ` ` ` ` ` ` ` ` ` ` ` ` ` ` ` ` ` ` ` ` ` ` ` ` _ ` ` ` ` ` ] E W q 9 t r i g 2.t.a.a.a.a.b.b.b.b.b.b.b.b.b.b.b.b.c.c.c.c.c.c.z.z.y.y.y.u.y.i.u.`.tXvXxXzXzXzXcXnXDXHXGXKXGXJXJXJXJXJXJXJXJXJXJXJXJXJXJXJXGXGXGXGXGXGXGXGXHXGXJXGXGXbXP.1 O X X = S ).cXCXJXJXGXAXGXJXJXAXSXSXSXSXSXSXSXSXGXGXGXGXJXJXJXJXPXPXLXLXLXLXLXLXLXLXLXLXLXLXLXLXLXLXLXLXLXLXLXLXLXLXLXLXLXLXLXLXLXLXLXLXLXLXLXLXLXLXLXLXLXLXLXLXLXLXLXLXLXLXLXLXLXLXLXLXLXLXLXLXLXLXLXLXLXLXLXLXLXLXLXLXLXLXLXLXPXPXPXPXLXPXPXPXKXbXtX[.A = o o . o o . o o o o $ l.kXVXVXVXVXVXCXAXHXHXGXGXJXJXJXJXJXJXJXJXJXJXJXJXJXJXJXJXJXJXJXJXJXJXJXJXJXJXHXGXGXSXJXbXS o   S nXPX[.w.w.w.w.e.e.w.B.lXPXPXPXLXLXLXLXLXPXA O   X O P.%XzXXXrXsXdX'.g.p.d.d.d.d.d.d.d.d.d.d.d.8.h r r r v 0.d.d.0.0.0.d.d.d.0.9.7.9.7.6.j r t t t e l s.s.s.s.a.a.h.h.h.h.h.m.m.m.m.m.b.b.b.n.s.s.3.2.4.g 2 e w w w w w w r w w t t t t t t t r y h l v 8.9.9.9.9.d.d.d.d.d.d.g.g.g.g.g.d.8.j r t t d < c A.OXXXXX X.XoX|.oXoXOXOXOXOXOXOXoXoXoX|.|..X.X.X.X.X.X.X.X|.{.].Q.U.T.Y.Y.U.P.P.P.H.H.A A A H.H.P.P.P.P.U.R.R.E.E.E.E.R.T.U.U.P.P.P.U.U.T.T.R.R.R.R.R.R.R.R.R.R.R.R.R.R.R.R.R.T.",
"1X1X1X1X1X1X1X1X1X1X1X1X1X1X1X1X1X1X2X2X3X3X3X2X4X4X4X-./ _ _ _ ` ` ` ` ` ` ` ` ` ` ` ` ` ` ` ` ` ` ` ` ` ` ` ` ` ` ` ` ` ` ` ` ` ` ` ` ` ` ` ` ` ` ` ` ` ` ` ` ` ` ` ` ` ` ` ` ` ] E U m 7 t r i g 2.s.a.a.a.m.b.b.b.b.b.b.b.b.b.b.b.b.c.c.c.c.c.c.z.c.y.y.y.y.y.i.i.S.yXvXxXrXzXhXxXbXNXAXHXKXGXJXJXJXJXJXJXJXJXJXJXJXJXJXJXJXGXGXGXGXGXGXGXGXGXGXPXPXNXY.* X . - B P.hXDXJXGXJXJXGXGXJXJXJXGXGXGXGXGXSXSXGXGXGXGXGXGXJXJXJXJXPXLXLXLXLXLXLXLXLXLXLXLXLXLXLXLXLXLXLXLXLXLXLXLXLXLXLXLXLXLXLXLXLXLXLXLXLXLXLXLXLXLXLXLXLXLXLXLXLXLXLXLXLXLXLXLXLXLXLXLXLXLXLXLXLXLXLXLXLXLXLXLXLXLXLXLXLXLXLXLXLXPXPXPXKXCXkX[.R.l.S C B 1 6 o . . . o . . . . . = E.BXVXVXVXVXCXCXAXHXGXGXJXJXJXJXJXJXJXJXJXJXJXJXJXJXJXJXJXJXJXJXJXJXJXJXJXJXKXHXHXSXGXDXP.-   * xXPXJ.M w.w.w.e.e.w.B.kXKXPXLXLXLXLXLXLXcXB X   X O P.XXzXXXrXsXdX'.g.p.d.p.d.d.d.d.g.g.g.g.d.8.h r r r v 0.d.d.0.0.0.d.d.d.d.0.7.7.8.l p w r t t h 6.s.s.s.s.s.a.h.h.h.h.h.m.m.m.m.b.b.b.n.s.s.3.2.4.g i e 2 e w w w w w r w w t t t t t t t r f j l 6.7.9.9.9.9.9.d.d.d.d.p.d.d.d.g.g.9.8.h r 2 2 2 < Z `.oXXXXX X.XoX|.oXoXoXOXOXOXOXoXoX|.|.|..X.X.X.X.X.X.X|.oX{.].E.U.P.P.U.U.U.P.H.^ H.H.H.H.H.P.P.P.T.R.R.R.E.E.E.E.R.T.T.T.U.U.P.P.U.U.T.T.T.R.R.R.R.R.R.R.R.R.R.R.R.R.R.R.T.T.T.",
"1X1X1X1X1X1X1X1X1X1X1X1X1X1X1X1X1X1X2X2X2X2X3X2X2X4X>X-./ _ _ _ ` ` ` ` ` ` ` ` ` ` ` ` ` ` ` ` ` ` ` ` ` ` ` ` ` ` ` ` ` ` ` ` ` ` ` ` ` ` ` ` ` ` ` ` ` ` ` ` ` ` ` ` ` ` ` ` ` ] T q 9 7 t e g 4.3.s.b.b.b.c.c.c.b.b.b.b.b.b.b.b.b.b.c.c.c.c.c.c.z.c.y.y.y.y.u.u.i.l.yXvXrXXXhX%XzXcXnXCXHXHXGXJXJXJXJXJXJXJXJXJXJXJXJXJXJXJXGXGXGXGXGXGXHXGXGXGXPXAX).1 O O * A oXDXJXJXGXGXJXJXPXPXPXPXPXPXGXGXGXGXSXSXGXGXGXGXGXGXGXGXJXJXPXLXLXLXLXLXLXLXLXLXLXLXLXLXLXLXLXLXLXLXLXLXLXLXLXLXLXLXLXLXLXLXLXLXLXLXLXLXLXLXLXLXLXLXLXLXLXLXLXLXLXLXLXLXLXLXLXLXLXLXLXLXLXLXLXLXLXLXLXLXLXLXLXLXLXLXLXLXLXLXPXKXZXkX[.H.S N N N N N N B N = o . . o . . . . . o B rXVXVXVXVXCXCXAXHXGXGXJXJXJXJXJXJXJXJXJXJXJXJXJXJXJXJXJXJXJXJXJXJXJXJXJXJXJXHXGXSXGXGX.XB X O ].KX[.w.w.w.e.e.e.e.B.J.BXPXLXLXLXLXLXCXU.- .   X O P. XzXzXrXdXdX'.f.p.d.7.d.g.d.g.g.g.g.g.d.8.h r r r v 9.d.d.0.0.0.d.d.g.d.0.9.7.6.j r w r t r z s.s.s.s.s.s.a.h.h.h.h.h.y.y.h.h.a.a.a.s.s.7.2.g g i e e e e w w w w w r w w t t t t t t t r h l v 8.7.9.9.9.9.p.d.d.d.d.p.p.d.d.d.d.9.8.p e 2 2 < 0 l.'.tXXX XXX.XoX XoXoXoXoXOXoXOXoXoX.X.X.X.X.X.X.X.X.X|.OX{.^.E.T.P.P.P.P.P.P.P.H.H.H.H.P.P.P.P.U.Y.R.R.E.E.E.R.R.T.U.U.U.U.U.U.U.U.T.T.T.T.R.R.R.R.R.R.R.R.R.R.R.R.R.R.R.T.T.T.Y.",
"1X1X1X1X1X1X1X1X1X1X1X1X1X1X1X1X1X3X3X2X3X2X2X3X4X4X>X-./ _ _ _ ` ` ` ` ` ` ` ` ` ` ` ` ` ` ` ` ` ` ` ` ` ` ` ` ` ` ` ` ` ` ` ` ` ` ` ` ` ` ` ` ` ` ` ` ` ` ` ` ` ` _ ` ` ` ` ` ` ] Y q 9 7 t e g 4.3.s.b.b.b.c.c.c.b.b.b.b.b.b.b.b.b.b.c.c.c.c.c.c.z.c.y.y.r.y.u.h.i.u.`.tXrXrXhXhXhXhXbXNXHXHXGXJXJXJXJXJXJXJXJXJXJXJXJXJXJXJXHXGXGXGXGXGXHXHXGXAXHXhXS o - B {.cXGXPXJXJXJXJXJXJXGXJXKXJXGXJXGXGXGXGXGXGXGXGXGXGXGXGXGXGXIXIXPXLXLXLXLXLXLXLXLXLXLXLXLXLXLXLXLXLXLXLXLXLXLXLXLXLXLXLXLXLXLXLXLXLXLXLXLXLXLXLXLXLXLXLXLXLXLXLXLXLXLXLXLXLXLXLXLXLXLXLXLXLXLXLXLXLXLXLXLXLXLXLXLXLXLXLXLXLXLXLXBXkXE.S N N N N N 1 N N N N 1 1 = o o o o . . . . . = E.VXVXVXVXCXCXAXHXJXGXJXJXJXJXJXJXJXJXJXJXJXJXJXJXJXJXJXJXJXJXJXJXJXJXJXJXJXAXGXGXGXPXnXS X   P.HXuXB.w.e.e.w.e.B.B.B.tXLXPXLXLXLXPXzXB X     X - R.|.zXzXsXdXdX'.f.p.d.7.d.g.g.g.d.g.g.g.d.8.h r r r v 9.d.d.d.0.d.d.g.g.d.0.0.7.5.p w r t t e z s.s.s.s.a.a.h.h.h.a.a.h.m.y.m.a.a.a.a.s.s.3.4.i i e e e e w w w w w w w w w t t t t t t r y j v b 8.7.p.9.9.9.9.d.d.d.d.p.p.d.d.d.d.9.6.r t < < < 0 A.yXrXXX|.XX|.oX XoXoXoXoXOXoXOXoX.X.X.X.X.X.X.X.X.X.X|.}.].E.P.P.P.P.P.P.P.P.P.P.P.P.P.P.P.U.T.T.T.R.R.E.E.E.R.T.U.U.U.U.U.T.T.R.R.T.T.R.R.R.R.R.R.R.R.R.R.R.R.R.R.R.R.T.T.T.Y.Y.",
"1X1X1X1X1X1X1X1X1X1X1X1X1X1X1X1X1X1X3X3X2X2X2X2X4X4X;.-._ _ _ ` ` ` ` ` ` ` ` ` ` ` ` ` ` ` ` ` ` ` ` ` ` ` ` ` ` ` ` ` ` ` ` ` ` ` ` ` ` ` ` ` ` ` ` ` ` ` ` ` ` _ _ _ ` ` ` ` ` ] U m 9 t t e g 3.s.n.b.m.b.m.c.c.b.b.b.b.b.b.b.b.b.b.b.b.b.b.b.b.b.b.b.c.m.c.y.u.i.i.`.yXyXtXrXrXrXhXxXbXNXAXJXGXGXJXJXGXSXGXJXJXJXJXJXJXJXJXJXJXJXJXJXJXJXJXGXPXbXS = B P.xXJXGXAXGXJXPXJXSXAXAXAXAXAXAXAXAXSXSXSXSXSXSXSXSXDXIXSXDXGXGXSXIXPXLXLXLXLXLXLXLXLXLXLXLXLXLXLXLXLXLXLXLXLXLXLXLXLXLXLXLXLXLXLXLXLXLXLXLXLXLXLXLXLXLXLXLXLXLXLXLXLXLXLXLXLXLXLXLXLXLXLXLXLXLXLXLXLXLXLXLXLXLXLXLXLXLXLXLXKXKXNXyXH.l.M N 1 N N 1 N N M N N N N M N 6 $ o o X X   X     N [.BXlXVXVXCXZXKXHXKXJXAXJXJXJXJXJXJXGXGXJXJXJXJXJXJXJXJXJXJXJXJXJXJXJXJXAXPXKXPXGXJXAXR.=   B jXyXB.w.e.e.e.e.e.w.M l.PXPXLXLXLXnXA O       X - Y.XXzXzXsXsXdXeXF.d.0.0.f.f.g.g.g.g.g.g.g.7.h s t e j 7.d.g.g.g.d.d.d.g.0.d.d.7.l r w r t 7 e 2.s.s.s.h.a.h.a.a.a.b.b.b.m.m.r.a.b.a.t.3.g g g i i e e s w w w w w w w w w w w w w t t t w h 5.8.8.8.7.7.9.9.0.0.0.d.d.d.p.p.9.0.d.d.6.h s < d 7 < C _.tXXX|.XXXXXX|.oXoXoXoXoXOXoXoXoX|.oX.X.X.X.X.X.X.XoX{.W.R.U.U.P.P.P.P.P.H.H.H.P.P.T.T.R.T.T.T.R.R.T.T.T.T.T.T.T.T.R.R.R.R.R.R.R.R.R.R.R.R.R.R.R.R.R.R.R.R.R.R.R.R.T.T.T.T.T.T.T.",
"1X1X1X1X1X1X1X1X1X1X1X1X1X1X1X1X1X1X3X3X2X2X2X2X4X4X;.-._ _ _ ` ` ` ` ` ` ` ` ` ` ` ` ` ` ` ` ` ` ` ` ` ` ` ` ` ` ` ` ` ` ` ` ` ` ` ` ` ` ` ` ` ` ` ` ` ` ` ` ` _ _ _ ` ` ` ` ` ] T K 9 7 t t e g 3.s.n.b.b.b.b.c.c.b.b.b.b.b.b.b.b.b.b.b.b.b.b.b.b.b.b.b.b.b.c.y.y.u.i.l.yXyXtXtXrXrXhXzXcXnXNXJXGXGXGXJXGXGXGXJXJXJXJXJXJXJXJXJXJXJXJXJXJXJXJXJXDXR.B S E.nXPXGXJXJXJXJXGXGXGXnXbXbXbXbXbXbXbXcXbXnXDXSXGXGXSXSXSXGXSXSXSXJXPXPXLXLXLXLXLXLXLXLXLXLXLXLXLXLXLXLXLXLXLXLXLXLXLXLXLXLXLXLXLXLXLXLXLXLXLXLXLXLXLXLXLXLXLXLXLXLXLXLXLXLXLXLXLXLXLXLXLXLXLXLXLXLXLXLXLXLXLXLXLXLXLXLXPXPXKXHXBX[.l.C M M M M M M M M M M M M M M M M 6 6 $ o . .     X   = H.kXlXVXVXVXZXHXHXHXJXGXJXKXJXJXJXJXGXGXJXJXJXJXJXJXJXJXJXJXJXJXJXJXJXJXSXJXAXKXHXKXHXrXB X = [.kXJ.w.e.e.e.e.e.B.6 N {.AXLXLXSX_.=   X     X - P..X@X@XsXsXdXeXF.d.0.0.f.f.g.g.g.g.g.g.g.7.h t t r j 7.d.g.g.g.d.d.d.g.0.d.d.7.j r r r t s e 2.s.s.s.h.a.h.a.a.b.b.b.b.m.b.a.b.b.a.t.2.g g i i e w w w w w w w w w w w w w w w w t t t w h 5.8.8.8.7.9.9.9.9.0.0.0.d.d.d.9.0.d.d.0.5.p r 7 7 < < A '.oX|.|..XXX.X|.oXoXoXoXoXoXoXoX|..X.X.X.X.X.X.X.XoX{.].E.P.P.P.P.P.P.P.H.H.H.P.P.P.T.T.R.T.T.T.R.R.T.T.T.T.T.T.T.T.R.R.R.R.R.R.R.R.R.R.R.R.R.R.R.R.R.R.R.R.R.R.R.R.T.T.T.T.T.T.T.",
"1X1X1X1X1X1X1X1X1X1X1X1X1X1X1X1X1X1X3X3X2X2X2X4X4X4X>.&.) _ _ ` ` ` ` ` ` ` ` ` ` ` ` ` ` ` ` ` ` ` ` ` ` ` ` ` ` ` ` ` ` ` ` ` ` ` ` ` ` ` ` ` ` ` ` ` ` ` ` ` ` _ ` ` ` ` ` ` ] Y q 9 8 r t e <.3.n.n.b.b.a.r.c.c.b.b.b.b.b.b.b.b.b.b.b.b.b.b.b.b.b.b.b.b.b.c.r.u.u.i.l.uXtXtXtXtXrXhXzXxXcXbXAXGXGXGXGXJXJXJXJXJXJXJXJXJXJXJXJXJXJXJXJXJXJXJXJXxXP.Y..XnXJXJXGXAXDXCXbX.X).Y.A S S B B B B B S S A A Q.|.bXDXPXJXSXSXGXJXIXSXPXLXLXLXLXLXLXLXLXLXLXLXLXLXLXLXLXLXLXLXLXLXLXLXLXLXLXLXLXLXLXLXLXLXLXLXLXLXLXLXLXLXLXLXLXLXLXLXLXLXLXLXLXLXLXLXLXLXLXLXLXLXLXLXLXLXLXLXLXLXLXLXLXLXPXCXyXJ.S M N M M M M M M M M M M M M M M M M M N 6 o .   .   X . . N [.BXlXVXVXCXHXHXHXJXJXKXKXJXJXJXJXJXJXJXJXJXJXJXJXJXJXJXJXJXJXJXJXJXJXGXSXAXKXHXHXJXCXA - O l.yXJ.e.e.e.e.e.e.B.6 $ 1 Q.oX|.Y.B .   .     X - P..XXX@XsXsXdXeXF.d.d.0.f.g.g.g.g.g.g.g.g.0.j t t r h 8.d.d.g.g.d.d.d.g.0.d.0.6.j r w r t s d 6.s.s.s.h.a.h.h.h.b.b.b.b.b.b.b.m.m.t.2.g e e e e e e e e w w w w w w w w r w w w t t t t r j 6.8.8.8.8.7.9.9.9.9.0.0.0.0.p.9.0.d.d.7.j r t t < < c A.OX.X|..X|..X|.oXoXoXoXoXoXoXoXoX|..X.XXXhXhX.X.XOX{.Q.R.P.H.H.P.P.P.H.H.H.P.P.P.U.T.T.T.R.R.T.T.R.R.T.T.T.T.T.T.T.T.R.R.R.R.R.R.R.R.R.R.R.R.R.R.R.R.R.R.R.R.R.R.R.R.T.T.T.T.T.T.R.",
"1X1X1X1X1X1X1X1X1X1X1X1X1X1X1X1X1X1X3X3X2X2X2X4X4X4X=.&.) _ _ ` ` ` ` ` ` ` ` ` ` ` ` ` ` ` ` ` ` ` ` ` ` ` ` ` ` ` ` ` ` ` ` ` ` ` ` ` ` ` ` ` ` ` ` ` ` ` ` ` ` ` ` ` ` ` ` ] ] Y q 9 8 r e g 4.s.n.n.n.b.r.b.c.c.b.b.b.b.b.b.b.b.b.b.b.b.b.b.b.b.b.b.b.b.b.m.r.t.u.i.j.`.dXtXtXtXhXxXzXzXxXcXnXDXJXJXGXGXJXJXJXJXJXJXJXJXJXJXJXJXJXJXJXJXJXJXJXoXOXnXJXGXGXGXAXxXE.A S B = O o X X X X X X         O - B S A Q.hXDXSXIXSXDXJXPXLXLXLXLXLXLXLXLXLXLXLXLXLXLXLXLXLXLXLXLXLXLXLXLXLXLXLXLXLXLXLXLXLXLXLXLXLXLXLXLXLXLXLXLXLXLXLXLXLXLXLXLXLXLXLXLXLXLXLXLXLXLXLXLXLXLXLXLXLXLXLXLXPXZXuXl.M M M M M M M M M M M M M M M M M M M M M M 1 $ o . X   X o   O S kXVXVXVXVXZXHXHXGXJXKXKXJXJXJXJXJXJXJXJXJXJXJXJXJXJXJXJXJXJXJXJXJXJXGXGXGXKXKXHXHXJX{.1 . B uXK.B.e.e.e.e.e.B.6 o o - * B = X . X       . O P.XX7XzX@XsXdXeXF.d.d.0.f.g.g.g.g.g.g.g.g.d.z r w w h 6.d.d.g.g.d.d.d.g.d.d.9.5.h r r r t t h 8.s.s.a.h.a.h.h.h.m.m.b.b.r.b.m.m.b.3.g 3 e e e e e e e e w w w w w w w w r w w t t w t t p j 6.8.6.6.8.7.7.9.9.9.9.0.0.0.9.9.9.d.0.5.r s 7 7 < 7 Z _.tXsX|.oX|.|.oXoXoXoXoXoXoXoXoXoX.X.X.X.XhXhX.XOX{.].U.P.H.H.H.P.P.P.H.H.P.P.P.U.T.R.T.T.R.R.T.T.R.R.T.T.T.T.T.T.T.T.R.R.R.R.R.R.R.R.R.R.R.R.R.R.R.R.R.R.R.R.R.R.R.R.T.T.T.T.T.T.T.",
"1X1X1X1X1X1X1X1X1X1X1X1X1X1X1X1X3X3X3X3X2X2X2X4X4X4X-.' ) _ ` ` ` ` ` ` ` ` ` ` ` ` ` ` ` ` ` ` ` ` ` ` ` ` ` ` ` ` ` ` ` ` ` ` ` ` ` ` ` ` ` ` ` ` ` ` ` ` ` ` ` ` ` ` ` ` ` ] ] Y q 9 7 r e g 4.s.n.s.b.m.b.m.c.c.b.b.b.b.b.b.b.b.b.b.b.b.b.b.b.a.b.a.b.b.b.a.r.t.u.i.i.`.yXdXyXtXxXxXxXxXxXxXcXNXGXJXGXGXGXJXGXGXGXGXGXGXGXGXJXJXJXJXJXJXJXJXGXbXNXGXDXJXPXPXAXxXE.A S B = O o X       . .   X X .     . X X - B P.oXnXIXIXJXPXLXLXLXLXLXLXLXLXLXLXLXLXLXLXLXLXLXLXLXLXLXLXLXLXLXLXLXLXLXLXLXLXLXLXLXLXLXLXLXLXLXLXLXLXLXLXLXLXLXLXLXLXLXLXLXLXLXLXLXLXLXLXLXLXLXLXLXLXLXLXPXPXBX[.l.N 1 M M M M M M M M M M M M M M M M M M M M M 1 6 $ o o . . o . . = H.BXVXVXVXZXHXKXJXHXKXKXJXJXJXJXJXJXJXJXJXJXJXJXJXJXJXJXJXJXJXJXJXJXGXKXJXJXKXKXHXJXnXA . = J.K.B.e.e.e.e.e.B.M $ .       X . X o X X X   O ^ XXzX7XzXsXfXeXA.p.d.0.g.g.g.g.g.g.g.g.g.d.l r w t p 6.d.d.g.d.d.d.d.g.d.d.7.l p r r r t e k s.s.s.a.h.a.h.h.y.c.c.b.c.r.b.m.b.t.2.g 2 e e e w w w w w w w w w w w w w r w t w w r r r j l 6.8.6.6.8.7.7.7.7.9.9.9.0.0.7.7.7.0.8.j t 7 < < < c A.'.tXsX|.|.oXoXoXoXoXoXoXoXoXoXoX|..X.X.XhXhX.XOX].E.P.H.H.^ H.H.H.P.P.P.P.U.U.T.T.T.T.T.T.T.T.T.T.R.R.T.T.T.T.T.T.T.T.R.R.R.R.R.R.R.R.R.R.R.R.R.R.R.R.R.R.R.R.R.R.R.R.R.R.T.T.T.T.R.",
"1X1X1X1X1X1X1X1X1X1X1X1X1X1X1X1X3X3X3X3X2X2X2X2X4X4X-./ ) _ ` ` ` ` ` ` ` ` ` ` ` ` ` ` ` ` ` ` ` ` ` ` ` ` ` ` ` ` ` ` ` ` ` ` ` ` ` ` ` ` ` ` ` ` ` ` ` ` ` ` ` ` ` ` ` ` ` ] ] Y q 9 7 t e i 2.s.n.s.b.m.m.m.c.c.b.b.b.b.b.b.b.b.b.b.b.b.b.b.a.b.b.b.b.b.b.a.r.t.t.i.i.l.yXtXtXtXxXvXvXcXxXxXzXbXDXSXGXGXGXJXGXGXGXGXGXGXGXGXJXJXJXJXJXJXJXJXAXGXJXGXAXGXGXGXGXAXDXCXbX.X).Y.A S 1 = O o             .       . . O B P.rXSXPXPXLXLXLXLXLXLXLXLXLXLXLXLXLXLXLXLXLXLXLXLXLXLXLXLXLXLXLXLXLXLXLXLXLXLXLXLXLXLXLXLXLXLXLXLXLXLXLXLXLXLXLXLXLXLXLXLXLXLXLXLXLXLXLXPXLXLXPXLXLXLXKXBXJ.C M M M M M M M M M M M M M M M M M M M M M M M N N 6 6 $ O o o o o o o N .XVXVXVXCXHXKXJXAXKXKXJXJXJXJXJXJXJXJXJXJXJXJXJXJXJXJXJXJXJXJXJXJXGXJXJXAXHXKXHXKXJX{.- $ l.J.B.e.e.e.e.e.B.M $ o       . .             . A  XzXXXsXsXfXpXA.p.d.d.g.g.g.g.g.g.g.g.g.d.l r w t r 6.d.d.g.d.d.d.d.g.g.d.8.j r r r w t d x s.s.s.a.a.a.h.h.y.c.c.c.c.r.m.m.r.2.g i 2 e e w w w w w w w w w w w w w w w w w w r y f h l 5.6.6.6.6.8.7.7.7.7.7.7.9.9.9.7.7.7.8.l r s < < < 0 Z '.tXXXsX.X|.oXoXoXoXoXoX|.oXoXoXoX|..X.X.X.X.X}.].R.H.A A A A ^ H.H.P.P.U.T.R.R.T.T.T.T.T.T.T.T.T.T.R.R.R.R.R.R.R.R.R.R.R.R.R.R.R.R.R.R.R.R.R.R.R.R.R.R.R.R.R.R.R.R.R.R.R.R.T.T.T.T.R.",
"1X1X1X1X1X1X1X1X1X1X1X1X1X1X1X1X3X3X2X2X3X3X2X2X4X4X-./ ) ' ` ` ` ` ` ` ` ` ` ` ` ` ` ` ` ` ` ` ` ` ` ` ` ` ` ` ` ` ` ` ` ` ` ` ` ` ` ` ` ` ` ` ` ` ` ` ` ` ` ` ` ` ` ` ` ` ` ] E P m 9 7 t e g 3.n.n.a.a.b.b.c.c.c.b.b.b.b.b.b.b.b.b.b.b.b.b.b.b.b.z.z.b.b.b.a.r.t.i.i.C i.`.yXtXtXxXvXvXcXxXhXrXxXbXDXSXGXGXGXGXGXJXJXGXGXGXGXJXJXJXJXJXJXJXJXAXPXGXJXPXGXSXGXGXJXJXJXGXGXGXGXnXcXoX].P.A B 1 X X         X X X     X O B Q.nXPXLXLXLXLXLXLXLXLXLXLXLXLXLXLXLXLXLXLXLXLXLXLXLXLXLXLXLXLXLXLXLXLXLXLXLXLXLXLXLXLXLXLXLXLXLXLXLXLXLXLXLXLXLXLXLXLXLXLXLXLXLXLXLXLXPXLXLXLXLXKXkXJ.C M M M M M M M M M M M M M M M M M M M M M M M M M M M 1 6 $ O O . . o . = A kXVXVXVXCXKXJXAXKXJXJXJXHXHXJXJXJXJXJXJXJXJXJXJXJXJXJXJXJXJXJXJXHXJXHXHXHXKXKXKXPXbXS $ C B.B.B.e.e.e.e.B.M $ o X .     .     - = = o   A |.zX@X@XsXfXpXA.p.d.g.g.g.g.g.g.g.g.g.g.d.6.r r s r l d.d.d.d.d.d.d.g.g.d.8.p w r r r t d 2.s.g.s.a.a.a.h.h.h.c.c.c.c.a.m.b.t.4.i 2 e e e w w w w w w w w w w w w w w w w w w r p j l 5.6.6.6.6.6.8.7.7.7.7.7.7.7.7.9.8.7.7.5.h t 7 < 7 < C `.oXrXrXXX.X|.oXoXOXoXoXoX|.|.|.|.|..X.X.X.XOX{.].R.P.l.A A A H.H.H.P.P.P.T.T.R.R.R.R.T.T.T.T.T.T.T.T.R.R.R.R.R.R.R.R.R.R.R.R.R.R.R.R.R.R.R.R.R.R.R.R.R.R.T.T.T.T.T.T.T.T.R.T.T.T.T.R.R.",
"1X1X1X1X1X1X1X1X1X1X1X1X1X1X1X1X3X3X2X2X3X3X2X2X4X4X-./ ) ' ' ' ` ` ` ` ` ` ` ` ` ` ` ` ` ` ` ` ` ` ` ` ` ` ` ` ` ` ` ` ` ` ` ` ` ` ` ` ` ` ` ` ` ` ` ` ` ` ` ` ` ` ` ` ` ` ] ] E V > 9 u t e 4.0.n.n.a.a.b.r.r.c.c.b.b.b.b.b.b.b.b.b.b.b.b.b.b.z.z.z.z.z.b.b.a.r.t.i.i.C C S.yXtXxXvXvXvXxXhXrXzXrXxXnXSXGXGXGXJXJXJXJXJXGXGXGXJXJXJXJXJXJXJXJXJXJXJXJXJXGXGXJXPXGXAXSXJXJXJXSXGXGXJXJXAXnXrX{.U.A B - o     X .     X .   * P.PXLXLXLXLXLXLXLXLXLXLXLXLXLXLXLXLXLXLXLXLXLXLXLXLXLXLXLXLXLXLXLXLXLXLXLXLXLXLXLXLXLXLXLXLXLXLXLXLXLXLXLXLXLXLXLXLXLXLXLXLXLXLXLXLXLXLXLXLXPXBXJ.M M M M M M M M M M M M M M M M M M M M M M M M M M M M M M 6 = $ o . . . . O D jXbXVXVXCXHXJXGXKXKXJXJXHXHXJXJXJXJXJXJXJXJXJXJXJXJXJXJXJXJXJXGXHXJXKXJXKXHXKXHXHXAXR.= 6 C B.B.e.e.e.e.e.M 6 . .     . X   O S OXR.B - A oXcX7X@X@XfXpXA.p.d.g.g.g.g.g.g.g.g.g.g.d.6.p r s r l d.d.d.d.d.d.d.g.g.d.6.p t r r w t g 6.s.g.s.s.a.a.a.a.h.m.m.b.b.b.m.a.3.g 2 e i w w w w r w r r w w w w w w w w w w w r y h l l 6.6.6.6.6.6.8.7.7.7.7.7.7.7.7.7.8.7.8.z r t 7 < < 0 l.OXtXXXXXXX.X.XoXoXoXoXoXoX|.|.|.|.|..X.X.X}.{.W.T.P.H.H.H.H.H.H.P.P.P.U.T.T.T.R.R.R.R.T.T.T.T.T.T.T.T.R.R.R.R.R.R.R.R.R.R.R.R.R.R.R.R.R.R.R.R.R.R.R.R.R.R.T.T.T.T.T.T.T.T.R.R.T.T.T.T.R.",
"1X1X1X1X1X1X1X1X1X1X1X1X1X1X1X1X1X1X2X2X2X2X2X2X4X;.-./ / _ _ ' ` ` ` ` ` ` ` ` ` ` ` ` ` ` ` ` ` ` ` ` ` ` ` ` ` ` ` ` ` ` ` ` ` ` ` ` ` ` ` ` ` ` ` ` ` ` ` ` T ` ` ` ` ` ] ] Y q 9 8 u t e 4.n.n.n.b.b.b.c.c.c.c.b.b.b.b.b.b.b.b.b.b.b.b.b.b.b.b.b.b.r.z.z.r.r.r.i.c 5 5 i.uXgXvXvXjXxXjXhXhXzXrXzXcXnXSXGXGXGXJXJXJXGXGXGXGXJXJXJXJXJXJXJXJXJXJXJXJXJXJXJXJXJXJXJXJXJXJXJXJXGXGXGXGXGXGXGXGXIXnXzX{.A B - X O     X o X X B xXLXLXLXPXLXLXLXLXLXLXLXLXLXLXLXLXLXLXLXLXLXLXLXLXLXLXLXLXLXLXLXLXLXLXLXLXLXLXLXLXLXLXLXLXLXLXLXLXLXLXLXLXLXLXLXLXLXLXLXLXLXLXLXLXLXLXLXLXBXJ.C M M M M M M M M M M M M M M M M M M M M M M M M M M M M M M M N 6 $ . .     o O H.kXVXVXCXCXKXKXHXHXHXHXFXFXJXJXJXJXJXJXJXJXJXJXJXJXJXJXJXJXJXGXHXJXHXHXHXHXKXHXKXHXbXS $ 1 B.B.e.e.e.e.e.q.6 o .   X .   . S hXLXGXQ.= l.zXzX@X@X@XfXfXA.p.p.0.g.g.g.g.g.g.g.g.f.d.8.l r s r p 8.g.f.g.d.d.d.d.g.d.6.p w w r r e h 2.p.s.s.s.s.a.a.a.a.a.r.a.a.b.a.3.<.g i e e e w w w r r e e e e w w w r r e r r r r p j l v 6.6.6.6.6.6.8.8.7.7.7.7.7.7.7.9.7.6.6.h 7 7 7 < < Z '.sXXX XXXoXoXoXoXoXoXoXOXOXOXOXOXoX|.|.OXOX].Q.P.H.H.H.H.H.P.P.P.P.T.T.T.R.R.R.R.R.R.R.R.R.R.R.R.R.R.R.R.R.R.R.R.R.R.R.R.R.R.R.R.R.R.R.R.R.R.R.R.R.R.R.R.R.R.R.R.R.R.R.R.R.R.R.R.R.R.R.R.",
"1X1X1X1X1X1X1X1X1X1X1X1X1X1X1X1X1X1X2X2X2X2X2X2X4X;.&./ / _ _ ' ` ` ` ` ` ` ` ` ` ` ` ` ` ` ` ` ` ` ` ` ` ` ` ` ` ` ` ` ` ` ` ` ` ` ` ` ` ` ` ` ` ` ` ` ` ` ` ` ` o.` ` ` ` ] E W q 9 8 t t e 4.n.n.n.b.b.b.c.c.c.c.b.b.b.b.b.b.b.b.b.b.b.b.b.b.b.b.b.b.z.a.z.z.r.r.i.g 5 5 i.`.yXvXkXtXjXjXhXhXzXzXzXxXbXNXSXJXGXGXGXGXGXGXGXGXJXJXJXJXJXJXJXJXJXJXJXJXJXJXJXJXJXJXJXJXJXJXJXJXGXGXGXGXGXGXGXGXSXSXIXIXDXrXR.A * O X     X X * XXPXLXLXLXLXLXLXLXLXLXLXLXLXLXLXLXLXLXLXLXLXLXLXLXLXLXLXLXLXLXLXLXLXLXLXLXLXLXLXLXLXLXLXLXLXLXLXLXLXLXLXLXLXLXLXLXLXLXLXLXLXLXLXLXLXLXLXZX[.C M M M M M M q.q.q.M M M M M M M M M M M M M M M M M M M M M M M M 6 $ o . .   . O N [.VXVXCXZXAXHXHXHXHXHXFXFXJXJXJXJXJXJXJXJXJXJXJXJXJXJXJXJXJXKXHXJXHXHXKXHXKXKXKXHXCX].1 6 i.B.B.e.e.e.e.w.6 o o   .     - R.JXLXLX.X1 P.cXzXzX@X@XfXfXA.g.g.d.g.g.g.g.g.g.g.g.f.d.8.l r s r p 6.d.f.g.d.d.d.d.g.d.6.p w w r r t d z 6.7.s.8.3.s.s.s.s.a.a.b.b.b.s.2.g i i w w w w w w r r e e e e w w w r r e r r r y h j v b 6.6.6.6.6.6.8.8.7.7.7.7.7.7.7.7.8.5.h t < < < < c A.OXrX|.XXXXoXoXoXOXOXOXOXOXOXOXOX}.OX|.oX}.{.Q.T.H.H.H.H.P.P.P.T.T.T.T.R.R.E.R.R.R.R.R.R.R.R.R.R.R.R.R.R.R.R.R.R.R.R.R.R.R.R.R.R.R.R.R.R.R.R.R.R.R.R.R.R.R.R.R.R.R.R.R.R.R.R.R.R.R.R.R.R.R.",
"1X1X1X1X1X1X1X1X1X1X1X1X1X1X1X1X<X<X2X2X2X2X2X2X4X>.&./ / _ _ ` ` ` ` ` ` ` ` ` ` ` ` ` ` ` ` ` ` ` ` ` ` ` ` ` ` ` ` ` ` ` ` ` ` ` ` ` ` ` ` ` ` ` ` ` ` ` ` ` ` o.` ` ` ` ] E U 0 9 7 t t g 2.n.n.n.b.b.b.c.c.c.c.b.b.b.b.b.b.b.b.b.b.b.b.b.b.z.z.b.b.b.a.b.b.m.t.1.4 5 5 C S.yXyXtXtXtXtXjXjXzXzXzXzXxXbXNXGXGXGXGXGXGXJXGXGXJXJXJXJXJXJXJXJXJXJXJXJXJXJXJXJXJXJXJXJXJXJXJXJXGXGXGXGXGXGXGXGXJXGXSXGXJXIXDXCX{.A 1 O       - oXLXLXLXLXLXLXLXLXLXLXLXLXLXLXLXLXLXLXLXLXLXLXLXLXLXLXLXLXLXLXLXLXLXLXLXLXLXLXLXLXLXLXLXLXLXLXLXLXLXLXLXLXLXLXLXLXLXLXLXLXLXLXLXLXLXLXKXyXu.M M M M q.q.q.q.q.q.M M M M q.q.q.q.M q.M M q.q.q.q.q.q.q.q.M M M C M 6 o o o   . o $ H.VXVXVXHXAXHXHXHXJXGXFXFXJXJXJXJXJXJXJXJXJXJXJXJXJXJXJXJXJXKXHXKXHXHXKXKXKXKXKXHXCXBXA $ M B.B.e.e.e.e.B.M $ o       . = OXLXPXPXrXB Y.cX7X@X7X@XfX@XA.Z.C.f.g.g.g.g.g.g.g.g.f.d.7.6.r t r r 5.d.g.d.d.d.d.d.g.d.6.p w w r r t e h z l l z z 4.4.2.2.3.t.s.s.s.7.4.g i e w w w w w r r r e e w w w w w w r e y y h h j l v v 6.6.6.6.6.6.8.8.7.7.7.7.7.7.7.7.6.z r 7 < < 7 0 A.OXsXoX|.rX|.oXOXOX}.}.}.}.}.}.oX}.}.}.OX}.].W.P.H.H.H.H.P.P.P.E.E.E.E.E.E.E.E.R.R.R.R.R.R.R.R.R.R.R.R.R.R.R.R.R.R.R.R.R.R.R.R.R.R.R.R.R.R.R.R.R.R.R.R.R.R.R.R.R.R.R.R.R.R.R.R.R.R.R.R.R.R.R.",
"1X1X1X1X1X1X1X1X1X1X1X1X1X1X1X1X<X<X2X2X2X2X2X2X4X=.[ / / _ _ ` ` ` ` ` ` ` ` ` ` ` ` ` ` ` ` ` ` ` ` ` ` ` ` ` ` ` ` ` ` ` ` ` ` ` ` ` ` ` ` ` ` ` ` ` ` ` ` ` o.o.` ` ` ] ] E q 9 7 7 7 t z 7.n.n.n.b.b.c.c.c.c.c.b.b.b.b.b.b.b.b.b.b.b.b.b.b.z.z.z.z.b.b.b.b.m.t.1.5 5 5 c l.yXyXtXtXtXtXjXjXzXxXzXrXrXxXnXDXGXGXGXGXGXGXGXGXJXJXJXJXJXJXJXJXJXJXJXJXJXJXJXJXJXJXJXJXJXJXJXJXGXGXGXGXGXGXGXGXSXDXDXSXIXPXJXGXGXmX{.A * X   - {.LXLXLXLXPXLXLXLXLXLXLXLXLXLXLXLXLXLXLXLXLXLXLXLXLXLXLXLXLXLXLXLXLXLXLXLXLXLXLXLXLXLXLXLXLXLXLXLXLXLXLXLXLXLXLXLXLXLXLXLXLXLXLXLXLXPXkXJ.M M M q.q.q.q.q.q.q.q.q.q.q.q.q.q.q.q.q.q.q.q.q.q.q.q.q.q.q.q.q.M M M M 1 - $ o . . X O A kXbXnXZXZXHXHXGXJXGXSXFXJXJXJXJXJXJXJXJXJXJXJXJXJXJXJXJXJXKXJXKXHXHXKXKXKXKXKXHXNXCX[.N 6 w.B.e.e.e.J.J.M 6 . .     . - {.LXPXLXbXS Q.mX X@XzX@XfX@XA.Z.Z.C.d.g.g.g.g.g.g.g.f.d.0.6.h w r r l 7.g.d.d.d.d.g.g.d.6.h w w w w t t r r p d d i i i g g g <.4.4.2.4.4.i i i w w w w w r w r r r w w t t w r e r p h j l v 5.v v 6.6.6.6.6.6.8.8.8.7.7.7.7.7.8.8.6.z t 7 7 < c Z '.fXsXXXXX|.oXoX}.}.}.}.}.}.{.{.OXOX}.{.{.].Q.U.H.H.H.H.P.T.T.T.E.E.E.E.E.E.E.E.R.R.R.R.R.R.R.R.R.R.R.R.R.R.R.R.R.R.R.R.R.R.R.R.R.R.R.R.R.R.R.R.R.R.R.R.R.R.R.R.R.R.R.R.R.R.R.R.R.R.R.R.R.R.R.",
"1X1X1X1X1X1X1X1X1X1X1X1X1X1X1X1X<X<X2X2X2X2X2X2X4X-./ / ) _ _ ` ` ` ` ` ` ` ` ` ` ` ` ` ` ` ` ` ` ` ` ` ` ` ` ` ` ` ` ` ` ` ` ` ` ` ` ` ` ` ` ` ` ` ` ` ` ` ` ` o.` _ ` ` ] ] E q 9 8 t 7 t z s.n.n.b.b.b.m.c.c.c.c.b.b.b.b.b.b.b.b.b.b.b.b.b.b.z.z.b.b.b.b.b.b.m.3.4 5 5 5 c j.uXyXyXyXtXtXjXjXxXxXzXrXrXzXvXbXDXSXIXJXGXGXGXJXJXJXJXJXJXJXJXJXJXJXJXJXJXJXJXJXJXJXJXJXJXJXJXJXGXGXGXGXGXGXGXGXIXGXSXGXIXIXSXSXGXSXGXnX{.S - X {.LXLXLXLXPXLXLXLXLXLXLXLXLXLXLXLXLXLXLXLXLXLXLXLXLXLXLXLXLXLXLXLXLXLXLXLXLXLXLXLXLXLXLXLXLXLXLXLXLXLXLXLXLXLXLXLXLXLXLXLXLXLXLXLXPXBXJ.M M q.q.q.q.q.q.q.q.q.q.q.q.q.q.q.q.q.q.q.q.q.q.q.q.q.q.q.q.q.w.q.M M M M M N $ o . . X o B [.bXnXVXZXHXHXGXGXGXGXGXJXJXJXJXJXJXJXJXJXJXJXJXJXJXGXGXGXHXKXKXKXKXKXKXKXKXHXHXHXHXbXH.6 C B.B.J.J.K.J.B.6 o .       O P.nXGXPXAXl.{.mX X7X7X@XsXOXA.k.Z.C.d.g.g.g.g.g.g.g.f.d.d.8.j r r r h 8.d.d.g.g.g.g.g.d.6.p w w r w t t w e e e e e e e e i i i i i g g g i e i e w w w w w r r r r w w t w w r r r h j l v 5.6.6.v 6.6.6.6.6.6.8.8.8.8.7.7.7.8.6.5.z f t 7 < < Z `.fXsXtXrXXXoXOXoX}.}.{.{.}.}.{.{.}.}.{.{.].E.T.P.H.H.H.P.T.R.R.R.E.E.E.E.E.R.R.R.R.R.R.R.R.R.R.R.R.R.R.R.R.R.R.R.R.R.R.R.R.R.R.R.R.R.R.R.R.R.R.R.R.R.R.R.R.R.R.R.R.R.R.R.R.R.R.R.R.R.R.R.R.R.R.",
"1X1X1X1X1X1X1X1X1X1X1X1X1X1X1X1X<X<X2X2X2X2X2X4X4X-./ / _ _ _ ` ` ` ` ` ` ` ` ` ` ` ` ` ` ` ` ` ` ` ` ` ` ` ` ` ` ` ` ` ` ` ` ` ` ` ` ` ` ` ` ` ` ` ` ` ` ` ` ` _ _ _ ` ` ] E W m 9 8 t 7 d k s.s.n.b.b.b.m.c.c.c.c.b.b.b.b.b.b.b.b.b.b.b.b.b.b.b.z.b.b.z.z.b.b.m.1.4 5 5 4 c u.`.uXyXyXtXtXjXjXzXzXxXzXzXzXxXxXnXDXGXIXGXSXGXJXGXJXJXJXJXJXJXJXJXJXJXJXJXJXJXJXJXJXJXJXJXJXJXJXJXJXJXJXJXJXJXJXGXGXGXIXIXIXSXSXSXSXGXPXJXbXP.1 {.JXLXLXLXLXLXLXLXLXLXLXLXLXLXLXLXLXLXLXLXLXLXLXLXLXLXLXLXLXLXLXLXLXLXLXLXLXLXLXLXLXLXLXLXLXLXLXLXLXLXLXLXLXLXLXLXLXLXLXLXLXLXLXLXZX[.w.M q.q.q.q.q.q.q.q.q.q.q.q.q.q.q.q.q.q.q.q.q.q.q.q.q.q.q.w.q.q.q.q.q.M M M C C = o o o X   - H.bXVXVXZXHXHXGXGXGXGXGXJXJXJXJXJXJXJXJXJXJXJXJXJXJXJXGXGXHXKXKXKXKXKXKXKXKXKXHXHXCXHXjXS N B.J.K.K.K.K.J.M o .     .   * A E.).).S {.bX@X7XzXsXsX'.l.Z f.f.d.g.g.g.g.g.g.g.g.d.d.0.l r r w r 6.d.d.g.g.g.g.g.d.6.p w w r r t t w w w w w w e w i i i i i i i i a i i i i w w w w w r r r r w w w w e r p p j l v 5.6.6.6.b 6.6.6.6.6.6.8.8.8.8.7.7.8.6.l j f t 7 7 7 0 A.fXsXrXrXXX|.oXoX}.{.}.{.{.}.{.{.{.{.{.{.].E.T.P.P.P.P.P.T.R.R.R.R.E.E.E.R.R.T.T.T.R.R.R.R.R.R.R.R.R.R.R.R.R.R.R.R.R.R.R.R.R.R.R.R.R.R.R.R.R.R.R.R.R.R.R.R.R.R.R.R.R.R.R.R.R.R.R.R.R.R.R.R.R.R.R.",
"1X1X1X1X1X1X1X1X1X1X1X1X1X1X1X1X<X<X2X2X2X2X2X4X<X-./ / _ _ _ ` ` ` ` ` ` ` ` ` ` ` ` ` ` ` ` ` ` ` ` ` ` ` ` ` ` ` ` ` ` ` ` ` ` ` ` ` ` ` ` ` ` ` ` ` ` ` ` ` _ _ _ ` ` ] E U m 7 u t t d x s.s.n.b.b.b.m.c.c.c.c.b.b.b.b.b.b.b.b.b.b.b.b.b.b.a.a.a.b.z.z.z.b.r.4 5 5 4 1.i.u.l.`.yXyXtXjXjXjXxXxXxXxXzXsXzXzXcXnXUXSXGXGXGXGXGXJXJXJXJXJXJXJXJXJXJXJXJXJXJXJXJXJXJXJXJXJXJXJXJXJXJXJXJXJXJXJXSXGXIXIXJXIXJXGXJXIXSXJXJXJXNXOXxXPXLXLXLXLXLXLXLXLXLXLXLXLXLXLXLXLXLXLXLXLXLXLXLXLXLXLXLXLXLXLXLXLXLXLXLXLXLXLXLXLXLXLXLXLXLXLXLXLXLXLXLXLXLXLXLXLXLXLXLXLXLXLXKXkXB.M M q.q.w.q.q.q.q.q.w.q.w.w.w.w.w.w.q.q.q.w.w.w.w.q.w.q.q.w.q.q.q.q.q.M M M M N 6 O O O o   . B oXVXBXCXHXHXGXGXGXGXGXGXJXJXJXJXJXJXJXJXJXJXJXJXJXJXJXGXHXKXKXKXKXKXKXKXKXKXHXHXHXKXCX).M q.J.K.K.K.K.J.S $ . .   .     O = - = = Q.cX@X@XzXzXsX'.Z Z p.g.d.g.g.g.g.g.g.g.d.d.f.d.5.p r t w 5.d.d.g.g.g.f.g.0.6.p w w r r t t w w w w w w w w i i i i i i w i i i w i e w w w e e e e r e w w r r r p h h l l v 5.5.6.6.6.6.6.6.6.6.6.8.8.8.8.7.7.6.l h y t t 7 d x A.'.dXsXrXrXXX|.oXOX{.}.}.}.}.}.}.{.{.{.].^.E.U.P.P.P.P.T.T.R.R.R.R.R.R.R.R.R.T.T.T.T.R.R.R.R.R.R.R.R.R.R.R.R.R.R.R.R.R.R.R.R.R.R.R.R.R.R.R.R.R.R.R.R.R.R.R.R.R.R.R.R.R.R.R.R.R.R.R.R.R.R.R.R.R.R.R.",
"1X1X1X1X1X1X1X1X1X1X1X1X1X1X1X1X<X<X<X2X2X2X2X4X<X-./ / _ _ _ ` ` ` ` ` ` ` ` ` ` ` ` ` ` ` ` ` ` ` ` ` ` ` ` ` ` ` ` ` ` ` ` ` ` ` ` ` ` ` ` ` ` ` ` ` ` ` ` ` ` _ _ ` ` ] E V 9 7 t t t f 2.s.s.b.b.b.b.m.m.m.c.c.b.b.b.b.b.b.b.b.b.b.b.b.b.b.a.a.a.a.z.b.b.b.t.4 3 5 4 i.i.u.j.`.yXyXtXjXjXjXzXxXcXcXzXsXsXzXsXcXnXDXGXGXGXSXGXJXJXJXJXJXJXJXJXJXJXJXJXJXJXJXJXJXJXJXJXJXJXJXJXJXJXJXJXJXJXJXGXGXGXGXSXSXSXGXSXIXIXJXDXSXLXSXSXLXPXLXLXPXLXLXLXLXLXLXLXLXLXLXLXLXLXLXLXLXLXLXLXLXLXLXLXLXLXLXLXLXLXLXLXLXLXLXLXLXLXLXLXLXLXLXLXLXLXLXLXLXLXLXLXLXLXLXLXLXLXLXVXJ.M M M q.w.q.q.q.q.q.q.w.w.w.q.q.q.w.w.q.q.q.q.q.q.q.q.q.q.q.q.q.q.q.M M M M 6 6 6 $ O O o X X   - T.kXbXVXZXHXGXGXGXGXGXGXJXJXJXJXJXJXJXJXJXJXJXJXJXJXJXGXHXHXKXKXKXKXKXKXKXHXKXKXKXHXZXBXl.M J.K.K.K.K.J.B.N o o   . X     .   . O Y.zX7XzXzXmXsX'.Z x k.g.d.g.g.g.g.g.g.g.g.d.f.d.6.h r t t 5.0.d.g.g.g.f.g.0.6.p w w r r t t w r r w w w w w w w w w w w w i i w w w e w r r e e e e e e r r r e r p h h l v v 5.5.5.6.6.6.6.6.6.6.6.8.8.8.8.7.8.6.z p t 7 7 f x l.'.dXdXsXsXXXXX.XOX{.{.}.}.}.}.}.}.{.{.].^.E.T.P.P.T.T.P.T.T.T.R.R.R.R.R.R.R.T.T.T.T.T.R.R.R.R.R.R.R.R.R.R.R.R.R.R.R.R.R.R.R.R.R.R.R.R.R.R.R.R.R.R.R.R.R.R.R.R.R.R.R.R.R.R.R.R.R.R.R.R.R.R.R.R.R.R.R.",
"1X1X1X1X1X1X1X1X1X1X1X1X1X1X1X1X1X1X1X<X<X<X2X4X;.&./ ) _ _ _ ` ` ` ` ` ` ` ` ` ` ` ` ` ` ` ` ` ` ` ` ` ` ` ` ` ` ` ` ` ` ` ` ` ` ` ` ` ` ` ` ` ` ` ` ` ` ` ` ` ` o._ _ ] E R q 9 u r t e k s.s.b.m.b.b.b.b.b.b.b.b.b.b.b.b.b.b.b.b.b.b.b.b.b.b.r.r.r.b.b.b.a.a.2.4 2 4 i.u.u.u.u.l.uXyXtXtXtXcXzXcXbXnXnXzXsXzXzXxXcXbXnXDXSXIXGXJXJXJXGXGXGXSXJXJXJXJXJXGXGXGXGXGXGXGXGXGXGXGXJXJXJXJXJXJXJXJXJXJXJXJXIXIXIXIXGXGXGXGXGXJXIXJXGXPXLXLXLXLXLXLXLXLXLXLXLXLXLXLXLXLXLXLXLXLXLXLXLXLXLXLXLXLXLXLXLXLXLXLXLXLXLXLXLXLXLXLXLXLXLXLXLXLXLXLXLXLXLXLXLXPXLXLXPXLXLXKXuXB.M q.q.q.w.w.w.w.w.q.w.q.w.w.w.q.w.w.w.q.M q.q.q.w.w.w.q.q.w.i.i.M M 6 6 $ $ $ o o o o X X X   . X S &XnXCXCXHXJXGXGXGXGXGXGXJXJXJXJXJXJXJXJXJXJXJXJXJXJXJXKXKXKXKXKXKXKXKXKXKXHXHXHXKXKXCXkXi.B.J.J.K.K.J.J.M 6 o . .       . . X O R.cX@X@XmXmXfX`.Z c b k.p.g.g.g.f.f.f.g.g.g.g.f.7.j e e y j 6.9.d.d.d.g.g.g.8.h r t t r w w t t t t w w w w w w w w w w w w w w w r r w w w w w w w w w t w r p h h h h l l l v 5.6.6.6.6.6.6.6.6.6.6.6.8.8.8.b j f r t 7 7 c A.'.dXmXxXsX@XXX|.oXOXOX}.{.}.}.OXOXOX{.{.E.E.R.T.P.P.P.P.T.T.R.R.R.R.R.R.R.R.R.R.R.R.R.R.R.R.R.R.R.R.R.R.R.R.R.R.R.R.R.R.R.R.R.R.R.R.R.R.R.R.R.R.R.R.R.R.R.R.R.R.R.R.R.R.R.R.R.R.R.R.R.R.R.R.R.R.R.R.R.",
"1X1X1X1X1X1X1X1X1X1X1X1X1X1X1X1X1X1X1X1X<X<X2X4X;.&./ ) _ ` ` ` ` ` ` ` ` ` ` ` ` ` ` ` ` ` ` ` ` ` ` ` ` ` ` ` ` ` ` ` ` ` ` ` ` ` ` ` ` ` ` ` ` ` ` ` ` ` ` ` ` ` _ _ ] E R q 7 r e e e z s.s.b.m.b.b.b.b.b.b.b.b.b.b.b.b.b.b.b.b.b.b.b.b.b.b.r.r.r.b.b.b.n.t.1.3 2 4 i.u.u.u.u.l.`.yXtXtXtXxXrXzXbXDXDXnXzXzXrXzXxXcXnXUXSXFXJXJXGXGXGXJXGXGXJXJXJXJXJXGXGXGXGXGXGXGXGXGXGXGXJXJXJXGXGXGXGXGXSXSXSXSXSXSXSXGXIXIXSXSXSXSXGXGXJXPXLXLXLXLXLXLXLXLXLXLXLXLXLXLXLXLXLXLXLXLXLXLXLXLXLXLXLXLXLXLXLXLXLXLXLXLXLXLXLXLXLXLXLXLXLXLXLXLXLXLXLXLXLXLXLXLXLXLXLXLXPXkXJ.w.q.w.w.w.w.w.w.q.w.w.w.w.w.w.q.w.w.q.q.q.B.B.J.J.J.J.B.w.q.M M 1 6 6 $ $ $ $ o o o o o X X .   . . D [.bXVXCXHXJXJXJXGXGXGXGXJXJXJXJXJXJXJXJXJXJXJXJXJXJXJXKXKXKXKXKXKXKXKXKXHXHXHXHXKXKXHXBXuXuXJ.J.J.K.K.J.B.6 o o o .     . . X - R.cX7X@XcXmXfX`.C c b k.p.g.g.d.g.f.f.g.f.g.f.f.0.5.h e r h 5.7.d.g.g.g.g.g.8.h r t t r w w t t t t w w w w w w w w w w r r r r r r r r w w w w w w w w r r r h h h h h l l l v 5.5.6.6.6.6.6.6.6.6.6.6.8.6.b k f r t t 7 0 Z '.fXvXmXzX@XXX X|.oXOXOX}.{.OXOXOXOX{.].].E.R.R.T.T.P.U.T.T.T.U.T.U.T.T.T.R.R.R.R.R.R.R.R.R.R.R.R.R.R.R.R.R.R.R.R.R.R.R.R.R.R.R.R.R.R.R.R.R.R.R.R.R.R.R.R.R.R.R.R.R.R.R.R.R.R.R.R.R.R.R.R.R.R.R.R.R.R.R.",
"1X1X1X1X1X1X1X1X1X1X1X1X1X1X1X1X1X1X1X1X<X<X<X<X;.[ / ) _ ` ` ` ` ` ` ` ` ` ` ` ` ` ` ` ` ` ` ` ` ` ` ` ` ` ` ` ` ` ` ` ` ` ` ` ` ` ` ` ` ` ` ` ` ` ` ` ` ` ` ` ` ` _ ` ] ] W 0 7 r e e r 4.s.s.b.m.b.b.b.b.b.b.b.b.b.b.b.b.b.b.b.b.b.b.b.b.b.b.r.z.r.r.m.M.a.3.g 3 2 g u.y.u.u.u.j.l.uXyXtXtXtXrXsXcXUXSXDXnXcXzXsXsXzXcXnXnXDXGXGXGXGXJXJXJXGXJXJXJXJXGXGXGXGXGXGXGXGXGXGXGXGXJXJXJXJXJXGXGXGXIXIXIXIXIXIXJXJXSXGXGXIXJXJXGXGXJXPXLXLXLXLXLXLXLXLXLXLXLXLXLXLXLXLXLXLXLXLXLXLXLXLXLXLXLXLXLXLXLXLXLXLXLXLXLXLXLXLXLXLXLXLXLXLXLXLXLXLXLXLXLXLXPXLXPXLXPXLXHX[.w.q.q.w.w.w.w.w.w.w.w.w.w.w.w.w.q.q.q.q.w.J.uXkXlXlXBXlXyX[.B.N 6 $ $ $ o o $ o o o . . . . .     X . O H.kXnXCXHXGXGXGXGXGXGXGXJXJXJXJXJXJXJXJXJXJXJXJXJXJXJXKXHXKXKXKXKXKXKXKXHXHXHXKXKXKXKXKXZXkXuXJ.J.J.K.K.K.C $ o o .   X . . . - R.cX7X@XxXmXfXA.c 0 c Z p.p.g.d.g.f.f.f.f.f.f.f.g.7.l p w p l 8.d.g.g.g.g.g.7.j r t t r w w t t t t w w w w w w w w w w r r r r r r r r w w r r r r r r r r h h h z l l l l l v v 5.6.6.6.6.6.6.6.6.6.6.b v l f u t t d 0 n l.'.dXxXzXsXXX X XoXOXOX}.{.{.}.}.}.OX].^.E.R.R.T.T.T.T.T.T.P.P.P.P.P.P.P.T.R.R.R.R.R.R.R.R.R.R.R.R.R.R.R.R.R.R.R.R.R.R.R.R.R.R.R.R.R.R.R.R.R.R.R.R.R.R.R.R.R.R.R.R.R.R.R.R.R.R.R.R.R.R.R.R.R.R.R.R.R.R.R.",
"1X1X1X1X1X1X1X1X1X1X1X1X1X1X1X1X1X1X<X<X<X<X<X2X>.[ / ) _ ` ` ` ` ` ` ` ` ` ` ` ` ` ` ` ` ` ` ` ` ` ` ` ` ` ` ` ` ` ` ` ` ` ` ` ` ` ` ` ` ` ` ` ` ` ` ` ` ` ` ` ` _ _ ` @.E U 9 7 r w e d 2.s.s.b.m.b.b.b.b.b.z.b.b.b.b.b.b.b.b.b.b.b.b.b.b.b.b.r.c.z.r.m.M.s.1.4 2 5 1.h.h.h.u.u.u.l.`.yXtXtXtXxXsXxXnXSXSXDXnXmXcXsXrXsXzXbXnXDXAXJXJXJXJXJXJXGXGXGXGXGXGXGXGXGXGXGXGXGXGXGXGXGXGXGXGXJXJXJXJXGXGXGXGXGXGXGXGXGXJXIXIXIXIXIXIXJXPXLXLXLXLXLXLXLXLXLXLXLXLXLXLXLXLXLXLXLXLXLXLXLXLXLXLXLXLXLXLXLXLXLXLXLXLXLXLXLXLXLXLXLXLXLXLXLXLXLXLXLXLXLXLXPXLXPXLXLXPXkXl.q.q.w.w.w.w.w.w.w.w.w.w.w.w.w.q.w.q.q.B.uXlXKXKXKXPXPXPXKXZX[.N $ o o $ o o o o o . . .           . . . S jXCXCXHXHXGXGXGXGXGXGXJXJXJXJXJXJXJXJXJXJXJXJXJXJXJXKXHXKXKXKXKXKXKXKXKXHXHXKXKXKXKXKXKXVXyXuXJ.J.K.K.uXJ.6 o o o . . . . . = Q.zX7X@XzXmXfXA.0 7 c x 8.p.d.g.g.f.f.f.f.C.C.C.f.g.6.h w r j 6.0.g.g.g.g.g.7.j y w w r w w t t t t w w w w w w w w w w r r r r r r r r w w r r r r r r r p h h h j l l l l l l v v 5.6.v v 6.6.6.6.6.6.v k f t 7 7 u f n Z A.'.sXsXzXXX XoXoXoXOXOX}.{.}.}.{.{.].^.E.R.T.T.T.T.T.T.T.R.U.P.P.P.H.P.P.T.R.R.R.R.R.R.R.R.R.R.R.R.R.R.R.R.R.R.R.R.R.R.R.R.R.R.R.R.R.R.R.R.R.R.R.R.R.R.R.R.R.R.R.R.R.R.R.R.R.R.R.R.R.R.R.R.R.R.R.R.R.R.R.",
"1X1X1X1X1X1X1X1X1X1X1X1X1X1X1X1X1X1X1X1X<X<X<X<X-.' / ' _ ` ` ` ` ` ` ` ` ` ` ` ` ` ` ` ` ` ` ` ` ` ` ` ` ` ` ` ` ` ` ` ` ` ` ` ` ` ` ` ` ` ` ` ` ` ` ` ` ` ` ` ` _ _ ` *.E V 9 7 t w e g 2.s.s.b.m.b.b.b.b.z.z.b.b.b.b.b.b.b.b.c.c.b.b.b.b.b.b.r.c.b.r.b.n.3.g 3 5 g i.h.j.h.u.u.u.j.l.uXyXtXtXxXsXzXnXDXSXSXAXnXnXmXxXrXsXzXcXnXDXGXPXJXJXJXJXGXGXGXGXGXGXGXGXGXGXGXGXGXGXGXGXAXAXAXAXAXGXGXGXSXSXSXSXSXSXSXSXSXSXSXSXSXSXIXPXGXPXLXLXLXLXLXLXLXLXLXLXLXLXLXLXLXLXLXLXLXLXLXLXLXLXLXLXLXLXLXLXLXLXLXLXLXLXLXLXLXLXLXLXLXLXLXLXLXLXLXLXLXLXLXLXLXLXLXLXLXZX[.u.w.w.w.w.w.w.w.w.w.w.w.w.w.w.w.q.q.M J.uXZXPXPXLXLXPXLXKXPXLXNXE.= o . o o X X . .               .   .   = [.CXCXHXHXGXGXJXJXGXGXJXJXJXJXJXJXJXJXJXJXJXJXJXJXJXKXHXHXKXKXKXKXHXHXKXHXHXKXPXKXHXKXKXZXBXkXuXuXuXuXuXK.S $ o o o . . . . * W.zXzXsXsXmXfXl.1 < 0 c x 8.p.g.f.f.C.f.f.C.C.C.C.f.7.l r r p l 7.d.g.g.g.g.9.l p w w r w w t t t t w w w w w w w w w w w w w w w w w w w w w w w w w w r y y p h j j j l l l v v v v v v v v v v v v v j h u 7 7 8 f n n Z R _.oXrXXXXXoXoXOXOXOXOX}.{.}.{.{.].W.E.R.T.T.T.T.T.T.R.R.R.T.U.P.P.P.P.T.R.R.R.R.R.R.R.R.R.R.R.R.R.R.R.R.R.R.R.R.R.R.R.R.R.R.R.R.R.R.R.R.R.R.R.R.R.R.R.R.R.R.R.R.R.R.R.R.R.R.R.R.R.R.R.R.R.R.R.R.R.R.R.R.",
"1X1X1X1X1X1X1X1X1X1X1X1X1X1X1X1X3X1X1X1X<X<X<X4X-.' / ' _ ` ` ` ` ` ` ` ` ` ` ` ` ` ` ` ` ` ` ` ` ` ` ` ` ` ` ` ` ` ` ` ` ` ` ` ` ` ` ` ` ` ` ` ` ` ` ` ` ` ` ` ` _ _ ` *.E q 9 7 t w e g 3.s.a.m.m.b.b.b.b.z.z.b.b.b.b.b.b.b.b.c.c.b.b.b.b.b.b.z.c.b.b.b.a.2.4 3 5 c t.h.j.h.u.u.u.u.l.`.yXyXtXsXsXxXbXNXAXSXSXDXDXnXbXcXzXzXzXbXnXDXSXGXGXGXGXGXGXGXGXGXGXGXGXGXGXGXGXGXGXGXGXGXGXGXGXAXAXAXAXSXSXSXSXSXSXSXSXGXGXSXSXSXSXSXSXGXPXLXLXLXLXLXLXLXLXLXLXLXLXLXLXLXLXLXLXLXLXLXLXLXLXLXLXLXLXLXLXLXLXLXLXLXLXLXLXLXLXLXLXLXLXLXLXLXLXLXLXLXLXLXLXLXLXLXLXPXkXB.w.q.w.w.w.w.w.w.w.w.w.w.w.w.w.w.q.M B.uXZXLXLXPXLXLXLXLXPXPXLXPXDXA =     . X X   X               X   . X O H.nXCXHXHXGXGXJXJXGXGXJXJXJXJXJXJXJXJXJXJXJXJXJXJXJXJXHXHXKXKXKXKXHXHXHXAXAXHXKXKXHXKXKXHXZXBXkXuXuXuXuXuXJ.N $ $ o . . . X B {.zXzXsXsXmXOXZ < < 0 d f x p.p.g.f.f.C.f.f.f.f.C.C.d.6.j y w p 5.0.g.g.g.f.9.l p r w r w w t t t t w w w w w w w w w w w w w w w w w w r r r r r r w r r r y y p h j j l l l l v v v v v l l l l j j j f f u 8 8 8 n n Z V Z !.XXXXXXXXoXOX}.OXOXOXOX{.{.{.].W.E.R.T.T.U.T.T.R.R.R.T.T.R.T.T.U.T.T.R.R.R.R.R.R.R.R.R.R.R.R.R.R.R.R.R.R.R.R.R.R.R.R.R.R.R.R.R.R.R.R.R.R.R.R.R.R.R.R.R.R.R.R.R.R.R.R.R.R.R.R.R.R.R.R.R.R.R.R.R.R.R.R.R.",
"1X1X1X1X1X1X1X1X1X1X1X1X1X1X1X1X3X3X<X<X<X1X<X4X-./ / _ _ ` ` ` ` ` ` ` ` ` ` ` ` ` ` ` ` ` ` ` ` ` ` ` ` ` ` ` ` ` ` ` ` ` ` ` ` ` ` ` ` ` ` ` ` ` ` ` ` ` ` ` ` ` ` ]  .E q 9 7 t t e g 3.s.a.m.m.b.b.b.b.b.b.b.b.b.b.b.b.b.b.c.c.b.b.b.b.b.b.b.b.b.m.b.3.<.2 4 4 1.t.j.j.h.u.u.j.j.j.l.uXyXtXtXsXxXvXnXDXSXSXGXGXAXDXnXbXcXzXxXcXbXNXDXAXAXAXGXGXGXGXGXGXGXGXGXGXGXGXGXGXGXGXGXGXGXGXHXAXAXAXSXSXSXSXSXSXSXSXSXSXDXSXSXSXGXJXGXPXLXLXLXLXLXLXLXLXLXLXLXLXLXLXLXLXLXLXLXLXLXLXLXLXLXLXLXLXLXLXLXLXLXLXLXLXLXLXLXLXLXLXLXLXLXLXLXLXLXLXLXLXLXLXLXLXLXLXZXuXw.w.w.w.w.w.w.w.w.w.w.w.w.w.e.w.w.q.M J.BXPXLXPXLXLXLXLXLXLXLXPXPXLXcXS X           .               .   . . X B hXCXHXHXGXGXGXGXGXGXJXJXJXJXJXJXJXJXJXJXJXJXJXJXJXJXHXKXKXKXJXJXJXJXHXHXHXHXPXJXKXKXKXHXHXZXBXkXuXuXuXuXJ.w.6 $ $ . . . X B {.zXzXzXxXxX{.C = < 5 5 d f b p.p.g.f.C.f.g.f.f.C.C.d.8.5.p t w l 7.d.g.g.f.0.v h r r r w w t t t t w w w w w w w w w w w w w w w w w w w w r r r r w w y y y y p h j j l l l l l v v v l l j j p y u u u u m m m n n Z U V V !. XXX|.oXOX}.{.{.OXOX}.{.].^.W.E.R.T.T.T.T.T.R.E.R.R.T.U.R.R.R.R.R.R.R.R.R.R.R.R.R.R.R.R.R.R.R.R.R.R.R.R.R.R.R.R.R.R.R.R.R.R.R.R.R.R.R.R.R.R.R.R.R.R.R.R.R.R.R.R.R.R.R.R.R.R.R.R.R.R.R.R.R.R.R.R.R.R.R.",
"1X1X1X1X1X1X1X1X1X1X1X1X1X1X1X1X3X3X<X<X<X<X<X4X-./ / _ ` ` ` ` ` ` ` ` ` ` ` ` ` ` ` ` ` ` ` ` ` ` ` ` ` ` ` ` ` ` ` ` ` ` ` ` ` ` ` ` ` ` ` ` ` ` ` ` ` ` ` ` ` ` ` ]  .R q 7 7 t t e g t.s.a.m.m.b.b.b.b.b.b.b.b.b.b.b.b.b.b.c.c.b.b.b.b.b.b.b.b.b.m.s.3.g 2 4 g 2.t.h.h.u.h.u.j.j.u.l.`.yXtXxXsXsXxXbXNXAXSXGXJXJXGXDXnXmXxXzXhXxXbXNXDXDXDXGXGXGXGXGXGXGXJXGXGXGXGXGXGXGXGXJXAXnXxX}.W.U.P.A A A A A A A A A A A A P._.|.cXGXPXLXLXLXLXLXLXLXLXLXLXLXLXLXLXLXLXLXLXLXLXLXLXLXLXLXLXLXLXLXLXLXLXLXLXLXLXLXLXLXLXLXLXLXLXLXLXLXLXLXLXLXLXLXLXLXPXLXLXZXJ.w.w.w.e.w.w.w.w.w.w.w.w.w.w.e.e.w.q.J.kXKXLXPXLXLXPXLXLXPXPXLXLXLXLXLXP.- X         .                 .     X * [.nXHXHXGXGXGXJXGXGXJXJXJXJXJXJXJXJXJXJXJXJXJXJXJXJXHXKXKXKXJXJXJXJXKXKXKXHXKXJXHXPXKXHXHXHXBXBXkXyXuX[.J.J.M 6 $ o . . X B {.zXcXzXcXxX_.C = 1 1 < < f x x k.p.f.Z.g.g.d.f.C.f.d.7.6.h t t h 8.d.g.g.f.0.v h r r r w w t t t t w w w w w w w w w w w w w w w w w w w w r r r w w w y y y y p h j l l l l l l v v v l l j h y u u 8 8 8 m m q q V U U U V !.OXXX|.OXOX}.{.{.OX}.OX{.W.Q.E.E.R.T.T.T.T.R.E.E.R.T.U.U.R.R.R.R.R.R.R.R.R.R.R.R.R.R.R.R.R.R.R.R.R.R.R.R.R.R.R.R.R.R.R.R.R.R.R.R.R.R.R.R.R.R.R.R.R.R.R.R.R.R.R.R.R.R.R.R.R.R.R.R.R.R.R.R.R.R.R.R.R.R.R.",
"1X1X1X1X1X1X1X1X1X1X1X1X1X1X1X1X<X<X<X3X<X2X4X;.[ ) / _ ` ` ` ` ` ` ` ` ` ` ` ` ` ` ` ` ` ` ` ` ` ` ` ` ` ` ` ` ` ` ` ` ` ` ` ` ` ` ` ` ` ` ` ` ` ` ` ` ` ` ` ` ` ` ` @. .W 0 7 t 2 2 e 2.s.s.a.b.b.b.b.b.b.b.b.b.b.b.b.b.b.b.b.c.c.b.b.b.b.b.b.m.r.b.m.t.<.3 4 <.1.t.a.h.h.h.h.m.j.j.j.j.S.yXyXtXsXsXxXcXnXDXDXGXIXJXIXGXGXDXnXcXxXhXhXcXbXNXDXAXAXAXAXGXGXJXJXGXPXJXGXGXJXDXnX{.U.S B * = - O                     X X O - B S Q.nXJXLXLXLXLXLXLXLXLXLXLXLXLXLXLXLXLXLXLXLXLXLXLXLXLXLXLXLXLXLXLXLXLXLXLXLXLXLXLXLXLXLXLXLXLXLXLXLXLXLXLXLXLXLXLXLXLXPXyXB.w.w.w.w.w.w.e.e.w.w.w.w.w.e.e.e.q.B.kXZXLXLXLXLXLXLXLXLXLXLXLXLXLXLXLXbXB   .                       . . . . X O P.bXCXAXKXJXGXJXJXJXJXJXJXJXJXJXJXJXJXJXJXJXJXJXJXJXKXKXKXKXJXJXJXJXJXJXJXJXKXKXKXJXJXJXHXHXHXNXBXkXyXuX[.J.S 6 $ $ O   o S OX%XxXzXxXvXY.0 1 < < d d 7 d c b p.g.f.g.d.d.d.f.f.f.g.d.l t t r j 7.f.f.g.d.7.l r t r w w t t t w r r w w w w w w w w w w w w w w r r w w w r r r y y p p p h h j j j l l l l v v v v v j y u u u 8 8 m m q q q U U U U U V { }.oX}.OX{.{.}.OXOX{.].E.R.R.R.R.R.R.R.R.R.R.R.R.T.T.T.T.R.R.R.R.R.R.R.R.R.R.R.R.R.R.R.R.R.R.R.R.R.R.R.R.R.R.R.R.R.R.R.R.R.R.R.R.R.R.R.R.R.R.R.R.R.R.R.R.R.R.R.R.R.R.R.R.R.R.R.R.R.R.R.R.R.R.R.R.R.R.R.",
"1X1X1X1X1X1X1X1X1X1X1X1X1X1X1X1X<X<X<X3X<X2X4X;.[ ) / _ _ ` ` ` ` ` ` ` ` ` ` ` ` ` ` ` ` ` ` ` ` ` ` ` ` ` ` ` ` ` ` ` ` ` ` ` ` ` ` ` ` ` ` ` ` ` ` ` ` ` ` ` ` ` ` *. .U 8 t t 2 2 d 2.s.s.a.b.b.b.b.b.b.b.b.b.b.b.b.b.b.b.b.c.c.b.b.b.b.b.b.b.a.b.b.3.g 3 4 1.3.t.h.h.h.h.h.h.m.M.j.j.l.uXyXyXtXtXrXcXbXNXSXSXSXIXGXGXGXAXDXCXnXnXbXbXbXnXnXAXAXAXAXGXGXJXJXJXJXJXGXDXcXR.S * - O . . .     X .       . X X X X .       X O = A bXLXLXLXPXLXLXLXLXLXLXLXLXLXLXLXLXLXLXLXLXLXLXLXLXLXLXLXLXLXLXLXLXLXLXLXLXLXLXLXLXLXLXLXLXLXLXLXLXLXLXLXLXLXLXLXLXZXuXB.w.w.w.w.w.e.e.e.e.e.w.w.w.e.e.w.w.J.kXKXLXLXLXLXLXLXLXLXLXLXLXLXLXLXLXDXA O                 .   . . . . .   . o A hXCXCXJXGXGXGXJXJXJXJXJXJXJXJXJXJXJXJXJXJXJXJXJXJXKXKXKXKXJXJXJXJXKXKXJXJXJXJXKXJXFXFXSXGXGXZXBXBXkXkXuX[.J.C 6 $ .   O A oXhXxXxXxXsXA.1 < < < 5 < < < d c b p.p.g.g.d.g.f.f.f.f.g.6.r t w h 6.d.f.g.g.d.6.y t r w w w w w w w r w w w w w w w w w w w w w w r r w r r r r y y y p p h h j j j j l l l l l l l j j u u u 8 8 8 m q q q q U U U U U U V R {.}.}.}.{.{.}.}.{.].W.E.R.R.R.R.R.R.R.R.R.R.R.R.R.T.T.T.R.R.R.R.R.R.R.R.R.R.R.R.R.R.R.R.R.R.R.R.R.R.R.R.R.R.R.R.R.R.R.R.R.R.R.R.R.R.R.R.R.R.R.R.R.R.R.R.R.R.R.R.R.R.R.R.R.R.R.R.R.R.R.R.R.R.R.R.R.R.R.",
"1X1X1X1X1X1X1X1X1X1X1X1X1X1X1X1X<X2X<X3X<X4X4X>.[ ) / _ _ ` ` ` ` ` ` ` ` ` ` ` ` ` ` ` ` ` ` ` ` ` ` ` ` ` ` ` ` ` ` ` ` ` ` ` ` ` ` ` ` ` ` ` ` ` ` ` ` ` ` ` ` ) ` *.E Z 8 t t 2 2 d 2.s.s.b.b.b.b.b.b.b.b.b.b.b.b.b.b.b.b.b.c.c.b.b.b.b.b.b.b.b.b.t.1.g 3 g 2.t.a.h.h.h.h.h.y.M.M.h.j.l.S.uXyXtXtXrXxXcXnXSXSXSXGXGXGXJXSXSXGXAXDXNXnXnXNXNXAXAXSXSXGXGXGXJXJXDXcX{.A B - X X .       X X X . . . .             X X X X .   . - {.LXLXLXLXLXLXLXLXLXLXLXLXLXLXLXLXLXLXLXLXLXLXLXLXLXLXLXLXLXLXLXLXLXLXLXLXLXLXLXLXLXLXLXLXLXLXLXLXLXLXLXLXLXLXLXPXBXJ.w.e.e.e.w.e.w.e.e.e.e.w.w.e.e.e.e.B.uXVXKXLXLXLXLXLXLXLXLXLXLXLXLXLXLXLXPXQ.=   . X   . . . . . . . .   . .   . . 1 {.nXCXAXHXGXGXJXJXJXJXJXJXJXJXJXJXJXJXJXJXJXJXJXJXJXJXJXJXJXJXJXJXJXJXJXJXJXJXJXJXJXFXSXGXGXHXAXNXBXkXkXuXuXW.l.B - - 1 P.XXhXxXzXxXtXl.1 < < 1 d < < < < d f x 6.g.g.g.g.f.f.f.C.f.7.j r w w j 8.g.g.f.f.9.j r w r r r r w w w w w w w w w w w w t t t t t t u u r r r r y y y y h h j j j j j j l l j j j j j j u 8 8 8 8 8 m q q q V U U U U U U U V R {.}.}.}.{.{.{.{.^.E.R.R.R.R.R.R.R.R.R.R.R.R.R.R.R.R.T.T.R.R.R.R.R.R.R.R.R.R.R.R.R.R.R.R.R.R.R.R.R.R.R.R.R.R.R.R.R.R.R.R.R.R.R.R.R.R.R.R.R.R.R.R.R.R.R.R.R.R.R.R.R.R.R.R.R.R.R.R.R.R.R.R.R.R.R.R.R.R.R.",
"1X1X1X1X1X1X1X1X1X1X1X1X1X1X1X1X<X3X<X<X<X4X>X=.' ) _ _ _ ` ` ` ` ` ` ` ` ` ` ` ` ` ` ` ` ` ` ` ` ` ` ` ` ` ` ` ` ` ` ` ` ` ` ` ` ` ` ` ` ` ` ` ` ` ` ` ` ` ` ` ` T ] *.E n 7 e t 2 s d 2.s.b.b.b.b.b.b.b.b.b.b.b.b.b.b.b.b.b.b.c.c.b.b.b.b.b.b.a.b.a.3.<.3 3 <.t.r.a.h.h.h.h.h.h.M.h.u.j.j.N.`.eXtXdXrXzXzXbXDXSXSXGXSXGXJXIXSXGXGXSXAXAXAXAXAXSXSXGXGXGXGXGXGXNX.XP.B * - - - - - - - - - - - - - - - - O X   . X X .     X o X X Q.PXLXLXLXLXLXLXLXLXLXLXLXLXLXLXLXLXLXLXLXLXLXLXLXLXLXLXLXLXLXLXLXLXLXLXLXLXLXLXLXLXLXLXLXLXLXLXLXLXLXLXLXLXLXLXKXkXB.w.e.e.e.e.e.e.e.e.e.e.w.w.e.e.e.w.J.kXZXPXLXLXLXLXLXLXLXLXLXLXLXLXLXLXLXLXXXB   X X   . . . . . . . .   . .   .   O E.cXCXAXHXJXGXJXGXJXJXJXJXJXJXJXJXJXJXJXJXJXJXJXJXJXJXJXJXJXJXJXJXJXJXJXJXJXJXJXJXJXGXGXJXJXGXHXHXBXvXkXkXkXkX[.H.S S A ].XXXXrXzXxXOXA 1 < < < < < < < < < d f b p.p.g.f.C.f.f.C.C.d.6.h w t r j 7.g.C.C.g.6.h w r w w r r r w t w w w w w w w w t t t t t t u r r r y y y f f h j j j j j j j j j j j j h p p u 8 8 8 8 m m q q V V U U J J U J U U V R (.}.}.}.}.{.{.W.R.T.U.R.R.R.R.R.R.R.R.R.R.R.R.R.R.R.T.T.R.R.R.R.R.R.R.R.R.R.R.R.R.R.R.R.R.R.R.R.R.R.R.R.R.R.R.R.R.R.R.R.R.R.R.R.R.R.R.R.R.R.R.R.R.R.R.R.R.R.R.R.R.R.R.R.R.R.R.R.R.R.R.R.R.R.R.R.R.R.R.",
"1X1X1X1X1X1X1X1X1X1X1X1X1X1X1X1X<X3X2X<X<X4X:.-.' ) _ _ ` ` ` ` ` ` ` ` ` ` ` ` ` ` ` ` ` ` ` ` ` ` ` ` ` ` ` ` ` ` ` ` ` ` ` ` ` ` ` ` ` ` ` ` ` ` ` ` ` ` ` ` ` T `  .R n u y t t t g 2.s.n.b.b.b.b.b.b.b.b.b.b.b.b.b.b.b.b.b.c.c.c.b.b.b.b.b.z.b.t.1.g 3 g 2.s.s.a.h.h.h.h.h.M.M.y.y.j.j.j.l.`.yXvXsXsXzXmXnXAXSXGXSXGXIXIXGXJXJXJXGXGXGXGXGXGXGXGXGXGXGXGXGXNXxX{.Q.E.E.Q.W.E.Q.Q.Q.W.Q.Q.Q.Q.Q.Q.Q.R.P.A A S B 1 - X           A DXLXLXLXLXLXLXLXLXLXLXLXLXLXLXLXLXLXLXLXLXLXLXLXLXLXLXLXLXLXLXLXLXLXLXLXLXLXLXLXLXLXLXLXLXLXLXLXLXLXLXLXLXLXPXKXuXB.w.e.e.e.e.e.e.e.e.e.e.w.w.e.e.e.w.J.VXKXPXLXLXLXLXLXLXLXLXLXLXLXLXLXLXLXLXnXS X . X X . . . . . . . . . . .   . . X l.hXCXAXKXKXJXJXGXJXJXJXJXJXJXJXJXJXJXJXJXJXJXJXJXJXGXGXGXJXJXJXJXJXJXJXJXGXJXJXJXJXGXGXGXJXGXGXHXNXBXkXkXkXkXjX|.{.].{..XhX.XrXzXsX{.l.B 1 1 1 < < < < < < 7 d f k b p.f.C.C.C.C.C.f.0.5.y t w p 5.0.C.C.g.d.6.y r w t w r r w t w w w w w w w w w w w w w w r r y y y y y y h h j j j j p p p p j p p p p y y u 8 m m q q q q V U U U U U U J J J K V R (.OX}.OXOX{.W.T.P.P.I.I.R.R.R.R.R.R.R.R.R.R.R.R.E.E.E.R.R.R.R.R.R.R.R.R.R.R.R.R.R.R.R.R.R.R.R.R.R.R.R.R.R.R.R.R.R.R.R.R.R.R.R.R.R.R.R.R.R.R.R.R.R.R.R.R.R.R.R.R.R.R.R.R.R.R.R.R.R.R.R.R.R.R.R.R.R.R.R.",
"1X1X1X1X1X1X1X1X1X1X1X1X1X1X1X1X2X3X2X<X<X4X;.-.) / _ _ ` ` ` ` ` ` ` ` ` ` ` ` ` ` ` ` ` ` ` ` ` ` ` ` ` ` ` ` ` ` ` ` ` ` ` ` ` ` ` ` ` ` ` ` ` ` ` ` ` ` ` ` ` T ]  .W n t i w t t g 3.n.m.m.b.b.b.b.b.b.b.b.b.b.b.b.b.b.b.c.c.c.c.c.b.b.b.b.z.m.t.<.4 3 g 3.s.a.a.h.h.h.h.h.M.M.y.h.M.h.j.u.l._.dXxXsXzXcXbXDXSXSXGXGXIXIXGXGXGXGXJXJXJXJXJXGXGXGXGXGXGXGXGXJXGXJXPXJXGXGXJXGXJXJXPXPXJXJXJXJXJXJXGXSXDXDXDXcXzXoX_.P.A B * o . 1 XXLXLXLXLXLXLXLXLXLXLXLXLXLXLXLXLXLXLXLXLXLXLXLXLXLXLXLXLXLXLXLXLXLXLXLXLXLXLXLXLXLXLXLXLXLXLXLXLXLXLXLXLXLXPXVXJ.w.w.e.e.e.e.e.e.e.e.e.e.e.e.e.e.w.w.uXZXKXPXLXLXLXLXLXLXLXLXLXLXLXLXLXLXLXLXAXA X . X X . . . . . . . . X   .   . . . S OXnXCXHXKXHXJXGXJXJXJXJXJXJXJXJXJXJXJXJXJXJXJXJXGXGXGXGXJXJXJXJXJXJXJXJXJXJXJXJXGXGXGXGXGXGXGXHXHXCXBXkXjXhXhXhXjXrX.XhXhXhXhXxXrXoX_.Y.S.S.l.l.k.C c c d d 7 < t f b p.d.f.f.C.C.C.g.7.j r w w h 8.d.f.f.f.9.l p r w t w w w t w w w w w w w w w w w w w w r r y y y y y y h h h h p p p p p p p p y y y y y u 9 q q q q V U K K U U J U U J J J U V R (.OX}.{.].W.U.P.P.U.I.I.R.R.R.R.R.R.R.R.R.R.R.R.E.E.E.R.R.R.R.R.R.R.R.R.R.R.R.R.R.R.R.R.R.R.R.R.R.R.R.R.R.R.R.R.R.R.R.R.R.R.R.R.R.R.R.R.R.R.R.R.R.R.R.R.R.R.R.R.R.R.R.R.R.R.R.R.R.R.R.R.R.R.R.R.R.R.R.",
"1X1X1X1X1X1X1X1X1X1X1X1X1X1X1X1X2X2X<X,X<X2X;.-./ / _ _ ` ` ` ` ` ` ` ` ` ` ` ` ` ` ` ` ` ` ` ` ` ` ` ` ` ` ` ` ` ` ` ` ` ` ` ` ` ` ` ` ` ` ` ` ` ` ` ` ` ` ` ` ` T ]  .W m t i w t t z 3.b.m.m.b.b.b.b.b.b.b.b.b.b.b.b.b.b.b.c.c.c.c.c.b.b.b.b.b.m.3.g 4 i 4.s.s.a.a.a.a.a.h.h.m.m.M.M.h.h.s.i.C A.tXxXsXzXzXzXnXDXSXSXGXJXJXGXGXGXGXGXGXJXJXJXJXJXGXGXGXGXGXGXSXSXGXJXJXGXJXJXJXJXJXJXJXJXGXGXSXSXSXSXSXSXSXSXSXSXGXJXGXnXXX{.P.S B OXLXLXLXLXLXLXLXLXLXLXLXLXLXLXLXLXLXLXLXLXLXLXLXLXLXLXLXLXLXLXLXLXLXLXLXLXLXLXLXLXLXLXLXLXLXLXLXLXLXLXLXLXLXKXkXJ.w.w.e.e.e.e.e.e.e.e.e.e.e.e.e.e.w.w.uXZXPXLXLXLXLXLXLXLXLXLXLXLXLXLXLXLXLXLXPXA.O X . . . . . . . . . . X   .   . . . * ].bXCXZXKXHXJXGXJXJXJXJXJXJXJXJXJXJXJXJXJXJXJXJXJXJXGXJXJXJXJXJXJXJXJXJXJXJXJXJXGXGXGXGXGXGXGXGXHXHXCXBXvXhXhX%XhX&X&XhXhXhXhXjXxXrXtXdXdXgXdXgXyX'.S.A.l.k.c d d d h k 6.7.d.f.C.C.C.d.6.h r w y j 8.d.f.C.d.7.l h r w w r r w w w w w w w w w w w w w w w u u r y y y y y y y p p p p y y y y y y y y y y y u m q n U K K U U J J J J U U U U J K V R _.{.{.].E.T.P.H.U.R.!.I.R.R.R.R.R.R.R.R.R.R.R.R.E.E.R.R.R.R.R.R.R.R.R.R.R.R.R.R.R.R.R.R.R.R.R.R.R.R.R.R.R.R.R.R.R.R.R.R.R.R.R.R.R.R.R.R.R.R.R.R.R.R.R.R.R.R.R.R.R.R.R.R.R.R.R.R.R.R.R.R.R.R.R.R.R.R.R.",
"1X1X1X1X1X1X1X1X1X1X1X1X1X1X1X1X<X2X<X<X<X4X;.&./ / _ ` ` ` ` ` ` ` ` ` ` ` ` ` ` ` ` ` ` ` ` ` ` ` ` ` ` ` ` ` ` ` ` ` ` ` ` ` ` ` ` ` ` ` ` ` ` ` ` ` ` ` ` ` ` T ]  .W 8 w i w t e z 3.b.M.M.b.b.b.b.b.b.b.b.b.b.b.b.b.b.b.c.c.c.c.c.b.b.b.b.b.b.2.4 3 g 4.s.b.a.a.a.a.h.h.h.y.c.m.M.h.h.s.i.5 l.'.dXsXrXzXzXnXDXSXSXGXJXJXGXJXJXGXGXGXGXGXGXJXJXJXGXGXGXGXSXGXGXGXGXGXGXJXKXGXGXGXGXJXJXJXJXSXSXSXGXGXJXIXJXSXSXDXSXSXGXSXDXSXbX{.bXLXPXLXLXLXLXLXLXLXLXLXLXLXLXLXLXLXLXLXLXLXLXLXLXLXLXLXLXLXLXLXLXLXLXLXLXLXLXLXLXLXLXLXLXLXLXLXLXLXLXLXLXPXKXkXB.w.w.e.e.e.e.e.e.e.e.e.e.w.e.e.e.w.B.kXKXPXLXLXLXLXLXLXLXLXLXLXLXLXLXLXLXLXLXLXP.O X X   . . . . . . . . .   .     . . O Q.cXnXCXJXAXJXGXJXJXJXJXJXJXJXJXJXJXJXJXJXJXJXJXJXJXJXJXJXJXJXJXJXJXJXJXJXJXJXJXGXGXJXIXIXGXGXJXAXHXHXCXnXbXzXXX%X.X.X.XrXhXhXrXcXsXvXvXvXvXvXBXBXgXdXyXeX'.A.k.c f d d g l 7.d.f.C.C.g.7.l p w r p 5.d.C.C.g.g.6.l p r w r r w w w w w w w w w w w w w w w r u r r y y y y y p p a p p y y y y u u u u u u u 8 m q U K K J J J J J J J U U U U J J V R ~.{.].W.P.H.H.P.R.E.!.I.R.R.R.R.R.E.R.R.R.R.R.R.E.R.E.R.R.R.R.R.R.R.R.R.R.R.R.R.R.R.R.R.R.R.R.R.R.R.R.R.R.R.R.R.R.R.R.R.R.R.R.R.R.R.R.R.R.R.R.R.R.R.R.R.R.R.R.R.R.R.R.R.R.R.R.R.R.R.R.R.R.R.R.R.R.R.R.",
"1X1X1X1X1X1X1X1X1X1X1X1X1X1X1X1X1X1X1X:.<X4X=.[ ) _ _ _ ` ` ` ` ` ` ` ` ` ` ` ` ` ` ` ` ` ` ` ` ` ` ` ` ` ` ` ` ` ` ` ` ` ` ` ` ` ` ` ` ` ` ` ` ` ` ` ` ` ` ` ` _ T ] E Z f w w s t d x t.b.m.m.a.a.a.a.r.r.r.r.b.b.b.b.c.c.c.c.b.b.z.c.m.m.a.r.b.t.<.4 3 <.3.n.m.m.h.a.a.h.r.y.h.M.m.m.h.a.i.1.5 i.S.yXdXxXsXzXcXnXSXGXGXGXJXJXGXGXGXGXGXGXGXGXJXGXGXGXGXGXGXGXGXGXGXGXGXGXGXGXJXJXJXJXJXJXJXJXSXSXSXGXSXGXGXSXJXJXGXSXSXSXSXGXSXGXJXPXPXLXLXLXLXLXLXLXLXLXLXLXLXLXLXLXLXLXLXLXLXLXLXLXLXLXLXLXLXLXLXLXLXLXLXLXLXLXLXLXLXLXLXLXLXLXLXLXLXLXLXLXPXKXuXB.w.e.e.e.e.e.e.e.e.e.e.e.e.e.e.e.w.J.lXKXLXLXLXLXLXLXLXLXLXLXLXLXLXLXLXLXLXPXLXP.O X         . . . . .   . .     . . . . A {.bXGXPXJXSXGXGXGXGXGXGXGXJXJXJXJXJXJXJXJXJXJXJXJXJXJXJXJXJXJXJXJXJXJXJXJXJXJXGXGXGXGXGXGXGXGXAXAXHXAXCXnXbXcXxXhXrXrXhXhXzXrXvXvXvXvXvXvXvXvXvXdXdXdXdXfXeX'.S.p.t 2 e h l 6.0.f.C.f.f.d.5.r w r h 6.d.f.f.g.9.8.l y y y w t y w w w r r r w w w w w r w w w y y r w w r r r a a a a p w w u 8 8 8 m m m n q q K K K J J J J J J J J J J J J J K V R !.Q.R.P.H.P.P.T.T.T.U.U.E.E.E.R.R.R.E.R.R.R.R.R.E.E.E.R.R.R.R.R.R.R.R.R.R.R.R.R.R.R.R.R.R.R.R.R.R.R.R.R.R.R.R.R.R.R.R.R.R.R.R.R.R.R.R.R.R.R.R.R.R.R.R.R.R.R.R.R.R.R.R.R.R.R.R.R.R.R.R.R.R.R.R.R.R.R.R.",
"1X1X1X1X1X1X1X1X1X1X1X1X1X1X1X1X1X1X1X,X<X4X=.[ ) _ _ _ ` _ ` ` ` ` ` ` ` ` ` ` ` ` ` ` ` ` ` ` ` ` ` ` ` ` ` ` ` ` ` ` ` ` ` ` ` ` ` ` ` ` ` ` ` ` ` ` ` ` ` ` _ T ] E Z f w w s t d x t.b.m.m.a.a.a.a.r.r.r.r.b.b.b.b.c.c.c.c.b.b.b.c.m.c.a.a.a.3.g 3 4 4.t.b.m.m.m.h.a.a.y.y.h.m.m.m.a.a.3.<.3 1.N.uXtXtXsXzXzXnXDXHXGXGXGXJXGXGXGXGXGXGXGXGXGXGXGXGXGXGXGXGXGXGXGXGXGXGXGXGXJXJXJXJXJXJXJXJXSXSXSXSXSXSXSXSXJXJXGXGXSXSXGXGXSXGXJXPXPXLXLXLXLXLXLXLXLXLXLXLXLXLXLXLXLXLXLXLXLXLXLXLXLXLXLXLXLXLXLXLXLXLXLXLXLXLXLXLXLXLXLXLXLXLXLXLXLXLXLXLXPXKXuXw.w.e.e.e.e.e.e.e.e.e.e.e.e.e.e.e.w.J.lXKXLXLXLXLXLXLXLXLXLXLXLXLXLXLXLXLXLXPXLXP.O X         . . . .     . .     . . . . S Q.bXAXJXGXGXJXGXGXGXGXGXGXJXJXJXJXJXJXJXJXJXJXJXJXJXJXJXJXJXJXJXJXJXJXJXJXJXJXGXGXGXGXGXGXGXGXGXGXGXGXSXDXNXnXbXcXxXhXrXrXrXrXxXxXxXxXxXxXxXxXxXxXdXdXdXdXdXfXeXS.b d t t d f b 7.g.f.f.f.7.l p y y j 6.p.d.g.d.p.8.l f y y y y w t t t r p p w w w t t t w w p p p p y r w w i a a p y u 7 8 9 m m q q q q q K K K H H H H K J J J J J J J J J K K W !.!.I.H.H.P.P.T.T.T.T.T.E.E.R.R.R.R.E.R.R.R.R.R.E.E.R.R.R.R.R.R.R.R.R.R.R.R.R.R.R.R.R.R.R.R.R.R.R.R.R.R.R.R.R.R.R.R.R.R.R.R.R.R.R.R.R.R.R.R.R.R.R.R.R.R.R.R.R.R.R.R.R.R.R.R.R.R.R.R.R.R.R.R.R.R.R.R.R.",
"1X1X1X1X1X1X1X1X1X1X1X1X1X1X1X1X1X1X1X,X4X4X=.' ) _ _ _ _ _ ' ' ` ` ` ` ` ` ` ` ` ` ` ` ` ` ` ` ` ` ` ` ` ` ` ` ` ` ` ` ` ` ` ` ` ` ` ` ` ` ` ` ` ` ` ` ` ` ` ` _ T ] E Z f r w t t g 2.t.b.m.m.r.r.r.r.a.r.m.m.b.m.m.b.c.c.c.c.b.b.b.b.m.c.a.a.t.1.4 3 g 2.s.b.b.h.h.h.a.a.r.r.h.h.h.m.a.a.2.g 3 1.j.S.yXtXrXxXzXmXnXAXGXGXGXHXGXGXGXGXGXGXGXGXGXGXGXGXGXGXGXGXGXGXGXGXGXGXGXGXJXJXJXJXJXJXJXJXSXSXSXSXSXSXSXSXJXGXGXGXJXJXGXGXSXGXIXPXPXLXLXLXLXLXLXLXLXLXLXLXLXLXLXLXLXLXLXLXLXLXLXLXLXLXLXLXLXLXLXLXLXLXLXLXLXLXLXLXLXLXLXLXLXLXLXLXLXLXLXLXPXZX[.w.w.e.e.e.e.e.e.e.e.e.e.e.e.e.e.e.e.K.VXKXLXLXLXLXLXLXLXLXLXLXLXLXLXLXLXLXLXLXLXP.O X                     . . . . . . . . * l.cXSXGXSXGXJXJXJXJXJXGXGXGXGXJXJXJXJXJXJXJXJXJXJXJXJXJXJXJXJXJXJXJXJXJXJXJXJXGXGXGXGXGXGXGXGXGXGXGXGXGXSXAXDXnXnXbXcXxXjXjXjXtXtXtXtXtXsXsXxXxXdXdXdXvXvXdXdXdXeXA.c 7 7 7 7 f l 6.9.d.g.d.7.l h u t j b 7.p.p.d.p.6.v j h f y u s 7 t u y f y r t t t t w y p p a y r w w w a a y w 7 7 9 8 9 m q q K K J J H H H H H H H H J J J J J J J J J K K U R !.P.H.P.P.P.T.R.R.R.T.E.E.E.E.R.R.R.R.R.R.R.R.E.E.E.E.R.R.R.R.R.R.R.R.R.R.R.R.R.R.R.R.R.R.R.R.R.R.R.R.R.R.R.R.R.R.R.R.R.R.R.R.R.R.R.R.R.R.R.R.R.R.R.R.R.R.R.R.R.R.R.R.R.R.R.R.R.R.R.R.R.R.R.R.R.R.R.",
"1X1X1X1X1X1X1X1X1X1X1X1X1X1X1X1X1X1X1X,X4X4X-.' ' _ _ _ _ _ ' ' ` ` ` ` ` ` ` ` ` ` ` ` ` ` ` ` ` ` ` ` ` ` ` ` ` ` ` ` ` ` ` ` ` ` ` ` ` ` ` ` ` ` ` ` ` ` ` ` _ T E R n f w w t e g 2.t.a.m.m.r.r.r.r.h.h.h.m.m.m.m.m.c.c.c.c.m.b.b.m.m.m.b.a.t.<.3 3 <.3.s.s.b.a.h.a.a.a.r.r.h.h.a.h.a.t.1.4 3 1.i.l.`.yXtXsXxXxXbXDXGXGXGXHXGXGXGXGXGXGXGXGXGXGXGXGXGXGXGXGXGXGXGXGXGXGXJXJXJXJXJXJXJXJXJXJXSXSXSXSXSXSXSXSXGXGXGXGXJXJXJXGXSXGXIXJXPXPXLXLXLXLXLXLXLXLXLXLXLXLXLXLXLXLXLXLXLXLXLXLXLXLXLXLXLXLXLXLXLXLXLXLXLXLXLXLXLXLXLXLXLXLXLXLXLXLXLXLXLXZXJ.w.w.e.e.e.e.e.e.e.e.e.e.e.e.e.e.e.e.uXZXKXLXLXLXLXLXLXLXLXLXLXLXLXLXLXLXLXLXLXLXP.O X                     . . . . . . . . O A cXSXGXSXGXJXJXJXJXJXJXGXGXGXJXJXJXJXJXJXJXJXJXJXJXJXJXJXJXJXJXJXJXJXJXJXJXJXGXGXGXGXGXGXGXGXGXGXGXGXHXHXGXGXDXCXnXnXbXbXvXvXxXxXxXvXvXvXvXvXxXdXdXdXdXdXvXdXdXfX'.k.0 9 9 9 7 u j b 8.9.9.9.8.b j y f f b 8.7.p.9.7.8.8.v j j f u t t u u u r w t t t t w w y y y y u w w w w u 8 7 8 8 m q q q K J P H F H H H H H H H H H J J J J J J J J J K K U R P.H.H.P.U.T.T.R.R.R.R.E.E.E.E.R.R.R.R.E.R.R.R.E.E.E.E.R.R.R.R.R.R.R.R.R.R.R.R.R.R.R.R.R.R.R.R.R.R.R.R.R.R.R.R.R.R.R.R.R.R.R.R.R.R.R.R.R.R.R.R.R.R.R.R.R.R.R.R.R.R.R.R.R.R.R.R.R.R.R.R.R.R.R.R.R.R.R.",
"1X1X1X1X1X1X1X1X1X1X1X1X1X1X1X1X1X1X1X<X4X>X-.' ' ' _ _ _ _ ' ' ` ` ` ` ` ` ` ` ` ` ` ` ` ` ` ` ` ` ` ` ` ` ` ` ` ` ` ` ` ` ` ` ` ` ` ` ` ` ` ` ` ` ` ` ` ` ` ` _ ) E R n 8 t e t e g 2.t.b.m.m.r.r.a.a.a.r.m.m.b.b.b.b.c.c.c.c.m.b.b.m.m.m.b.a.3.<.4 4 <.3.s.a.a.a.a.a.y.y.r.r.h.r.a.a.a.2.g 3 4 i.i.i.S.yXtXrXsXsXmXNXHXHXHXGXGXGXGXGXGXGXGXGXGXGXGXGXGXGXGXGXGXGXGXGXGXJXJXJXJXJXJXJXJXJXJXJXSXSXSXSXSXSXSXSXJXJXJXJXJXGXSXSXSXSXGXJXPXPXPXLXLXLXLXLXLXLXLXLXLXLXLXLXLXLXLXLXLXLXLXLXLXLXLXLXLXLXLXLXLXLXLXLXLXLXLXLXLXLXLXLXLXLXLXLXLXLXLXLXLXVXJ.w.e.e.e.e.e.e.e.e.e.e.e.e.e.e.e.e.e.uXZXKXLXLXLXLXLXLXLXLXLXLXLXLXLXLXLXLXLXLXLXP.O X     .           . .     . . . .     o A xXGXJXGXGXJXJXJXJXJXJXJXGXGXJXJXJXJXJXJXJXJXJXJXJXJXJXJXJXJXJXJXJXJXJXJXJXJXJXJXJXJXJXJXJXJXGXGXGXSXGXGXGXGXSXAXDXDXDXDXNXNXNXNXNXNXnXbXbXvXxXxXdXsXsXsXdXvXfXdXfX!.Z 0 > > 9 7 8 u v b 6.8.8.8.6.j r r h l v 8.0.g.g.d.9.8.8.v j y y u y w w w w w w w w w w y a a y u y u 9 8 8 q n n U U U J J L F F F F F H H H K K K K J J J J J J J J J J U U R P.P.P.T.T.T.R.E.R.R.R.R.R.R.R.R.R.R.R.E.E.R.R.R.R.R.R.R.R.R.R.R.R.R.R.R.R.R.R.R.R.R.R.R.R.R.R.R.R.R.R.R.R.R.R.R.R.R.R.R.R.R.R.R.R.R.R.R.R.R.R.R.R.R.R.E.E.E.E.E.E.E.E.E.E.E.E.E.E.E.E.E.E.E.E.R.R.E.",
"1X1X1X1X1X1X1X1X1X1X1X1X1X1X1X1X1X1X<X<X4X;.&.' ' ' _ _ _ _ ' ` ` ` ` ` ` ` ` ` ` ` ` ` ` ` ` ` ` ` ` ` ` ` ` ` ` ` ` ` ` ` ` ` ` ` ` ` ` ` ` ` ` ` ` ` ` ` ` ` _ ) E W n 8 w w t d z 2.t.b.m.M.a.a.a.a.r.r.b.b.b.b.b.b.c.c.c.c.m.b.b.m.m.m.b.a.2.<.g g <.3.t.a.a.a.a.a.r.y.r.y.h.r.a.a.t.1.4 3 4 t.u.i.l.`.yXtXsXsXcXnXDXHXHXGXGXGXGXGXGXGXGXGXGXGXGXGXJXJXJXJXGXGXGXGXJXJXJXJXJXJXJXJXJXJXJXJXSXSXSXSXSXSXSXSXGXJXJXJXJXJXSXSXSXSXGXIXJXPXLXLXLXLXLXLXLXLXLXLXLXLXLXLXLXLXLXLXLXLXLXLXLXLXLXLXLXLXLXLXLXLXLXLXLXLXLXLXLXLXLXLXLXLXLXLXLXLXLXLXPXkXJ.B.e.e.e.e.e.e.e.e.e.e.e.e.e.e.e.e.e.uXZXKXLXLXLXLXLXLXLXLXLXLXLXLXLXLXLXLXLXLXLXP.O X     .           . .     . . . .     X S zXGXPXGXGXJXJXJXJXJXJXJXGXGXJXJXJXJXJXJXJXJXJXJXJXJXJXJXJXJXJXJXJXJXJXJXJXJXJXJXJXJXJXJXJXJXJXJXGXGXGXGXGXGXGXGXGXJXJXJXGXAXHXHXAXAXDXNXNXNXnXnXbXvXsXsXsXcXsXmXmXOXR V > > 9 9 9 9 8 u u v j l l p w s t e h 6.0.g.d.d.d.d.0.8.v h p p p h y p y y y y y u u 8 8 8 8 8 u n q q W R E E W U J L L F F F F F F H H H J J J J J J J J J J J J J U U U R P.P.T.T.T.R.E.E.R.R.R.R.R.R.R.R.R.R.R.E.E.R.R.R.R.R.R.R.R.R.R.R.R.R.R.R.R.R.R.R.R.R.R.R.R.R.R.R.R.R.R.R.R.R.R.R.R.R.R.R.R.R.R.R.R.R.R.R.R.R.R.R.R.R.R.E.E.E.E.E.E.E.E.E.E.E.E.E.E.E.E.E.E.E.E.R.R.E.",
"1X1X1X1X1X1X1X1X1X1X1X1X1X1X1X1X1X1X1X<X4X;.&.' ' ' _ _ ` ` ` ` ` ` ` ` ` ` ` ` ` ` ` ` ` ` ` ` ` ` ` ` ` ` ` ` ` ` ` ` ` ` ` ` ` ` ` ` ` ` ` ` ` ` ` ` ` ` ` ` _ ) T W q 8 t s w d z 2.s.n.m.M.a.a.a.a.r.r.a.b.b.b.b.b.c.c.c.c.m.m.b.m.m.m.b.a.1.<.g g 1.t.r.r.a.r.r.r.r.y.y.y.m.m.b.a.3.g 3 3 1.t.u.i.u.S.eXtXdXsXvXvXNXAXHXGXGXGXGXGXGXGXGXGXGXGXGXJXJXJXKXKXGXGXGXJXJXJXJXJXJXJXJXJXJXJXJXJXSXGXSXSXSXSXGXSXGXGXJXJXSXSXSXSXSXSXSXGXJXPXLXLXLXLXLXLXLXLXLXLXLXLXLXLXLXLXLXLXLXLXLXLXLXLXLXLXLXLXLXLXLXLXLXLXLXLXLXLXLXLXLXLXLXLXLXLXLXLXLXLXPXkXJ.B.B.e.e.e.e.e.e.e.e.e.e.e.e.e.e.e.e.uXZXKXLXLXLXLXLXLXLXLXLXLXLXLXLXLXLXLXLXLXLXP.O X     . .         . . . . . . . . .   . S oXDXPXGXGXJXJXJXJXJXJXJXGXGXJXJXJXJXJXJXJXJXJXJXJXJXJXJXJXJXJXJXJXJXJXJXJXJXJXJXJXJXJXJXJXJXJXJXJXJXJXGXGXGXJXJXJXJXJXJXGXGXHXHXGXGXHXHXHXHXAXAXDXnXvXxXsXsXsXsX7X@X(.E I L ! q m m m 9 8 u u u y u w s s w i j 6.6.5.5.8.0.8.5.l j p j j j h y u u u u u m m m m m q n U W E E E *.$X*.E I F F F F F F F F H K H H H H J J J J J J J J J J J U U U R !.U.R.R.E.E.E.E.R.R.R.R.R.R.R.R.R.R.R.E.R.R.R.R.R.R.R.R.R.R.R.R.R.R.R.R.R.R.R.R.R.R.R.R.R.R.R.R.R.R.R.R.R.R.R.R.R.R.R.R.R.R.R.R.R.R.R.R.R.R.R.R.R.R.R.E.E.E.E.E.E.R.R.E.E.E.E.E.E.E.E.E.E.E.E.E.E.E.",
"1X1X1X1X1X1X1X1X1X1X1X1X1X1X1X1X1X1X4X4X4X>.[ ' ' ' ' _ ` ` ` ` ` ` ` ` ` ` ` ` ` ` ` ` ` ` ` ` ` ` ` ` ` ` ` ` ` ` ` ` ` ` ` ` ` ` ` ` ` ` ` ` ` ` ` ` ` ` ` ` _ ) T W q 8 t s e d k 2.s.n.m.M.a.a.a.a.r.r.a.b.b.b.b.b.c.c.c.c.m.m.b.m.m.m.b.a.<.g 4 g 1.t.a.r.a.r.r.r.y.y.y.y.m.m.m.a.2.4 2 3 3.t.a.u.i.l.'.tXdXdXxXvXnXDXHXGXGXGXGXGXGXGXGXGXGXGXGXJXJXKXKXKXGXGXGXJXJXJXJXJXJXJXJXJXJXJXJXJXSXGXSXSXSXSXGXGXSXSXGXGXGXSXSXSXSXSXSXGXJXPXLXLXLXLXLXLXLXLXLXLXLXLXLXLXLXLXLXLXLXLXLXLXLXLXLXLXLXLXLXLXLXLXLXLXLXLXLXLXLXLXLXLXLXLXLXLXLXLXLXLXPXkXB.B.B.e.e.e.e.e.e.e.e.e.e.e.e.e.e.e.e.uXZXKXLXLXLXLXLXLXLXLXLXLXLXLXLXLXLXLXLXPXLXP.O X     . .           . . . . . . . . . . B {.NXJXJXGXJXJXJXJXJXJXJXGXGXJXJXJXJXJXJXJXJXJXJXJXJXJXJXJXJXJXJXJXJXJXJXJXJXJXJXJXJXJXJXJXJXGXGXGXGXGXGXGXSXKXJXGXGXGXGXGXGXGXGXGXGXGXGXGXGXJXJXSXNXbXcXcXcXzX@X@X8X#X$X] T E W ! q q m 9 m 8 8 u u y y p a w u y u u y j j j j h h j j j f 8 8 8 m 9 m m m q q ! W W E E Q *.*.*.*.*.*.T I F F F F F F H H H H H H H J J J J J J J J J J J J J U U R !.R.R.E.E.E.E.E.R.R.R.R.R.R.R.R.R.R.R.R.R.R.R.R.R.R.R.R.R.R.R.R.R.R.R.R.R.R.R.R.R.R.R.R.R.R.R.R.R.R.R.R.R.R.R.R.R.R.R.R.R.R.R.R.R.R.R.R.R.R.R.R.R.R.R.E.E.E.E.E.E.R.R.E.E.E.E.E.E.E.E.E.E.E.E.E.E.E.",
"1X1X1X1X1X1X1X1X1X1X1X1X1X1X1X1X1X1X4X4X4X=.' ) ' ' _ _ ` ` ` ` ` ` ` ` ` ` ` ` ` ` ` ` ` ` ` ` ` ` ` ` ` ` ` ` ` ` ` ` ` ` ` ` ` ` ` ` ` ` ` ` ` ` ` ` ` ` ` ` _ ` T U q 8 t w w i 4.7.s.s.b.m.h.a.b.a.r.r.h.m.b.b.z.z.z.z.z.z.m.m.b.b.m.m.b.t.1.g 3 g 3.n.b.r.r.r.y.y.c.m.m.m.m.a.a.r.2.4 3 4 2.t.u.u.u.j.S.yXdXvXvXsXxXNXHXGXGXGXGXGXGXGXJXJXJXJXJXJXJXJXJXJXJXJXJXJXJXJXJXJXGXGXJXJXJXGXGXGXJXSXDXSXSXAXDXSXJXJXJXSXSXSXSXSXIXSXSXJXPXPXLXPXLXPXLXLXLXLXLXLXLXLXLXLXLXLXLXLXLXLXLXLXLXLXLXLXLXLXLXLXLXLXLXLXLXLXLXLXLXLXLXLXLXLXLXLXLXLXLXLXPXyXB.B.e.e.e.e.e.e.e.e.e.e.e.e.e.e.e.e.e.uXZXKXLXLXLXLXLXLXLXLXLXLXLXLXLXLXLXLXLXLXSXA O                       . . . .     . .   * _.DXGXGXJXJXPXPXJXJXJXJXJXJXJXJXJXJXJXJXJXJXJXJXJXJXJXJXJXJXJXJXJXJXJXJXJXJXJXJXJXJXJXJXJXJXJXJXJXJXJXJXJXJXJXJXJXJXJXJXJXJXJXJXJXGXGXGXGXGXGXSXSXGXDXbXzX7X@X XoX#X#X+X*.*.*.Q E E W K q q m m m 8 m n u u 9 9 9 9 9 9 9 9 8 8 8 8 8 8 8 m m > q q q q K J W T E Q *.*.*.*.%.#.%.%.%.@.T F F F L L H J J J H H H H H H H H H J J J J J J J J L U U R P.!.R.E.E.R.R.R.R.R.R.R.R.R.R.R.R.R.R.R.R.R.R.R.R.R.R.R.R.R.R.R.R.R.R.R.R.R.R.R.R.R.R.R.R.R.R.R.R.R.R.R.R.R.R.R.R.R.R.R.R.R.R.E.E.E.E.R.R.R.R.R.R.R.R.R.R.E.E.E.E.E.E.E.E.E.E.E.E.E.E.E.E.E.E.E.E.E.",
"1X1X1X1X1X1X1X1X1X1X1X1X1X1X1X1X<X<X4X4X4X-.' ) ' ' _ _ ` ` ` ` ` ` ` ` ` ` ` ` ` ` ` ` ` ` ` ` ` ` ` ` ` ` ` ` ` ` ` ` ` ` ` ` ` ` ` ` ` ` ` ` ` ` ` ` ` ` ` ` _ ` T U q 8 t w w i 4.7.s.s.b.m.h.h.b.a.r.r.a.m.b.b.z.b.z.z.z.z.m.m.b.b.m.M.b.t.1.g 3 <.t.b.b.r.r.r.y.y.c.m.m.m.m.a.a.t.1.4 3 4 3.a.a.u.j.j.l.eXyXdXvXdXvXnXDXHXGXGXGXGXGXGXJXJXJXJXJXJXJXJXJXJXJXJXJXJXJXJXJXJXJXGXSXGXJXJXJXJXPXKXPXJXSXDXDXJXSXSXGXJXPXJXDXCXbXrXoXoXoXoXcXPXLXLXLXLXLXLXLXLXLXLXLXLXLXLXLXLXLXLXLXLXLXLXLXLXLXLXLXLXLXLXLXLXLXLXLXLXLXLXLXLXLXLXLXLXLXLXLXLXPXyXB.B.e.e.e.e.e.e.e.e.e.e.e.e.e.e.e.e.e.uXZXKXLXLXLXLXLXLXLXLXLXLXLXLXLXLXLXLXLXLXnXS X .                     . . . . .   . .   = W.SXJXGXJXGXJXJXJXJXJXJXJXJXJXJXJXJXJXJXJXJXJXJXJXJXJXJXJXJXJXJXJXJXJXJXJXJXJXJXJXJXJXJXJXJXJXJXJXJXJXJXJXJXJXJXJXJXJXJXJXJXJXJXJXJXJXJXGXGXJXSXSXSXDXnXcXzX@XXX X#X#X+X*.%.%.%.*.*.Q E T W U U ! ! q q q q m m m m m m m m m m m q q q q q J I I W T T T T T Q @.%.%.%.%.#.#.+.#.#.%.@.T F F F F L J J J J J H H H H H H H J H J J J J J J L L U U R P.!.R.E.E.R.R.R.R.R.R.R.R.R.R.R.R.R.R.R.R.R.R.R.R.R.R.R.R.R.R.R.R.R.R.R.R.R.R.R.R.R.R.R.R.R.R.R.R.R.R.R.R.R.R.R.R.R.R.R.R.R.E.E.E.E.E.E.E.R.R.E.R.E.E.E.E.E.E.E.E.E.E.E.E.E.E.E.E.E.E.E.E.E.E.E.E.E.",
"1X1X1X1X1X1X1X1X1X1X1X1X1X1X1X1X<X<X4X4X>X-.' ) ' ' _ ` ` ` ` ` ` ` ` ` ` ` ` ` ` ` ` ` ` ` ` ` ` ` ` ` ` ` ` ` ` ` ` ` ` ` ` ` ` ` ` ` ` ` ` ` ` ` ` ` ` ` ` ` _ ` T U m 8 t w w i 4.3.s.s.a.h.m.h.a.a.r.r.a.m.b.b.b.b.r.r.z.z.b.m.b.b.m.m.a.t.<.3 4 1.t.M.m.z.r.r.y.c.c.c.m.m.b.b.b.t.<.3 3 <.t.a.b.h.h.h.l.`.yXdXdXdXvXvXNXAXGXGXGXGXJXGXJXJXJXJXJXJXJXJXJXJXJXJXJXJXJXJXJXJXJXGXSXJXJXJXGXJXJXJXJXSXSXJXKXJXPXJXDXbX.XW.P.A S B * * * * S rXPXLXLXLXPXLXLXPXLXLXLXLXLXLXLXLXLXLXLXLXLXLXLXLXLXLXLXLXLXLXLXLXLXLXLXLXLXLXLXLXLXLXLXLXLXLXLXLXPXyXJ.B.B.e.e.J.e.e.e.e.e.e.e.e.e.e.e.e.e.uXZXKXLXLXLXLXLXLXLXLXLXLXLXLXLXLXLXLXPXLXzXB . .                     . . . . . . . .   - Y.SXPXGXGXHXJXJXJXJXJXJXGXGXJXJXJXJXJXJXJXJXJXJXJXJXJXJXJXJXJXJXJXJXJXJXJXJXJXJXJXJXJXJXJXJXJXJXJXJXJXJXJXJXJXJXJXJXJXJXJXJXJXJXJXJXJXJXJXJXIXSXSXSXSXUXmXzXsXXX X@X#X+X*.%.+.+.+.#.%.%.%.Q Q Q E E E E W W W W W W W W W W W W W W W E E E Q Q Q @.@.Q @.@.%.%.%.%.$.$.+.+.+.#.#.%.%.%.T F F F F L H J J J H H H H H H H H H H H H J J J J L U J U R P.R.R.E.E.R.R.R.R.R.R.R.R.R.R.R.R.R.R.R.R.R.R.R.R.R.R.R.R.R.R.R.R.R.R.R.R.R.R.R.R.R.R.R.R.R.R.R.R.R.R.R.R.R.R.R.R.R.R.R.R.E.E.E.E.E.E.E.E.E.E.E.E.E.E.E.E.E.E.E.E.E.E.E.E.E.E.E.E.E.E.E.E.E.E.E.E.E.",
"1X1X1X1X1X1X1X1X1X1X1X1X1X1X1X1X<X<X4X4X;.-.' ) ' ' ` ` ` ` ` ` ` ` ` ` ` ` ` ` ` ` ` ` ` ` ` ` ` ` ` ` ` ` ` ` ` ` ` ` ` ` ` ` ` ` ` ` ` ` ` ` ` ` ` ` ` ` ` ` ` ` T K m 7 t w w h 4.0.s.s.a.h.m.m.b.a.r.r.a.m.b.b.b.b.z.r.z.z.b.b.b.b.m.b.t.2.4 3 g 2.a.M.m.c.r.r.r.y.c.c.m.m.r.m.b.t.g 2 g 1.s.b.b.m.m.h.j.l.eXdXdXdXvXvXbXNXSXSXGXJXJXGXGXJXJXJXJXJXJXJXJXJXJXJXJXJXJXJXJXJXJXGXJXPXPXGXAXGXJXSXDXDXJXKXDXnXXXW.A B * = O . O           - A SXLXLXPXLXLXLXLXLXLXLXLXLXLXLXLXLXLXLXLXLXLXLXLXLXLXLXLXLXLXLXLXLXLXLXLXLXLXLXLXLXLXLXLXLXLXLXLXPXkXJ.B.B.e.e.J.e.e.e.e.e.e.e.e.e.e.e.e.e.J.VXKXPXLXLXLXLXLXLXLXLXLXLXLXLXLXLXLXLXLX{.-   X                     . . . . . . . .   O P.DXJXGXGXGXJXJXJXJXJXJXGXGXJXJXJXJXJXJXJXJXJXJXJXJXJXJXJXJXJXJXJXJXJXJXJXJXJXJXJXJXJXJXJXJXJXJXJXJXJXJXJXJXJXJXJXJXJXJXJXJXJXJXJXJXJXJXJXJXJXSXSXFXFXDXbXzXsX@X7X@X#X+X*.%.+.+.+.+.$.#.%.%.%.%.%.*.*.@.Q Q *.*.*.*.*.*.*.*.*.*.*.*.*.*.*.@.@.@.#.@.+.+.+.+.#.$.+.+.+.+.+.+.#.#.#.%.%.%.T I F F F H H J J J H H H H H H H H H H H H J J J J L U J U R P.!.R.E.E.R.R.R.R.R.R.R.R.R.R.R.R.R.R.R.R.R.R.R.R.R.R.R.R.R.R.R.R.R.R.R.R.R.R.R.R.R.R.R.R.R.R.R.R.R.R.R.R.R.R.R.R.R.R.R.E.E.E.E.E.E.E.E.E.E.E.E.E.E.E.E.E.E.E.E.E.E.E.E.E.E.E.E.E.E.E.E.E.E.E.E.E.E.",
"1X1X1X1X1X1X1X1X1X1X1X1X1X1X1X1X1X4X4X4X;.&./ ) ' ' ` ` ` ` ` ` ` ` ` ` ` ` ` ` ` ` ` ` ` ` ` ` ` ` ` ` ` ` ` ` ` ` ` ` ` ` ` ` ` ` ` ` ` ` ` ` ` ` ` ` ` ` ` ` _ ` T K m 9 t w w h 2.s.n.b.a.h.m.m.m.a.r.r.a.m.b.b.b.b.z.z.z.z.b.b.b.b.m.b.t.1.3 4 <.3.b.M.m.m.r.r.r.r.c.c.m.m.r.b.b.3.4 2 g 2.b.b.b.m.m.M.h.j.`.yXdXdXxXvXvXnXDXDXGXGXJXGXGXGXJXJXJXJXJXJXJXJXJXJXJXJXJXJXJXJXJXGXJXJXJXAXGXJXDXGXPXSXnX.XU.A D = X     X X   X X X   X     * zXPXLXPXLXLXLXLXLXLXLXLXLXLXLXLXLXLXLXLXLXLXLXLXLXLXLXLXLXLXLXLXLXLXLXLXLXLXLXLXLXLXLXLXLXLXLXLXPXkXJ.B.e.e.e.J.e.e.e.e.e.e.e.e.e.e.e.e.w.J.lXKXPXLXLXLXLXLXLXLXLXLXLXLXLXLXLXLXLXPXP.O   X                             . . . . . X A nXGXSXGXGXJXJXJXJXJXGXGXGXJXJXJXJXJXJXJXJXJXJXJXJXJXJXJXJXJXJXJXJXJXJXJXJXJXJXJXJXJXJXJXJXJXJXJXJXJXJXJXJXJXJXJXJXJXJXJXJXJXJXFXFXFXFXFXJXJXGXSXJXIXDXnXxXzXzXzX7X#X+X*.%.+.+.+.+.+.+.+.+.+.#.#.#.#.#.%.%.%.%.%.%.#.%.%.%.%.%.%.%.%.%.%.%.#.+.+.+.#.#.#.#.+.+.+.+.+.#.$.$.#.#.%.%.%.%.T I F F F L H H J J H H H H H H H H H H H H J J J J L U J U R P.R.R.R.R.R.R.R.R.R.R.R.R.R.R.R.R.R.R.R.R.R.R.R.R.R.R.R.R.R.R.R.R.R.R.R.R.R.R.R.R.R.R.R.R.R.R.R.R.R.R.R.R.R.R.R.R.R.R.E.E.E.E.E.E.E.E.E.E.E.E.E.E.E.E.E.E.E.W.Q.Q.Q.Q.E.E.E.E.E.E.E.E.Q.Q.Q.Q.Q.Q.Q.",
"1X1X1X1X1X1X1X1X1X1X1X1X1X1X1X1X1X4X4X4X>.&./ ' ' ' ` ` ` ` ` ` ` ` ` ` ` ` ` ` ` ` ` ` ` ` ` ` ` ` ` ` ` ` ` ` ` ` ` ` ` ` ` ` ` ` ` ` ` ` ` ` ` ` ` ` ` ` ` ` ` ` T V m 9 t w w g 2.s.n.b.a.h.M.m.m.b.a.r.a.a.b.b.b.b.z.z.z.z.b.b.r.b.m.b.3.<.3 g 1.t.M.M.m.c.r.r.r.r.c.c.m.m.r.b.a.1.3 2 <.3.b.b.b.m.M.M.h.j.l.uXdXdXxXxXvXvXNXDXSXGXJXGXGXJXJXJXJXJXJXJXJXJXJXJXJXJXJXJXJXJXGXGXGXSXAXGXGXJXPXJXnXoXH.B - X     X X X                     O P.DXLXPXLXLXLXLXLXLXLXLXLXLXLXLXLXLXLXLXLXLXLXLXLXLXLXLXLXLXLXLXLXLXLXLXLXLXLXLXLXLXLXLXLXLXLXLXPXkXJ.w.e.e.e.e.e.e.e.e.e.e.e.e.e.e.e.e.w.B.yXHXPXLXLXLXLXLXLXLXLXLXLXLXLXLXLXLXLXbXS X                         . .     . . . . . X S bXGXSXGXJXJXJXJXJXGXGXGXGXJXJXJXJXJXJXJXJXJXJXJXJXJXJXJXJXJXJXJXJXJXJXJXJXJXJXJXJXJXJXJXJXJXJXJXJXJXJXJXJXJXJXJXJXJXJXJXJXJXJXFXFXFXFXFXFXJXGXGXJXJXDXbXhXzXzXcX7X#X+X*.%.+.+.O.O.+.+.+.+.O.+.+.+.+.+.+.+.+.+.+.+.+.+.+.$.$.$.$.#.#.#.%.%.$.$.$.$.$.#.#.+.$.$.#.#.$.#.$.#.#.#.#.%.%.%.Q G F F F H H J J J H H H H H H H H H H H H J J J J L U J U R P.R.R.R.R.R.R.R.R.R.R.R.R.R.R.R.R.R.R.R.R.R.R.R.R.R.R.R.R.R.R.R.R.R.R.R.R.R.R.R.R.R.R.R.R.R.R.R.R.R.R.R.R.R.R.R.R.R.R.E.E.E.E.E.E.E.E.E.E.E.E.E.E.E.E.E.E.E.W.Q.Q.Q.Q.W.W.W.W.W.W.W.W.W.W.W.W.W.W.W.",
"1X1X1X1X1X1X1X1X1X1X1X1X1X1X1X1X1X<X4X4X=.[ / ' ' _ ` ` ` ` ` ` ` ` ` ` ` ` ` ` ` ` ` ` ` ` ` ` ` ` ` ` ` ` ` ` ` ` ` ` ` ` ` ` ` ` ` ` ` ` ` ` ` ` ` ` ` ` ` ` ` ` T V m 9 t e w i 2.s.n.b.a.a.M.m.m.b.r.r.r.r.a.a.b.b.z.z.z.z.b.r.z.z.m.a.2.g g g 2.a.M.m.m.z.r.r.r.r.c.c.m.m.z.m.r.<.3 3 <.t.b.b.b.M.M.M.M.u.u.`.yXdXdXsXxXxXnXNXAXGXJXGXGXJXJXJXJXJXJXJXJXJXJXJXJXJXJXJXJXJXGXJXGXAXSXJXSXCXDXXXA B O X   X         X X X   X O - = * * 1 B l.nXLXLXLXLXLXPXLXLXLXLXLXLXLXLXLXLXLXLXLXLXLXLXLXLXLXLXLXLXLXLXLXLXLXLXLXLXLXLXLXLXLXLXLXLXLXLXPXBXJ.w.e.e.e.e.e.e.e.e.e.e.e.e.e.e.e.e.e.B.uXVXPXLXLXLXLXLXLXLXLXLXLXLXLXLXLXLXPX{.=   .   .                   . . . . . . . . . . S xXGXSXSXJXGXGXGXGXGXGXJXJXJXJXJXJXJXJXJXJXJXJXJXJXJXJXJXJXJXJXJXJXJXJXJXJXJXJXJXJXJXJXJXJXJXJXJXJXJXJXJXJXJXJXJXJXJXJXJXJXFXFXFXFXFXFXFXFXGXJXJXJXSXDXmX%XzXzXzX7X#X+X*.%.#.$.%.%.%.$.#.#.#.$.O.O.O.+.O.O.O.O.O.O.O.O.$.$.$.$.$.$.$.#.$.$.$.O.+.O.#.$.#.#.$.#.#.#.%.%.#.#.$.+.$.#.%.%.Q I F F F H J J J J H H H H H H H H H H H H H J J J L U J U R P.I.R.R.R.R.R.R.R.R.R.R.R.R.R.R.R.R.R.R.R.R.R.R.R.R.R.R.R.R.R.R.R.R.R.R.R.R.R.R.R.R.R.R.R.R.R.R.R.R.R.R.R.R.R.R.R.R.R.E.E.E.E.E.E.E.E.Q.Q.Q.Q.W.W.W.W.W.W.W.W.W.W.W.W.W.W.W.W.W.W.W.W.W.W.W.W.W.W.W.",
"1X1X1X1X1X1X1X1X1X1X1X1X1X1X1X1X1X<X4X4X-.' / ' ' _ ` ` ` ` ` ` ` ` ` ` ` ` ` ` ` ` ` ` ` ` ` ` ` ` ` ` ` ` ` ` ` ` ` ` ` ` ` ` ` ` ` ` ` ` ` ` ` ` ` ` ` ` ` ` ` ` T V m 9 s r w i 2.s.M.b.a.a.M.m.m.m.z.r.z.z.b.a.b.z.z.z.z.z.b.r.z.b.m.a.2.g g <.2.a.M.m.b.r.r.r.r.r.c.c.m.m.b.b.t.<.3 3 <.t.b.b.m.m.M.M.m.u.i.l.eXdXdXtXrXrXbXnXDXGXGXGXGXJXJXJXJXJXJXJXJXJXJXJXJXJXJXJXJXJXGXJXJXGXJXPXDXbXA B O     X .       X O = B S A l.P.Q.{.OXoXoXoXXXSXLXLXLXPXLXLXLXLXLXLXLXLXLXLXLXLXLXLXLXLXLXLXLXLXLXLXLXLXLXLXLXLXLXLXLXLXLXLXLXLXLXLXLXLXLXLXPXVXJ.w.e.e.e.e.e.e.e.e.e.e.e.e.e.e.e.e.J.w.J.BXPXPXLXLXLXLXLXLXLXLXLXLXLXLXLXLXSXP.O   .   X X                 . . . . . . . .     B zXGXGXSXJXGXGXGXGXGXGXJXJXJXJXJXJXJXJXJXJXJXJXJXJXJXJXJXJXJXJXJXJXJXJXJXJXJXJXJXJXJXJXJXJXJXJXJXJXJXJXJXJXJXJXJXJXJXJXJXJXJXFXJXFXFXFXFXJXGXJXJXJXSXDXmXXXzXzX@X@X#X+X*.%.%.#.#.#.#.#.#.#.%.%.$.$.$.$.$.$.$.$.O.O.O.$.$.$.$.$.$.$.$.$.$.$.$.$.$.$.%.%.$.$.#.#.$.#.%.%.#.$.$.+.+.$.#.%.Q I F F H H J J J J H H H H H H H H H H H H J J J J L U J U R { !.R.R.R.R.R.R.R.R.R.R.R.R.R.R.R.R.R.R.R.R.R.R.R.R.R.R.R.R.R.R.R.R.R.R.R.R.R.R.R.R.R.R.R.R.R.R.R.R.R.R.R.R.R.R.R.R.R.E.E.E.E.E.E.E.E.W.W.W.W.W.W.W.W.W.W.W.W.W.W.W.W.W.W.W.W.W.W.W.W.W.W.W.W.W.W.W.",
"1X1X1X1X1X1X1X1X1X1X1X1X1X1X1X1X<X2X4X>X-./ ' ' ' _ _ ` ` ` ` ` ` ` ` ` ` ` ` ` ` ` ` ` ` ` ` ` ` ` ` ` ` ` ` ` ` ` ` ` ` ` ` ` ` ` ` ` ` ` ` ` ` ` ` ` ` ` ` ` T ] T q 9 9 8 u w g 3.n.M.n.s.a.m.m.m.b.b.z.z.z.z.z.z.z.z.c.c.z.b.r.a.m.b.3.<.4 4 2.a.b.m.m.m.b.r.r.r.r.c.c.c.c.b.b.2.g 3 g 1.t.b.m.m.m.m.c.r.t.i.j.`.yXdXtXtXtXcXbXNXAXJXJXJXJXJXKXJXJXJXFXFXFXGXJXJXJXJXJXJXGXGXJXGXAXHXnXQ.S O o   . .   X O B S l.E.].oXbXCXGXGXGXGXGXGXJXJXJXPXPXLXLXLXLXLXLXLXLXLXLXLXLXLXLXLXLXLXLXLXLXLXLXLXLXLXLXLXLXLXLXLXLXLXLXLXLXLXLXLXLXLXLXLXLXLXPXZXJ.w.B.e.e.e.e.e.e.e.e.e.e.e.e.e.e.e.J.w.w.uXAXPXLXLXLXLXLXLXPXLXLXLXLXLXLXLXXXB . X     X                   . . . . . . . .     B sXGXJXGXGXJXJXJXJXJXJXJXJXJXJXJXJXJXJXJXJXJXJXJXJXJXJXJXJXJXJXJXJXJXJXJXJXGXJXJXJXGXGXGXGXGXJXJXJXJXJXJXGXJXJXJXJXJXGXGXGXJXJXJXJXJXJXJXJXGXJXGXSXSXDXcXsXrXxXzX@X#X+X*.%.%.$.$.$.$.$.%.$.$.$.#.#.#.$.$.$.$.$.$.$.$.$.$.$.$.$.$.$.$.$.$.$.$.$.$.$.$.$.$.$.$.$.$.$.$.$.$.$.+.+.+.O.$.%.Q T I L H K J J J J H H H H H H H H H J J H H H H J L J J U Y { !.R.R.R.R.R.R.R.R.R.R.R.R.R.R.R.R.R.R.R.R.R.R.R.R.R.R.R.R.R.R.R.R.R.R.R.R.R.R.R.R.R.R.R.R.R.R.R.R.R.R.R.R.R.E.E.E.E.E.E.E.E.E.E.E.E.W.W.W.W.W.W.W.W.W.W.W.W.W.W.W.W.W.W.W.W.W.W.W.W.W.W.W.W.W.W.W.",
"1X1X1X1X1X1X1X1X1X1X1X1X1X1X1X1X2X2X4X>X-.' ' ' _ _ _ _ ` ` _ ` ` ` ` ` ` ` ` ` ` ` ` ` ` ` ` ` ` ` ` ` ` ` ` ` ` ` ` ` ` ` ` ` ` ` ` ` ` ` ` ` ` ` ` ` ` ` ` ` ` ] T q 9 9 8 u w g 3.n.n.n.s.s.m.m.m.b.z.z.z.z.z.z.z.z.c.c.c.c.z.r.b.M.b.3.<.4 g 2.a.b.m.m.m.r.r.r.r.r.c.c.c.c.b.s.2.g 3 g 1.t.b.m.m.m.m.c.r.t.i.u.l.yXgXyXtXtXxXvXnXDXJXJXJXFXKXKXJXJXJXFXFXFXJXGXGXJXJXJXGXGXAXGXPXJXhXA = O   . o O = B A P..XbXCXGXGXSXJXPXGXGXGXGXGXGXJXJXJXJXPXLXLXLXLXLXLXLXLXLXLXLXLXLXLXLXLXLXLXLXLXLXLXLXLXLXLXLXLXLXLXLXLXLXLXLXLXLXLXLXLXLXLXLXLXLXPXZXK.B.B.e.e.e.e.e.e.e.e.e.e.e.e.e.e.e.J.e.M J.nXPXLXLXLXLXLXLXLXPXLXLXLXLXLXDXA -   X                 X       . . . . . . . .     B zXGXJXGXGXJXJXJXJXJXJXJXJXJXJXJXJXJXJXJXJXJXJXJXJXJXJXJXJXGXJXJXJXJXJXJXJXGXGXGXGXJXJXJXGXGXJXJXJXJXJXJXGXJXJXJXJXJXGXGXGXJXJXJXJXJXJXJXJXGXJXGXGXSXNXcXsXrXhX%X7X#X$X*.%.%.$.$.$.$.$.$.$.$.$.$.$.#.#.$.$.$.$.$.$.$.$.$.$.$.$.$.$.$.$.$.$.$.$.$.$.$.$.$.$.$.$.$.$.$.$.$.$.+.O.+.O.$.#.Q T I L H J K K H H H H H H H H H H H H J J H H H H L J J U Y R !.I.I.T.R.R.R.R.R.R.R.R.R.R.R.R.R.R.R.R.R.R.R.R.R.R.R.R.R.R.R.R.R.R.R.R.R.R.R.R.R.R.R.R.R.R.R.R.R.R.R.R.R.R.E.E.E.E.E.E.E.E.E.E.E.E.W.W.W.W.W.W.W.W.W.W.W.W.W.W.W.W.W.W.W.W.W.W.W.W.W.W.W.W.W.W.W.",
"1X1X1X1X1X1X1X1X1X1X1X1X1X1X1X1X2X2X4X;.-.' ) ) _ _ _ _ _ _ ` ` ` ` ` ` ` ` ` ` ` ` ` ` ` ` ` ` ` ` ` ` ` ` ` ` ` ` ` ` ` ` ` ` ` ` ` ` ` ` ` ` ` ` ` ` ` ` ` ` ` ] T q 9 9 8 w w g 2.n.M.n.s.a.M.m.m.b.z.z.z.z.z.z.z.z.c.c.c.c.r.r.b.M.s.2.g 3 <.3.b.m.m.m.m.r.r.r.r.r.c.c.c.c.b.s.2.g 3 g 2.r.b.m.m.m.m.y.r.u.t.i.l.`.yXtXtXtXrXxXbXNXAXJXJXAXJXJXKXJXJXFXFXFXPXJXGXJXGXAXGXJXJXJXnX).B O     - B A Y.{.hXnXDXGXJXJXJXSXAXAXJXGXGXGXGXGXGXGXGXGXJXJXPXLXLXLXLXLXLXLXLXLXLXLXLXLXLXLXLXLXLXLXLXLXLXLXLXLXLXLXLXLXLXLXLXLXLXLXLXLXLXLXLXLXLXLXLXPXZXuXB.B.e.e.e.e.e.e.e.e.e.e.e.e.e.e.e.e.w.M C OXDXLXLXLXLXPXLXLXPXLXLXJXLXPX|.* X   X     . . X     X X       . .   . .     .     B rXGXJXGXGXJXJXJXJXJXJXJXJXJXJXJXJXJXJXJXJXJXJXJXJXJXJXJXJXGXGXJXJXJXJXJXJXJXGXSXGXJXJXJXJXJXJXGXGXGXGXJXJXJXJXJXJXGXGXGXGXJXJXJXJXJXJXJXJXGXGXGXIXSXnXcXzXrXhX7X7X#X$X*.%.%.$.$.$.$.$.$.$.$.$.$.$.$.$.$.$.$.$.$.$.$.$.$.$.$.$.$.$.$.$.$.$.$.$.$.$.$.$.$.$.$.$.$.$.$.$.$.$.+.O.+.O.$.#.Q T I I P J K K H H H H H H H J J H H H H H H H H H L J J U Y { !.R.R.R.R.R.R.R.R.R.R.R.R.R.R.R.R.R.R.R.R.R.R.R.R.R.R.R.R.R.R.R.R.R.R.R.R.R.R.R.R.R.R.R.R.R.R.R.R.R.R.R.E.R.E.E.E.E.E.E.E.E.E.E.W.W.W.W.W.W.W.W.W.W.W.W.W.W.W.W.W.W.W.W.W.W.W.W.W.W.W.W.W.W.W.W.W.",
"1X1X1X1X1X1X1X1X1X1X1X1X1X1X1X<X2X4X4X;.&.' ) ) _ _ ` ` _ ` ` ` ` ` ` ` ` ` ` ` ` ` ` ` ` ` ` ` ` ` ` ` ` ` ` ` ` ` ` ` ` ` ` ` ` ` ` ` ` ` ` ` ` ` ` ` ` ` ` ` ` ] Y q 9 9 8 w w g 2.n.M.n.s.a.M.m.m.b.z.z.z.z.z.z.z.z.c.c.c.c.r.a.b.M.s.2.g 3 <.3.b.m.m.m.m.r.r.r.r.y.c.c.c.m.b.s.4.i i 4.3.a.b.m.m.m.h.y.r.r.i.i.j.l.uXyXtXtXrXhXcXbXCXAXJXJXJXKXKXKXJXJXJXFXJXJXJXJXGXGXJXPXJXhXA = O = S l.W..XnXDXGXJXJXJXGXGXGXGXJXJXJXJXGXGXGXGXGXGXGXGXGXGXJXJXPXLXLXLXLXLXLXLXLXLXLXLXLXLXLXLXLXLXLXLXLXLXLXLXLXLXLXLXLXLXLXLXLXLXLXLXLXLXLXLXLXLXLXLXPXKXkXJ.B.e.e.e.e.e.e.e.e.e.e.e.e.e.e.e.e.w.M 6 S XXLXLXLXLXLXLXLXLXLXPXPXLXbXA O     X     .                 X       . .     .     B rXGXJXGXGXJXJXJXJXJXJXJXJXJXJXJXJXJXJXJXJXJXJXJXJXJXJXJXJXGXGXGXJXJXJXJXJXGXGXSXGXGXGXGXJXJXGXGXGXGXGXGXJXGXGXGXGXGXGXGXGXJXJXJXJXJXJXJXJXGXGXJXIXSXbXxXhXrX%X7X7X+X*.*.%.%.$.$.$.$.$.$.$.$.$.$.$.$.$.$.$.$.$.$.$.$.$.$.$.$.$.$.$.$.$.$.$.$.$.$.$.$.$.$.$.$.$.$.$.$.$.$.$.+.O.+.O.$.#.Q T I I P J K K H H H H H H H H H J H H H H H H H H J J J U Y { !.I.R.R.R.R.R.R.R.R.R.R.R.R.R.R.R.R.R.R.R.R.R.R.R.R.R.R.R.R.R.R.R.R.R.R.R.R.R.R.R.R.R.R.R.R.R.R.R.R.R.E.E.E.E.E.E.E.E.E.E.E.Q.W.W.W.W.W.W.W.W.W.W.W.W.W.W.W.W.W.W.W.W.W.W.W.W.W.W.W.W.W.W.W.W.W.W.",
"1X1X1X1X1X1X1X1X1X1X1X1X1X1X1X<X2X4X4X>.&.' ) ) ` _ ` ` _ _ _ _ ` ` ` ` ` ` ` ` ` ` ` ` ` ` ` ` ` ` ` ` ` ` ` ` ` ` ` ` ` ` ` ` ` ` ` ` ` ` ` ` ` ` ` ` ` ` ` ` ` ] Y q 9 9 8 u e g 3.n.M.b.a.a.m.m.m.b.z.z.z.z.z.z.z.z.c.c.c.c.r.b.b.b.s.1.g 3 <.t.b.m.m.m.m.m.r.r.r.y.c.c.m.m.b.t.4.i g 1.t.a.b.m.m.m.h.y.r.r.u.u.u.j.`.yXdXtXrXrXhXcXbXCXFXJXJXJXKXKXHXJXGXGXAXJXJXGXJXJXGXCXOXA B S P.{.cXDXGXGXJXGXAXAXGXJXJXGXJXJXPXPXJXGXGXGXGXGXGXGXGXGXGXGXGXJXPXLXLXLXLXLXLXLXLXLXLXLXLXLXLXLXLXLXLXLXLXLXLXLXLXLXLXLXLXLXLXLXLXLXLXLXLXLXLXLXLXLXLXLXLXKXlXJ.B.e.e.e.e.e.e.e.e.e.e.e.e.e.e.e.e.e.q.6 = P.DXLXPXPXLXPXPXPXPXPXLXDXP.- X     X         X       . X     .   . . . . . .     B rXGXJXGXGXJXJXJXJXJXJXJXJXJXJXJXJXJXJXJXJXJXJXJXJXJXJXJXJXGXGXGXGXGXJXJXJXSXJXGXGXGXDXDXJXGXGXGXGXGXGXGXGXGXGXGXGXGXGXGXGXJXJXJXJXJXJXJXJXGXSXFXJXDXbXzXhXrXXX7X7X+X*.@.%.#.$.$.$.$.$.$.$.$.$.$.$.$.$.$.$.$.$.$.$.$.$.$.$.$.$.$.$.$.$.$.$.$.$.$.$.$.$.$.$.$.$.$.$.$.$.$.$.+.O.+.O.$.%.@.T I L P J K K H J H H H H H H H H J H H H H H J J J J J U U R !.I.I.R.R.E.R.R.R.R.R.R.R.R.R.R.R.R.R.R.R.R.R.R.R.R.R.R.R.R.R.R.R.R.R.R.R.R.R.R.R.R.R.R.R.R.R.R.R.R.E.E.E.E.E.E.E.E.E.E.E.Q.W.W.W.W.W.W.W.W.W.W.W.W.W.W.W.W.W.W.W.W.W.W.W.W.W.W.W.W.W.W.W.W.W.W.W.",
"1X1X1X1X1X1X1X1X1X1X1X1X1X1X1X<X2X4X4X=.[ ' ) _ ` ` _ ` _ _ ` _ ` ` ` ` ` ` ` ` ` ` ` ` ` ` ` ` ` ` ` ` ` ` ` ` ` ` ` ` ` ` ` ` ` ` ` ` ` ` ` ` ` ` ` ` ` ` ` ` ` ] Y q 9 9 u y e g 3.n.M.b.a.a.m.m.m.b.z.z.z.z.z.z.z.z.c.c.c.z.b.b.b.n.3.<.4 3 1.t.m.m.m.m.m.m.r.r.r.y.c.c.m.m.b.3.<.i g 2.a.a.m.m.m.m.y.y.y.y.r.u.u.u.l.yXdXtXjXhXrXhXcXnXCXJXJXJXKXKXGXHXGXGXGXPXPXGXJXJXNXxX).Q.{.cXAXPXJXAXJXAXAXGXJXJXJXPXJXGXAXAXAXGXJXJXGXGXGXGXGXGXGXJXGXGXHXGXJXPXLXLXLXLXLXLXLXLXLXLXLXLXLXLXLXLXLXLXLXLXLXLXLXLXLXLXLXLXLXLXLXLXLXLXLXLXLXLXLXLXLXLXLXKXZXuXB.e.e.e.e.e.e.e.e.e.e.e.e.e.e.e.e.e.w.6 o B {.JXLXPXPXLXLXLXLXLXDXY.=               - * B B = X         . . . . . . . .     B rXGXJXGXGXJXJXJXJXJXJXJXJXJXJXJXJXJXJXJXJXJXJXJXJXJXJXJXJXGXGXGXGXGXGXJXJXSXJXJXGXSXNXnXDXSXGXGXGXGXGXGXSXGXGXGXGXGXGXGXGXJXJXJXJXJXJXJXJXSXSXSXAXnXxXhXhXrX%X7X#X$X*.@.%.#.$.$.$.$.$.$.$.$.$.$.$.$.$.$.$.$.$.$.$.$.$.$.$.$.$.$.$.$.$.$.$.$.$.$.$.$.$.$.$.$.$.$.$.$.$.$.$.+.O.+.+.$.%.@.T I L P J K K H J H H H H H H H H J J H H H H J J J H J P U R !.I.I.R.E.E.E.R.E.E.R.R.R.R.R.R.R.R.R.R.R.R.R.R.R.R.R.R.R.R.R.R.R.R.R.R.R.R.R.R.R.R.E.E.E.E.E.E.R.R.E.E.E.E.E.E.E.E.E.E.Q.W.W.W.W.W.W.W.W.W.W.W.W.W.).).).).).).).).).).).).).).).).].].W.W.^.^.^.",
"1X1X1X1X1X1X1X1X1X1X1X1X1X1X1X<X4X4X>X-.' ) _ ' ` ` ` ` ` ` _ ` ` ` ` ` ` ` ` ` ` ` ` ` ` ` ` ` ` ` ` ` ` ` ` ` ` ` ` ` ` ` ` ` ` ` ` ` ` ` ` ` ` ` ` ` ` ` ` ` ` ] Y q 9 7 u y e g 3.n.M.n.a.a.m.m.m.b.z.z.z.z.z.z.z.z.c.c.c.z.m.m.b.s.3.<.4 4 2.t.M.m.m.m.m.c.r.r.r.y.c.c.m.m.b.2.g i g 2.a.m.m.m.c.c.y.y.y.y.y.u.y.u.j.`.yXdXjXhXrXXXhXmXCXFXJXJXKXKXGXGXGXGXJXPXPXJXJXGXNXcXnXAXJXDXDXJXJXDXGXSXGXJXJXGXAXAXAXSXGXGXGXGXJXPXGXGXGXGXGXJXJXJXGXGXSXSXGXJXLXLXLXLXLXLXLXLXLXLXLXLXLXLXLXLXLXLXLXLXLXLXLXLXLXLXLXLXLXLXLXLXLXLXLXLXLXLXLXLXLXLXLXPXKXuXB.e.e.e.e.e.e.e.e.e.e.e.e.e.e.e.e.e.w.6 o o B OXSXPXPXLXLXIXSXnXP.= .           X * P.oXcXXXP.=     X . . . .   . . . .     B hXGXJXSXGXJXJXJXJXJXJXJXJXJXJXJXJXJXJXJXJXJXJXJXJXJXJXJXJXGXGXGXGXGXGXGXJXGXJXJXGXSXnXbXnXAXAXGXJXJXGXAXAXSXSXSXGXGXGXGXGXJXJXJXJXJXJXJXJXSXSXSXDXbXjXrXhXhX7X7X#X*.@.#.%.$.$.$.$.$.$.$.$.$.$.$.$.$.$.$.$.$.$.$.$.$.$.$.$.$.$.$.$.$.$.$.$.$.$.$.$.$.$.$.$.$.$.$.$.$.$.$.$.O.O.+.+.$.%.@.T I L H K J J J J H H H H J H H H H H H H H H H H H H J K U R !.R.I.R.E.E.E.R.R.R.R.R.R.R.R.R.R.R.R.R.R.R.R.R.R.R.R.R.R.R.R.R.R.R.R.R.R.R.R.R.R.R.E.E.E.E.E.E.E.E.E.E.E.E.E.E.E.E.W.W.Q.W.W.W.W.W.W.W.W.W.W.W.).).).).).).).).).).).).).).).).).).].].].].].].W.",
"1X1X1X1X1X1X1X1X1X1X1X1X1X1X1X<X4X4X>X-.' ' ) ' ` ` ` ` ` ` ` ` ` ` ` ` ` ` ` ` ` ` ` ` ` ` ` ` ` ` ` ` ` ` ` ` ` ` ` ` ` ` ` ` ` ` ` ` ` ` ` ` ` ` ` ` ` ` ` ` ` ] Y q 9 7 u y e g 2.n.M.n.a.a.m.m.m.b.z.z.z.z.z.z.z.z.c.c.c.z.m.n.b.t.2.g 4 4 2.a.M.m.m.m.m.r.r.r.r.y.c.c.m.m.b.2.g i g 2.b.m.m.c.c.y.y.y.y.y.h.u.y.u.u.S.yXgXtXhXrXXX%XcXnXAXJXJXKXKXGXGXGXGXAXGXJXGXGXGXGXSXAXGXGXGXGXGXGXGXAXGXJXGXSXAXGXJXSXGXJXJXSXAXGXJXGXGXGXGXJXJXJXJXGXGXSXSXGXJXPXLXLXLXLXLXLXLXLXLXLXLXLXLXLXLXLXLXLXLXLXLXLXLXLXLXLXLXLXLXLXLXLXLXLXLXLXLXLXLXLXLXLXPXKXuXB.B.e.e.e.e.e.e.e.e.e.e.e.e.e.e.e.e.B.6 o   X B ).bXnXnXzXW.P.S -   X     X     = R.SXLXLXLXnXA O       . . . . . . . .     B hXGXJXGXGXJXJXJXJXJXJXJXJXJXJXJXJXJXJXJXJXJXJXJXJXJXJXJXJXGXGXGXGXGXGXGXGXJXJXGXGXGXnXcXbXDXAXGXJXJXGXAXDXAXSXSXSXGXGXGXGXJXJXJXJXJXJXJXJXSXSXSXCXcXrXhXrX%X7X8X+X*.@.%.%.$.$.$.$.$.$.$.$.$.$.$.$.$.$.$.$.$.$.$.$.$.$.$.$.$.$.$.$.$.$.$.$.$.$.$.$.$.$.$.$.$.$.$.$.$.$.$.$.$.O.+.+.$.%.@.T F L H K J J J J H H J J J H H H H H H H H H H H H H J K U R !.R.I.R.E.E.R.R.R.R.R.R.R.R.R.R.R.R.R.R.R.R.R.R.R.R.R.R.R.R.R.R.R.R.R.R.R.R.R.R.R.R.E.E.E.E.E.E.E.E.E.E.E.E.E.E.E.E.W.W.W.W.W.W.W.W.W.W.W.W.).).).W.].].].].].].].].).).).).).).).).].].].].].].W.",
"1X1X1X1X1X1X1X1X1X1X1X1X1X1X1X<X<X4X;.&./ ) ' _ _ ` ` ` ` ` ` ` ` ` ` ` ` ` ` ` ` ` ` ` ` ` ` ` ` ` ` ` ` ` ` ` ` ` ` ` ` ` ` ` ` ` ` ` ` ` ` ` ` ` ` ` ` ` ` ` ` ] W q 9 7 w p t g 3.n.n.m.M.t.b.b.b.b.z.z.z.z.c.c.c.c.c.c.c.c.r.M.M.s.1.g 4 g 3.r.b.m.m.m.m.r.r.r.r.y.y.c.m.m.a.2.i i 4.t.b.m.m.c.c.c.y.y.y.y.y.M.h.h.u.u.`.gXtXrXrXhXhXhXcXNXJXJXHXJXHXGXGXJXJXJXJXJXJXJXJXJXGXGXGXGXGXGXGXGXGXGXGXGXGXGXGXGXJXJXJXJXJXJXJXJXGXGXGXGXGXGXGXGXJXJXJXGXSXSXJXPXLXLXLXLXLXLXLXPXLXLXLXLXLXLXLXLXLXLXLXLXLXLXLXLXLXLXLXLXLXLXLXLXLXLXLXLXLXLXLXLXLXPXPXlXJ.B.e.e.e.e.e.e.e.e.e.e.e.e.e.e.e.e.e.M $ o o O = B B B * = - X               O Y.SXLXLXPXPXLXXXB     X .           . .   . B XXJXJXJXJXJXJXJXJXJXJXJXJXJXJXJXJXJXJXJXJXJXJXGXGXGXGXGXGXGXAXGXJXGXGXJXGXJXGXGXGXGXCXbXhXbXnXCXCXCXnXnXnXnXCXAXGXGXGXGXJXGXJXJXJXGXGXJXJXFXFXDXbXjXhXhXhX7X7X#X$X*.%.#.$.$.$.$.$.$.$.$.$.$.$.$.$.$.$.$.$.$.$.$.$.$.$.$.$.$.$.$.$.$.$.$.$.$.$.$.$.$.$.$.$.$.$.$.$.$.$.$.$.$.+.+.O.O.#.@.T I L H P J K J J H J J H J J J H H H H H H H H H H H J P U R !.!.!.R.E.E.E.E.E.E.R.R.R.R.R.R.R.R.R.R.R.R.R.R.R.R.R.R.R.R.R.R.R.R.R.R.R.R.E.E.E.E.R.R.E.E.E.E.E.E.E.E.E.E.Q.W.E.E.W.W.W.W.W.W.W.W.W.W.).).).W.W.W.).).).).).).).).].].].].).).).).].].].].].].].",
"1X1X1X1X1X1X1X1X1X1X1X1X1X1X1X<X<X4X;.&./ ) ' _ ` ` ` ` ` ` ` ` ` ` ` ` ` ` ` ` ` ` ` ` ` ` ` ` ` ` ` ` ` ` ` ` ` ` ` ` ` ` ` ` ` ` ` ` ` ` ` ` ` ` ` ` ` ` ` ` ` ] W q 9 7 w p t g 3.n.n.m.M.t.b.b.b.b.z.z.z.z.c.c.c.c.c.c.c.c.r.M.M.t.4.g g <.3.r.b.m.m.m.m.r.r.r.r.y.y.c.m.b.s.2.i i 4.t.b.m.m.c.c.c.y.y.y.y.y.m.h.h.u.u.l.uXtXrXtXrXhXhXcXnXAXHXHXHXGXGXGXGXJXJXJXJXJXJXJXJXGXGXGXGXGXGXGXGXGXGXGXGXGXGXGXGXJXJXJXJXJXJXJXJXGXGXGXGXGXGXGXGXSXJXPXJXGXGXJXLXLXLXLXLXLXLXLXLXLXLXLXLXLXLXLXLXLXLXLXLXLXLXLXLXLXLXLXLXLXLXLXLXLXLXLXLXLXLXLXLXLXPXPXVXK.B.e.e.e.e.e.e.e.e.e.e.e.e.e.e.e.e.B.q.6 o . . . . .   X X         X X       B XXPXLXLXLXPXLXnXS X   X . .                 B xXJXGXGXJXJXJXJXJXJXJXJXJXJXJXJXJXJXJXJXJXJXJXGXGXGXGXGXGXGXAXAXGXGXGXJXGXJXGXGXJXGXDXnXcXxXcXcXbXcXcXbXbXNXDXSXGXGXGXGXJXGXJXJXJXGXGXJXJXFXSXnXcXhXhXhX%X7X#X+X*.*.%.$.$.$.$.$.$.$.$.$.$.$.$.$.$.$.$.$.$.$.$.$.$.$.$.$.$.$.$.$.$.$.$.$.$.$.$.$.$.$.$.$.$.$.$.$.$.$.$.$.$.+.+.+.O.O.#.%.T I L H P P P J J J J H H J H H H H H H H H H H H H H K P U R !.!.!.R.E.E.E.E.E.E.R.R.R.R.R.R.R.R.R.R.R.R.R.R.R.R.R.R.R.R.R.R.R.R.R.R.R.R.E.E.E.E.R.E.E.E.E.E.E.E.E.E.E.E.W.W.Q.Q.W.W.W.W.W.W.W.W.W.W.).).W.W.W.W.).).).).).).).).].].].].).).).).].].].].].].].",
"1X1X1X1X1X1X1X1X1X1X1X1X1X1X1X<X<X4X>.[ ' ) _ _ ` ` ` ` ` ` ` ` ` ` ` ` ` ` ` ` ` ` ` ` ` ` ` ` ` ` ` ` ` ` ` ` ` ` ` ` ` ` ` ` ` ` ` ` ` ` ` ` ` ` ` ` ` ` ` ` ` ] W q 9 7 w p t g 3.n.b.m.M.r.b.b.b.b.z.z.z.z.c.c.c.c.c.c.c.c.b.m.b.t.<.4 g <.t.a.m.m.m.m.c.r.r.r.r.y.y.c.m.b.s.1.i i 4.t.b.m.m.c.c.c.y.y.y.y.r.y.y.y.u.i.j.S.yXtXtXrXjXhXhXbXDXHXJXGXGXJXJXSXJXJXJXJXJXJXJXJXGXGXGXGXGXGXGXGXGXGXGXGXGXGXGXGXJXJXJXJXJXJXJXJXGXGXGXGXGXGXGXGXGXGXGXGXGXGXGXJXIXPXLXLXLXLXLXLXLXLXLXLXLXLXLXLXLXLXLXLXLXLXLXLXLXLXLXLXLXLXLXLXLXLXLXLXLXLXLXLXLXLXLXKXuXJ.B.e.e.e.e.e.e.e.e.e.J.J.e.J.K.K.J.B.6 o . o o . .                       X A DXLXLXLXLXPXLXDXA X       . . . . . .   .   B cXJXGXGXGXJXJXJXJXJXJXJXJXJXJXJXJXJXJXJXJXJXJXGXGXGXGXGXGXGXDXDXGXGXGXJXGXJXJXGXJXJXDXnXbXhXhXrXrXhXxXbXbXDXAXGXGXGXGXGXJXGXJXJXJXGXGXGXJXFXDXbXxXrXhXhX%X7X#X+X*.%.%.$.$.$.$.$.$.$.$.$.$.$.$.$.$.$.$.$.$.$.$.$.$.$.$.$.$.$.$.$.$.$.$.$.$.$.$.$.$.$.$.$.$.$.$.$.$.$.$.$.$.$.+.+.O.O.#.%.T I L H P P K J J J H H H H H H H J J H H H H H H H H K K U R !.!.!.E.E.E.E.E.E.E.R.R.R.R.R.R.R.R.R.R.R.R.R.R.R.R.R.R.R.R.R.R.R.R.R.R.R.R.R.E.R.E.E.R.E.E.E.E.E.E.E.E.E.E.W.W.W.W.W.W.W.W.W.W.W.W.W.W.W.W.W.W.W.W.).).).).).).).).].].].].].].].].].].].].].].].",
"1X1X1X1X1X1X1X1X1X1X1X1X1X1X1X<X<X4X=.[ ) ' ) ` ` ` ` ` ` ` ` ` ` ` ` ` ` ` ` ` ` ` ` ` ` ` ` ` ` ` ` ` ` ` ` ` ` ` ` ` ` ` ` ` ` ` ` ` ` ` ` ` ` ` ` ` ` ` ` ` ` ] W q 8 u w p w g 3.n.b.m.M.r.r.z.z.b.z.z.z.z.c.c.c.c.c.c.c.c.b.m.b.3.g 4 g 1.t.a.m.m.m.m.c.r.r.r.r.y.y.c.m.b.t.4.i i 4.t.b.m.c.c.c.c.y.y.y.y.r.y.c.r.h.i.i.u.'.tXjXrXhXhXhXcXnXAXJXGXGXJXJXGXJXJXJXJXJXJXJXJXGXGXGXGXGXGXGXGXGXGXGXGXGXGXGXGXJXJXJXJXJXJXJXJXGXGXGXGXGXGXGXGXGXGXJXGXGXGXGXGXIXLXLXLXLXLXLXPXLXLXLXLXLXLXLXLXLXLXLXLXLXLXLXLXLXLXLXLXLXLXLXLXLXLXLXLXLXLXLXLXLXLXLXKXlXJ.B.B.J.J.J.J.K.K.K.K.K.K.J.K.K.K.K.J.M $ o o o X X   X X .       .         A DXPXLXLXLXPXLXcXB         . . .         X   S bXGXGXJXGXJXJXJXJXJXJXJXJXJXJXJXJXJXJXJXJXJXJXGXGXGXGXGXGXGXCXCXAXGXGXJXGXJXJXJXJXJXSXCXnXcXxXhXhXxXbXnXCXAXGXGXGXGXGXGXJXGXJXJXJXGXGXGXGXFXUXcXrXrXhXhX7X8X+X=.*.%.%.$.$.$.$.$.$.$.$.$.$.$.$.$.$.$.$.$.$.$.$.$.$.$.$.$.$.$.$.$.$.$.$.$.$.$.$.$.$.$.$.$.$.$.$.$.$.$.$.$.$.$.+.+.O.$.%.%.T I I H P P P J J J H H H H H H H J H H H H H J H H H K K U R !.!.!.R.E.E.E.E.E.E.R.R.R.R.R.R.R.R.R.R.R.R.R.R.R.R.R.R.R.R.R.R.R.R.R.R.R.R.E.R.E.R.E.E.E.E.E.E.Q.Q.E.E.E.E.W.W.W.W.W.W.W.W.W.W.W.W.W.W.W.W.W.W.W.W.).).).).).).).).].].].].].].].].].].].].].].].",
"1X1X1X1X1X1X1X1X<X<X<X<X<X<X<X<X4X4X-.' ' ) _ ` ` ` ` ` ` ` ` ` ` ` ` ` ` ` ` ` ` ` ` ` ` ` ` ` ` ` ` ` ` ` ` ` ` ` ` ` ` ` ` ` ` ` ` ` ` ` ` ` ` ` ` ` ` ` ` ` ` ] W q 9 u r p e g t.m.b.m.M.r.r.z.z.z.z.z.z.z.c.c.c.c.c.c.c.c.b.b.a.2.g i g 2.s.n.m.m.m.m.c.c.r.r.y.y.y.c.m.b.3.4.i i 1.t.b.c.c.c.c.c.y.y.y.y.r.r.c.y.h.i.g c S.yXvXtXrXhXhXzXmXCXJXJXSXGXIXGXGXGXGXGXGXGXGXGXGXGXGXGXGXGXGXGXGXGXGXGXGXGXGXGXJXJXJXJXJXJXJXJXGXGXGXGXGXGXGXGXDXHXGXJXGXGXJXPXIXJXPXPXPXPXPXLXLXLXLXLXLXLXLXLXLXLXLXLXLXLXLXLXLXLXLXLXLXLXLXLXLXLXLXLXLXLXLXLXLXLXPXPXZXuXB.B.J.J.K.K.K.K.K.K.K.K.K.K.K.K.K.K.M $ . o . . .               X X       A DXPXLXLXIXLXPX{.= . X X .     . . X X X   . S nXGXJXJXAXJXJXJXJXJXJXJXJXJXJXJXJXJXJXJXJXJXJXGXGXGXGXGXGXSXNXnXDXGXGXJXJXPXJXJXJXJXGXDXCXbXbXbXcXbXnXCXDXGXJXJXGXGXGXGXJXJXJXGXGXGXGXGXSXSXnXxXrXrXhXzX7X#X+X*.%.#.$.$.O.$.$.$.$.$.$.$.$.$.$.$.$.$.$.$.$.$.$.$.$.$.$.$.$.$.$.$.$.$.$.$.$.$.$.$.$.$.$.$.$.$.$.$.$.$.$.$.$.$.+.+.O.$.%.%.Q I I H P J J J J J H H H H H H H H H H H J J H H H H K K P R !.!.R.E.E.E.E.E.E.E.E.R.R.R.R.R.R.R.R.R.R.R.R.R.R.R.R.R.R.R.R.R.R.R.R.R.R.R.E.E.E.E.E.E.E.E.E.W.W.W.E.W.W.W.W.W.W.W.W.W.W.W.W.W.W.W.).).W.W.W.W.).).).).).).).).).).].].].].].].].].].].].].].].].",
"1X1X1X1X1X1X1X1X<X<X<X<X<X<X<X<X4X>X-.' ' ) ' ` ` ` ` ` ` ` ` ` ` ` ` ` ` ` ` ` ` ` ` ` ` ` ` ` ` ` ` ` ` ` ` ` ` ` ` ` ` ` ` ` ` ` ` ` ` ` ` ` ` ` ` ` ` ` ` ` ] ] W m 9 u r p e g t.m.b.m.m.r.r.z.z.z.z.z.z.c.c.c.c.c.c.c.c.c.b.b.t.2.4 3 <.2.s.n.M.m.m.m.m.c.r.r.y.y.y.m.b.b.3.4.i g 4.s.b.c.c.c.c.c.y.y.y.y.r.r.y.y.t.1.4 5 k.[.vXtXrXhXhXhXhXnXAXJXSXSXJXFXGXGXGXGXGXGXGXGXGXGXGXGXGXGXGXGXJXJXJXJXJXJXJXJXJXJXJXJXJXJXJXJXGXGXGXGXGXGXGXGXPXGXHXGXJXGXDXnX{.P.P.XXSXLXLXLXLXLXLXLXLXLXLXLXLXLXLXLXLXLXLXLXLXLXLXLXLXLXLXLXLXLXLXLXLXLXLXLXPXLXPXPXKXkXJ.J.K.K.K.K.K.K.K.K.K.K.K.K.K.K.K.K.B.6 o o o . . X                     X S nXLXLXPXLXLXSXA O X X   .     . X .     O = Y.CXJXGXGXAXJXJXJXJXJXJXJXJXJXJXJXJXJXJXJXJXJXJXGXGXGXGXGXGXAXnXnXDXGXGXJXJXJXJXGXJXJXJXGXAXCXCXNXNXCXDXAXGXGXGXGXGXGXGXGXGXJXJXGXGXGXGXGXSXCXbXzXrXjXzX7X7X#X$X*.%.$.$.$.O.$.$.$.$.$.$.$.$.$.$.$.$.$.$.$.$.$.$.$.$.$.$.$.$.$.$.$.$.$.$.$.$.$.$.$.$.$.$.$.$.$.$.$.$.$.$.$.$.$.+.+.O.$.%.%.T I I H P J J J J J H H H H H H H H H H H H J H H H H K K K R !.!.R.E.E.E.E.E.E.E.E.R.R.R.R.R.R.R.R.R.R.R.R.R.R.R.R.R.R.R.R.R.R.R.R.R.R.R.E.E.E.E.E.E.E.E.Q.W.W.W.W.W.W.W.W.W.W.W.W.W.W.W.W.W.W.W.).).W.W.W.W.W.).).).).).).).).).].].].].].].).].].].].].].].].",
"1X1X1X1X1X1X1X1X<X<X<X<X<X<X<X<X4X;.[ / ) ) ` ` ` ` ` ` ` ` ` ` ` ` ` ` ` ` ` ` ` ` ` ` ` ` ` ` ` ` ` ` ` ` ` ` ` ` ` ` ` ` ` ` ` ` ` ` ` ` ` ` ` ` ` ` ` ` ` ` ] ] W m 9 u r p e g t.m.m.m.M.r.r.r.z.z.z.z.c.c.c.c.c.c.c.c.c.c.b.b.t.1.3 3 <.3.s.b.m.m.m.m.v.c.r.y.r.y.y.m.b.b.2.<.i g 2.t.b.r.c.c.c.c.y.y.y.y.r.z.z.r.i.g 4 5 C `.tXjXjXjXhX%X%XmXCXAXSXSXSXSXGXGXGXGXGXGXGXGXGXGXGXGXGXGXGXGXJXJXJXJXJXJXJXJXJXJXJXJXJXJXJXJXGXGXGXGXGXGXGXGXSXHXGXGXUXXXP.S * O X B {.GXLXLXLXLXLXLXLXLXLXLXLXLXLXLXLXLXLXLXLXLXLXLXLXLXLXLXLXLXLXLXLXLXLXLXLXLXLXPXKXZXuXJ.K.K.K.K.K.K.K.K.K.K.K.K.K.K.K.K.J.1 o o o .                       X   B oXPXLXPXLXPXOXB X       .           O = S P.hXAXJXAXJXGXJXJXJXJXJXJXJXJXJXJXJXJXJXJXJXJXJXJXGXGXGXGXGXGXAXnXbXCXSXGXJXJXJXGXGXGXJXJXJXJXJXGXAXAXGXGXJXGXGXGXGXGXGXGXGXGXJXJXGXGXGXGXGXAXnXcXrXrXrXrX7X@X+X=.*.#.$.$.O.$.O.+.+.+.O.O.O.O.O.O.O.O.+.+.+.+.$.$.$.$.$.$.$.$.$.$.$.$.$.$.$.$.$.$.$.$.$.$.$.$.$.$.$.$.$.$.$.$.#.$.+.O.$.%.%.Q I I P P J J J J J H H H H J J H H H H H H H H H K K K K K R !.!.R.E.E.E.E.E.E.E.E.R.R.R.R.R.R.R.R.R.R.R.R.R.R.R.R.R.R.R.R.R.R.R.R.R.R.R.E.E.E.E.E.E.E.E.Q.W.W.W.W.W.W.W.W.W.W.W.W.W.W.W.W.W.W.W.W.).W.W.W.W.W.).).).).).).).W.W.].].].].).).).).].].].].].].].",
"1X1X1X1X1X1X1X1X<X<X<X<X<X<X<X<X4X;.[ ' ) ) ` ` ` ` ` ` ` ` ` ` ` ` ` ` ` ` ` ` ` ` ` ` ` ` ` ` ` ` ` ` ` ` ` ` ` ` ` ` ` ` ` ` ` ` ` ` ` ` ` ` ` ` ` ` ` ` ` ` ] E U q 9 u r p e g t.n.b.m.M.r.r.r.r.z.z.z.c.c.c.c.c.c.c.c.c.c.b.b.t.4.3 3 <.3.a.b.m.m.m.m.v.c.r.y.r.y.y.m.b.b.2.<.i g 2.t.b.r.c.c.c.c.y.y.y.y.z.r.r.r.1.4 4 5 5 l.yXkXjXhXhX%X%XzXnXDXJXJXSXSXGXGXGXGXGXGXGXGXGXGXGXGXGXGXGXGXJXJXJXJXJXJXJXJXJXJXJXJXJXJXJXJXGXGXGXGXGXGXGXGXGXDXbXOXA B O .   X   X B {.SXLXLXLXLXLXLXLXLXLXLXLXLXLXLXLXLXLXLXLXLXLXLXLXLXLXLXLXLXLXLXLXLXLXLXLXLXPXPXKXkXJ.K.K.K.K.K.K.K.K.K.K.K.K.K.K.K.K.J.M $ $ o o .                     X   X P.SXLXPXAXcXA - .       X . . . . O S Q.bXCXAXGXGXAXKXJXJXJXJXJXJXJXJXJXJXJXJXJXJXJXJXJXJXJXGXGXGXGXGXGXAXbXbXCXSXGXJXJXJXGXGXGXJXJXJXJXPXJXGXGXGXGXGXAXSXSXGXGXGXGXGXSXJXJXGXGXGXGXGXAXmXhX.XrXrXXX@X#X+X*.%.$.$.O.O.O.$.+.+.+.O.O.O.O.O.O.O.+.+.+.+.+.$.$.$.$.$.$.$.$.$.$.$.$.$.$.$.$.$.$.$.$.$.$.$.$.$.$.$.$.$.$.$.$.$.$.+.$.$.%.%.Q I I L J J J J J J H H H H J H H H H H H H H H H H K K K V R { !.R.E.E.E.E.E.E.E.E.R.R.R.R.R.R.R.R.R.R.R.R.R.R.R.R.R.R.R.R.R.R.R.R.R.R.R.E.E.E.E.E.E.E.E.W.W.W.W.W.W.W.W.W.W.W.W.W.W.W.W.W.W.W.W.W.W.W.W.W.W.W.W.).).).).).).W.W.).).].].].).).).].].].].].].].",
"1X1X1X1X1X1X1X1X<X<X<X<X<X<X<X<X5X>.[ ' ` ' ` ` ` ` ` ` ` ` ` ` ` ` ` ` ` ` ` ` ` ` ` ` ` ` ` ` ` ` ` ` ` ` ` ` ` ` ` ` ` ` ` ` ` ` ` ` ` ` ` ` ` ` ` ` ` ` ` ` ] ] K > 9 u r i e g s.M.a.m.M.r.r.r.r.c.c.c.c.c.z.z.z.z.z.c.c.c.m.a.2.g 3 g 1.t.a.a.m.m.m.c.c.y.c.c.z.r.r.r.b.b.1.g i g 3.a.a.y.y.y.y.y.y.c.y.c.y.a.b.t.1.4 3 5 5 i.`.tXxXrXzX%X%X%XcXNXGXJXJXJXGXGXGXGXGXGXGXGXGXGXGXGXGXGXGXGXJXJXJXJXJXJXJXJXJXAXAXJXGXGXJXGXSXGXJXJXGXGXSXSXNX{.A * O . . X .       O S rXPXPXPXLXLXLXLXLXLXLXLXLXLXLXLXLXLXLXLXLXLXLXLXLXLXLXLXLXLXLXLXLXLXLXLXLXLXPXPXVXuXK.K.K.K.K.K.K.K.K.K.K.K.K.K.K.K.K.J.M $ $ o               . X X   X     B Q.XX{.A B - O O X     X .   O B R.xXAXJXJXJXJXJXJXJXJXJXJXJXJXJXJXJXJXJXJXJXJXJXJXJXJXJXJXJXJXJXJXJXJXDXbXcXnXDXJXJXGXGXGXGXGXGXGXGXGXGXGXGXGXGXGXGXGXGXGXGXGXGXGXGXGXGXJXHXAXJXJXCXcXhXhXhXrXhXzX#X+X*.*.%.$.$.O.O.O.$.$.$.$.$.$.$.$.$.$.$.$.$.$.$.$.$.$.$.$.$.$.$.$.$.$.$.$.$.$.$.$.$.$.$.$.$.$.$.$.$.$.$.$.$.$.$.$.$.+.O.+.$.$.%.%.T F H P J J J J J J J J J J J J J J J J J J J J H K K K K U { !.!.E.E.E.E.E.R.R.E.E.R.R.R.R.R.R.R.R.R.R.R.R.R.R.R.R.R.R.E.E.E.E.R.R.R.E.E.E.E.E.E.Q.Q.W.W.W.W.W.W.W.W.W.W.W.).W.W.W.W.W.W.W.W.W.W.W.W.W.W.W.W.W.W.W.W.W.W.W.W.W.W.W.).).).W.W.W.W.).W.W.W.W.W.",
"1X1X1X1X1X1X1X1X<X<X<X<X<X<X<X3X5X=.[ ' ` ' ` ` ` ` ` ` ` ` ` ` ` ` ` ` ` ` ` ` ` ` ` ` ` ` ` ` ` ` ` ` ` ` ` ` ` ` ` ` ` ` ` ` ` ` ` ` ` ` ` ` ` ` ` ` ` ` ` ` ] ] K > 9 u r p e g s.M.a.m.M.r.r.r.r.c.c.c.c.c.z.z.z.z.z.c.c.c.b.r.2.g 3 g 1.t.a.a.m.m.m.c.c.y.c.c.z.r.r.r.a.n.1.g i g 3.r.a.y.y.y.y.y.y.y.y.y.y.a.a.t.1.4 3 5 4 i.S.yXtXrXrX%X%X7XcXnXAXJXJXJXGXGXGXGXGXGXGXGXGXGXGXGXGXGXGXGXJXJXJXJXJXJXJXJXGXGXJXGXGXGXGXGXJXGXDXDXGXLXnX{.A 1 O   . X . . . X - B A _.bXJXPXPXLXLXLXLXLXLXLXLXLXLXLXLXLXLXLXLXLXLXLXLXLXLXLXLXLXLXLXLXLXLXLXLXLXLXPXLXHXkXK.K.K.K.K.K.K.K.K.K.K.K.K.K.K.K.K.J.q.6 o o X               . X   X     O * 1 = O X X - O X       - B P.hXDXSXGXJXJXJXJXJXJXJXJXJXJXJXJXJXJXJXJXJXJXJXJXJXJXJXJXJXJXJXJXJXJXJXJXAXbXxXbXCXGXJXGXGXGXGXGXGXGXGXGXGXGXGXGXGXGXGXGXGXGXGXGXGXGXGXGXGXGXAXHXHXDXnXcXjXjXjXhXhX7X#X$X*.%.%.$.$.O.O.O.$.$.$.$.$.$.$.$.$.$.$.$.$.$.$.$.$.$.$.$.$.$.$.$.$.$.$.$.$.$.$.$.$.$.$.$.$.$.$.$.$.$.$.$.$.$.$.$.$.+.O.+.$.$.%.%.T F H J J J J K J J J J J J J J J J J J J J J J H K H K K U { !.!.E.E.E.E.R.R.E.E.E.R.R.R.R.R.R.R.R.R.R.R.R.R.R.R.R.R.E.E.E.E.E.R.R.E.E.E.E.E.E.W.Q.Q.W.W.W.W.W.W.W.W.W.W.W.).).W.W.W.W.W.W.W.W.W.W.W.W.W.W.W.W.W.W.W.W.W.W.W.W.W.W.).).W.W.W.W.).).W.W.W.W.W.",
"1X1X1X1X1X1X1X1X<X<X<X<X<X<X<X3X4X=.' ) ' _ ` ` ` ` ` ` ` ` ` ` ` ` ` ` ` ` ` ` ` ` ` ` ` ` ` ` ` ` ` ` ` ` ` ` ` ` ` ` ` ` ` ` ` ` ` ` ` ` ` ` ` ` ` ` ` ` ` ` ` ] K > 8 u r p e g t.h.a.m.M.r.r.r.r.c.c.c.c.c.z.r.r.r.r.c.y.y.b.t.2.g 3 g 2.t.a.a.m.m.m.c.c.y.c.r.r.z.z.b.a.s.1.g i g 3.r.a.y.y.y.y.y.c.c.c.c.m.a.r.t.<.4 3 4 1.i.l.`.yXrXrXzXXX7XzXbXUXGXPXGXGXGXGXGXGXGXGXGXGXGXGXGXGXGXGXGXJXJXJXJXJXJXJXJXPXPXJXGXGXJXJXJXPXSXDXJXJXxXA * X .         X O B S Q.hXnXDXSXGXJXPXLXLXLXLXLXLXLXLXLXLXLXLXLXLXLXLXLXLXLXLXLXLXLXLXLXLXLXLXLXLXLXLXLXLXLXLXPXVXuXK.K.K.K.K.K.K.K.K.K.K.K.K.K.K.K.K.J.6 $ $ $ .               .           X         O O O   X - 1 l.rXDXJXJXGXJXJXJXJXJXJXJXJXJXJXJXJXJXJXJXJXJXJXJXJXJXJXJXJXJXJXJXJXJXJXJXJXJXGXnXxXcXnXAXJXJXGXGXGXGXGXGXGXGXGXGXGXGXGXGXGXGXGXGXGXGXGXGXGXGXGXAXAXJXAXnXcXxXhXhXhXhXzX7X+X=.*.%.%.$.$.O.$.+.$.$.$.$.$.$.$.$.$.$.$.$.$.$.$.$.$.$.$.$.$.$.$.$.$.$.$.$.$.$.$.$.$.$.$.$.$.$.$.$.$.$.$.$.$.$.$.$.$.+.+.+.$.$.%.%.T I H J J J J K J J J J J J J J J J J J J J J J H H H K K U { !.Q.E.E.E.E.R.R.E.E.E.R.R.R.R.R.R.R.R.R.R.R.R.R.R.R.R.E.E.E.E.E.E.R.E.E.E.E.E.E.E.W.W.W.W.W.W.W.W.W.W.W.W.W.W.).).W.W.W.W.W.W.W.W.W.W.W.W.W.W.).).W.W.W.W.).).W.W.W.W.W.W.W.W.W.W.).W.W.W.).).).",
"1X1X1X1X1X1X1X1X<X<X<X<X<X<X<X3X4X=.' ) ' ' ` ` ` ` ` ` ` ` ` ` ` ` ` ` ` ` ` ` ` ` ` ` ` ` ` ` ` ` ` ` ` ` ` ` ` ` ` ` ` ` ` ` ` ` ` ` ` ` ` ` ` ` ` ` ` ` ` ` ` ] J > 9 u r p e d 2.s.a.M.M.r.r.r.r.c.c.c.c.c.z.r.a.a.r.r.y.z.b.t.2.g 3 g 2.t.a.a.m.m.m.c.c.y.r.r.r.z.c.b.a.a.1.g i g 3.r.r.y.y.y.y.y.c.c.c.c.m.a.r.3.g 3 4 4 i.i.u.l.yXtXrXzXXXzXzXcXnXSXJXGXGXGXGXGXGXGXGXGXGXGXGXGXGXGXGXGXJXJXJXJXJXJXJXJXGXJXGXAXJXPXPXPXGXGXJXDX{.B O . o X X . X = B l.oXbXSXJXJXSXGXPXIXJXPXLXLXLXLXLXLXLXLXLXLXLXLXLXLXLXLXLXLXLXLXLXLXLXLXLXLXLXLXLXLXLXLXLXLXLXPXKXlXK.K.K.J.K.K.K.K.K.K.K.K.K.K.uXK.uXK.w.6 $ $ o . . . . .   .                     X X     X * S OXnXJXPXJXAXAXJXJXJXJXJXJXJXJXJXJXJXJXJXJXJXJXJXJXJXJXJXJXJXJXJXJXJXJXJXJXJXJXJXJXnXxXxXbXCXGXJXGXGXGXGXGXGXGXGXGXGXGXGXGXGXGXGXGXGXGXGXGXGXGXGXGXAXAXGXCXbXhXhXrXrXhX%X7X#X$X*.*.%.$.$.$.$.+.+.$.$.$.$.$.$.$.$.$.$.$.$.$.$.$.$.$.$.$.$.$.$.$.$.$.$.$.$.$.$.$.$.$.$.$.$.$.$.$.$.$.$.$.$.$.$.$.$.$.+.+.+.$.$.%.%.T I H J J J J K J J J J J J J J J J J J J J J J H H H K K U { !.Q.E.E.E.E.R.R.E.E.E.R.R.R.R.R.R.R.R.R.R.R.R.R.R.R.E.E.E.E.E.E.E.E.E.E.E.E.E.E.E.W.W.W.W.W.W.W.W.W.W.W.W.W.W.W.).W.W.W.W.W.W.W.W.W.W.W.W.W.W.W.).W.W.W.W.).).).).W.W.W.W.W.W.W.W.).W.W.W.W.).).",
"1X1X1X1X1X1X1X1X<X<X<X<X<X<X<X3X>X-.) ) ' ' ` ` ` ` ` ` ` ` ` ` ` ` ` ` ` ` ` ` ` ` ` ` ` ` ` ` ` ` ` ` ` ` ` ` ` ` ` ` ` ` ` ` ` ` ` ` ` ` ` ` ` ` ` ` ` ` ` ` ` ] P m 8 t r p e d z 3.s.M.m.r.r.r.r.c.c.c.c.c.z.z.a.a.r.z.c.z.b.s.2.g 3 g 2.t.a.a.m.m.m.m.c.y.r.r.r.z.m.m.a.s.1.g i <.3.a.r.y.c.c.y.y.c.c.c.c.m.r.t.1.4 3 4 g u.i.i.l.`.yXxXxXsXzXrXzXbXDXGXGXGXGXGXGXGXGXGXGXJXJXJXJXGXGXGXGXJXJXJXJXJXJXJXJXGXJXJXJXJXJXGXJXGXNXoXA * O X X X   . - S W.xXnXSXJXSXSXJXDXDXPXGXJXPXPXLXLXLXLXLXLXLXLXLXLXLXLXLXLXLXLXLXLXLXLXLXLXLXLXLXLXLXLXLXLXLXLXLXLXLXKXZXuXK.K.K.K.K.K.K.K.K.K.K.K.uXuXK.K.uXJ.M $ $ o o o X .                     . X       O * S W.rXDXJXJXGXJXPXJXJXJXJXJXJXJXJXJXJXJXJXJXJXJXJXJXJXJXJXJXJXJXJXJXJXJXJXJXJXJXJXJXJXJXnXxXhXcXnXAXJXGXGXGXGXGXGXGXGXGXGXGXGXGXGXGXGXGXGXGXGXGXGXGXGXGXGXSXDXnXcXhXhXrXrX%X7X@X+X*.*.%.%.$.$.$.$.$.$.$.$.$.$.$.$.$.$.$.$.$.$.$.$.$.$.$.$.$.$.$.$.$.$.$.$.$.$.$.$.$.$.$.$.$.$.$.$.$.$.$.$.$.$.$.$.$.$.$.+.+.+.$.#.%.%.T I L J J J J K J J J J J J J J J J J J J J J J K K H P K U R !.!.E.E.E.E.R.E.E.E.E.R.R.R.R.R.R.R.R.R.R.R.R.R.R.E.E.E.E.E.E.E.E.E.E.E.E.E.E.E.E.W.W.Q.W.W.W.W.W.W.W.W.W.W.W.W.W.W.W.W.W.W.W.W.W.W.W.W.W.W.W.).).W.W.W.W.).W.W.W.).).W.W.W.W.).).W.W.).).W.W.W.",
"1X1X1X1X1X1X1X1X<X<X<X<X<X<X<X2X;.&.) ) _ ` ` ` ` ` ` ` ` ` ` ` ` ` ` ` ` ` ` ` ` ` ` ` ` ` ` ` ` ` ` ` ` ` ` ` ` ` ` ` ` ` ` ` ` ` ` ` ` ` ` ` ` ` ` ` ` ` ` ` ] ] U m 8 t r d r r g 2.s.M.m.r.r.r.r.c.c.c.c.c.z.z.b.b.z.z.c.z.m.t.2.g 3 g 2.t.a.a.m.m.m.m.c.y.r.r.r.c.m.m.a.s.4.g i 4.3.a.r.r.y.y.y.y.c.c.c.c.m.a.t.1.4 4 4 1.y.u.i.u.S.yXtXsXsXsXrXzXcXnXDXGXGXGXGXGXGXGXGXGXJXJXJXJXGXGXGXGXJXJXJXJXJXJXJXJXJXJXPXJXSXJXPXGXbXY.1 O X       . - S Q.xXDXGXDXJXJXSXJXPXJXDXSXGXJXJXPXPXPXPXPXLXLXLXLXLXLXLXLXLXLXLXLXLXLXLXLXLXLXLXLXLXLXLXLXLXLXLXLXLXLXPXPXKXBXuXuXK.K.K.K.K.K.K.K.K.K.uXK.K.K.K.J.w.6 $ $ o o . .                         . O * A OXnXSXPXGXPXJXSXGXJXJXJXJXJXJXJXJXJXJXJXJXJXJXJXJXJXJXJXJXJXJXJXJXJXJXJXJXJXJXJXJXJXJXJXGXCXcXhXxXbXCXGXGXGXGXGXGXGXGXGXGXGXGXGXGXGXGXGXGXGXGXGXGXGXGXGXGXGXDXnXcXxXjXjXrXXXXX@X#X$X*.@.%.%.$.$.$.$.$.$.$.$.$.$.$.$.$.$.$.$.$.$.$.$.$.$.$.$.$.$.$.$.$.$.$.$.$.$.$.$.$.$.$.$.$.$.$.$.$.$.$.$.$.$.$.$.$.$.$.+.+.+.$.#.%.%.Q I L H J J J K J J J J J J J J J J J J P P J J K H K P V V R !.!.E.E.E.E.R.R.R.E.E.R.R.R.R.R.R.R.R.R.R.R.R.R.R.E.E.E.E.E.E.E.E.E.E.E.E.E.E.E.W.W.W.W.W.W.W.W.W.W.W.W.W.W.W.W.W.W.W.).).W.W.W.W.W.W.).W.W.W.W.W.W.W.W.W.W.W.W.W.).).W.W.W.W.W.).W.W.).).W.W.W.",
"1X1X1X1X1X1X<X<X<X<X<X<X<X<X<X4X=.[ ) ' _ ` ` ` ` ` ` ` ` ` ` ` ` ` ` ` ` ` ` ` ` ` ` ` ` ` ` ` ` ` ` ` ` ` ` ` ` ` ` ` ` ` ` ` ` ` ` ` ` ` ` ` ` ` ` ` ` ` ` ` ) ] U m 8 7 r f r r e g s.M.b.r.r.r.r.c.c.c.c.c.z.b.b.b.z.z.c.z.b.t.2.g 3 g 2.r.r.a.m.m.m.m.c.r.y.r.r.c.m.m.a.s.4.g i 4.t.a.r.r.c.y.y.y.c.c.c.c.m.a.t.<.4 4 <.t.y.u.i.u.l.`.yXdXsXrXrXzXxXbXNXHXGXGXGXGXGXGXGXGXJXJXJXJXGXGXGXGXJXJXJXJXJXJXJXJXSXAXGXGXGXPXDXrXA = . X X   O = S Q.bXSXSXSXSXSXSXPXJXAXDXSXJXSXJXJXJXJXJXPXPXPXLXLXLXLXLXLXLXLXLXLXLXLXLXLXLXLXLXLXLXLXLXLXLXLXLXLXLXLXLXLXLXPXPXKXBXkXuXK.K.K.K.K.K.K.K.K.K.K.uXK.K.J.e.M 6 $ $ o o . .                   X O B A {.nXSXSXSXSXGXJXSXDXSXGXGXJXJXJXJXJXJXJXJXJXJXJXJXJXJXJXJXJXJXJXJXJXJXJXJXJXJXJXJXJXJXJXJXJXJXDXbXhXhXcXnXDXGXGXGXGXGXGXGXGXGXGXGXGXGXGXGXGXGXGXGXGXGXGXGXGXGXDXnXcXzXxXjXhXhX%X7X#X+X*.*.%.%.$.#.#.#.$.$.$.$.$.$.$.$.$.$.$.$.$.$.$.$.$.$.$.$.$.$.$.$.$.$.$.$.$.$.$.$.$.$.$.$.$.$.$.$.$.$.$.$.$.$.$.$.$.$.$.$.+.O.$.$.#.%.%.Q I L H J J P K J J J J J J J J J J J J J P J J H H K P V V R !.!.E.E.E.E.R.R.R.E.E.R.R.R.R.R.R.R.R.R.R.R.R.R.R.E.E.E.E.E.E.E.E.E.E.E.E.E.E.W.W.W.W.W.W.W.W.W.W.W.W.W.W.).).W.W.W.W.W.W.W.W.).).).).W.W.W.W.W.).W.W.).).W.W.W.W.W.).W.W.W.W.).).W.W.W.).W.W.W.",
"1X1X1X1X1X1X<X<X<X<X<X<X<X<X<X4X=.' ) ' _ ` ` ` ` ` ` ` ` ` ` ` ` ` ` ` ` ` ` ` ` ` ` ` ` ` ` ` ` ` ` ` ` ` ` ` ` ` ` ` ` ` ` ` ` ` ` ` ` ` ` ` ` ` ` ` ` ` ` ` ) ] U m 8 7 r f e e e g 7.s.s.a.r.r.r.c.c.c.c.c.b.b.b.b.z.z.c.z.b.t.1.g 3 g 2.a.r.a.m.m.m.m.c.r.r.r.r.c.m.m.a.s.4.g i 4.t.r.r.r.c.y.y.y.c.c.c.m.m.a.t.<.4 4 1.t.u.i.u.u.j.S.yXdXdXsXsXxXxXvXNXHXGXGXGXGXGXGXGXGXJXJXJXJXGXGXGXGXJXJXJXJXJXJXJXJXJXGXJXJXJXAXOXB O o . . X - S Q.cXNXGXGXGXJXJXGXKXSXAXSXSXSXJXJXJXJXSXSXSXJXJXPXLXLXLXLXLXLXLXLXLXLXLXLXLXLXLXLXLXLXLXLXLXLXLXLXLXLXLXLXLXLXLXPXPXPXKXlXuXuXK.K.K.K.K.K.K.K.K.K.uXuXK.B.e.w.6 $ $ $ o o X .         . X O = B A oXbXSXIXSXDXSXSXGXJXGXGXJXGXSXJXJXJXJXJXJXJXJXJXJXJXJXJXJXJXJXJXJXJXJXJXJXJXJXJXJXJXJXJXJXJXJXJXJXGXnXxXhXxXbXNXGXGXGXGXGXGXGXGXGXGXGXGXGXGXGXGXGXGXGXGXGXGXGXGXJXCXbXzXrXhXjXjX%X7X7X+X=.*.@.%.#.#.#.#.#.$.$.$.$.$.$.$.$.$.$.$.$.$.$.$.$.$.$.$.$.$.$.$.$.$.$.$.$.$.$.$.$.$.$.$.$.$.$.$.$.$.$.$.$.$.$.$.$.$.$.$.$.#.O.$.$.#.%.%.Q T L H J J P K J J J J J J J J J J J J J J J J H H H K K V R !.!.E.E.E.E.R.R.R.E.E.R.R.R.R.R.R.R.R.R.R.R.R.R.R.E.E.E.E.E.E.E.E.E.E.E.E.E.W.W.W.W.W.W.W.W.W.W.).).W.W.W.W.).).W.W.W.W.W.W.W.).).W.W.W.).W.W.W.W.W.W.).W.W.W.W.W.W.W.W.W.W.W.W.W.W.W.W.W.W.W.W.",
"1X1X1X1X<X<X<X<X3X2X2X2X<X<X5X>X-.' ) ' _ _ ` ) ` ` ` ` ` ` ` ` ` ` ` ` ` ` ` ` ` ` ` ` ` ` ` ` ` ` ` ` ` ` ` ` ` ` ` ` ` ` ` ` ` ` ` ` ` ` ` ` ` ` ` ` ` ` ` ` ) ] U > 8 8 w y r e t g 3.s.n.t.r.b.m.c.r.r.c.c.b.b.b.b.z.z.c.z.b.3.g 3 4 <.3.r.r.r.c.m.m.m.y.r.r.r.r.c.m.m.r.3.<.g g 1.t.a.r.y.r.r.m.m.y.y.m.m.m.a.3.g 3 g 2.t.h.u.u.u.i.l.`.tXtXdXsXxXxXxXbXDXSXAXAXGXJXGXSXGXGXGXGXGXGXGXGXGXJXGXPXJXAXGXGXJXAXJXGXJXDX].B O .     O B Y.cXJXSXSXGXGXGXJXJXJXJXJXJXJXJXJXJXJXJXJXJXJXJXJXJXJXPXPXPXPXLXLXLXLXLXLXLXLXLXLXLXLXLXLXLXLXLXLXLXLXLXLXLXLXLXLXLXLXLXLXPXZXlXuXK.K.uXuXK.K.K.K.K.K.K.K.K.J.e.w.q.6 6 $ $ o o o X     X O B A _.zXnXGXSXGXGXGXGXGXGXGXGXGXGXJXJXJXJXJXJXJXJXJXJXJXJXJXJXJXJXJXJXJXJXJXJXJXJXJXJXJXJXJXJXJXJXJXJXJXJXGXGXCXbXxXxXxXcXCXDXGXJXGXGXGXJXGXGXGXGXGXGXJXJXGXJXKXJXJXGXSXDXDXbXxXxXxXXX.XhX7X7X+X*.*.%.%.$.#.#.%.%.#.$.$.$.$.$.$.$.$.$.$.$.$.$.$.$.$.$.$.$.$.$.$.$.$.$.$.$.$.$.$.$.$.$.$.$.$.$.$.$.$.$.$.$.$.$.$.$.$.$.$.$.$.$.$.$.$.$.#.%.@.T L J J J J J J J J J J J J J J J J J I I J J I H K P K V R !.!.E.E.E.E.E.E.R.R.R.R.R.R.R.R.R.R.R.R.R.E.E.E.E.E.E.E.E.E.E.E.E.E.E.E.E.W.W.W.W.W.W.W.W.W.W.).).).).W.W.W.W.).).).).).W.W.W.W.).W.W.W.W.).).).W.W.W.).).W.W.W.W.W.).).).W.W.W.W.W.W.W.W.).).).",
"1X1X1X1X<X<X<X<X2X<X2X2X<X2X5X>X-.' ) ` _ _ ` ) ` ` ` ` ` ` ` ` ` ` ` ` ` ` ` ` ` ` ` ` ` ` ` ` ` ` ` ` ` ` ` ` ` ` ` ` ` ` ` ` ` ` ` ` ` ` ` ` ` ` ` ` ` ` ` ` ) ] U > 8 8 w y r e e g 2.s.s.s.a.b.m.c.r.r.c.c.z.b.b.b.a.z.c.b.a.3.g 3 4 <.t.r.r.r.c.m.m.m.c.y.r.r.r.c.m.m.r.3.<.g g 1.t.a.r.r.r.r.m.m.y.y.m.m.m.a.2.g 3 g 2.r.y.u.u.u.u.j.`.yXdXtXtXsXxXxXcXNXAXAXSXJXJXGXSXGXGXGXGXGXGXGXGXGXAXSXPXJXAXGXSXGXJXGXJXCXQ.1 X     O B A.XXNXSXSXHXHXGXGXGXGXJXJXJXJXJXJXJXJXJXJXJXJXJXJXJXJXJXJXJXJXPXPXPXLXLXLXLXLXLXLXLXLXLXLXLXLXLXLXLXLXLXLXLXLXLXLXLXLXLXLXLXLXLXKXVXkXuXuXuXuXK.uXK.K.K.K.K.K.K.e.e.e.w.q.6 6 $ o o .     O B P.|.nXDXSXSXSXGXGXSXGXGXGXGXGXGXGXGXJXJXJXJXJXJXJXJXJXJXJXJXJXJXJXJXJXJXJXJXJXJXJXJXJXJXJXJXJXJXJXJXJXJXJXJXJXJXDXnXxXhXxXcXbXNXAXJXJXJXGXJXJXJXJXJXJXGXGXGXJXGXGXGXGXGXAXDXnXcXhXhXzXzXhXXX7X#X+X*.@.%.$.$.$.$.#.%.#.#.$.$.$.$.$.$.$.$.$.$.$.$.$.$.$.$.$.$.$.$.$.$.$.$.$.$.$.$.$.$.$.$.$.$.$.$.$.$.$.$.$.$.$.$.$.$.$.$.$.$.$.$.$.$.$.$.#.%.@.T L J J J J J J J J J J J J J J J J J I I J J I K K P K U R !.!.E.E.E.E.E.R.R.R.R.R.R.R.R.R.R.R.R.R.R.E.E.E.R.E.E.E.E.E.E.E.E.E.E.E.W.W.W.W.W.W.W.W.W.W.W.).).).).W.W.W.W.).).W.W.).).W.W.W.W.).W.W.W.W.).).W.W.W.).).W.W.W.W.W.W.).).W.W.W.W.W.W.W.W.).).W.",
"1X1X1X1X<X<X<X<X2X2X2X2X2X2X4X;.&.) ' ' _ _ ` ) ` ` ` ` ` ` ` ` ` ` ` ` ` ` ` ` ` ` ` ` ` ` ` ` ` ` ` ` ` ` ` ` ` ` ` ` ` ` ` ` ` ` ` ` ` ` ` ` ` ` ` ` ` ` ` ` ` ] U > 8 8 w y w r e g 2.s.s.a.a.b.c.c.r.r.z.c.b.b.b.b.a.r.c.b.a.2.g 3 4 1.t.r.r.r.y.c.m.c.c.y.r.r.r.c.m.m.r.3.g g g 4.s.a.r.r.r.r.m.m.y.y.m.m.m.a.2.g 3 g 3.r.r.y.y.u.u.u.l.`.tXtXtXrXxXsXxXbXDXAXJXJXGXGXGXGXGXGXGXGXGXGXGXGXSXGXJXGXGXJXJXJXAXJXDX_.1     X * A |.DXJXPXPXJXGXGXGXGXGXGXGXGXJXJXJXJXJXJXJXJXJXJXJXJXJXJXJXJXIXJXJXJXPXPXPXLXLXLXLXLXLXLXLXLXLXLXLXLXLXLXLXLXLXLXLXLXLXLXLXLXLXLXLXLXKXZXlXuXuXK.uXuXK.K.K.K.K.J.e.J.e.e.e.w.q.6 $ $ $ - 1 S Y.oXnXJXPXJXIXJXSXSXSXSXSXSXGXGXGXGXGXGXJXJXJXJXJXJXJXJXJXJXJXJXJXJXJXJXJXJXJXJXJXJXJXJXJXJXJXJXJXJXJXJXJXJXJXJXJXJXGXNXcXrXhXcXcXbXNXDXSXGXGXJXGXJXJXJXJXJXJXJXGXHXGXGXJXSXDXnXcXhXhXhXrXhXzX@X#X+X*.*.%.#.$.$.$.$.#.#.#.#.$.$.$.$.$.$.$.$.$.$.$.$.$.$.$.$.$.$.$.$.$.$.$.$.$.$.$.$.$.$.$.$.$.$.$.$.$.$.$.$.$.$.$.$.$.$.$.$.$.$.$.$.$.$.$.$.#.%.*.T L J J J J J J J J J J J J J J J J J I J J J I H K P K V R !.!.E.E.E.E.R.R.R.R.R.R.R.R.R.R.R.R.R.R.R.E.E.R.R.E.E.E.E.E.E.E.E.E.E.W.W.W.W.W.W.W.W.W.W.W.W.W.).W.W.W.W.W.W.).W.W.W.W.W.W.W.W.W.).).W.W.W.W.W.W.W.W.).).W.W.).).W.W.W.W.W.W.W.).W.W.).).W.W.W.",
"1X1X1X1X<X<X<X<X2X2X2X3X2X4X2X;.&.) ' _ _ ` ` ) ` ` ` ` ` ` ` ` ` ` ` ` ` ` ` ` ` ` ` ` ` ` ` ` ` ` ` ` ` ` ` ` ` ` ` ` ` ` ` ` ` ` ` ` ` ` ` ` ` ` ` ` ` ` ` ` ` ] U > 9 7 u r t r t d z 8.s.s.b.b.z.z.c.c.z.z.b.b.a.a.r.a.z.b.a.2.g 3 g 1.t.r.r.y.y.c.m.m.c.c.r.r.r.c.m.m.r.3.g i g 2.s.a.r.r.r.r.m.m.y.y.m.m.m.t.1.4 3 <.t.a.r.y.y.r.u.i.j.l.yXtXtXtXsXsXzXxXnXDXJXJXSXGXGXGXGXGXGXGXGXGXGXGXJXJXGXGXJXJXGXJXPXDXQ.1 o . = S oXbXGXJXGXGXGXJXJXJXGXGXGXGXGXGXJXJXJXJXJXJXJXJXJXJXJXJXJXJXJXJXGXGXGXJXJXPXPXPXPXLXLXLXLXLXLXLXLXLXLXLXLXLXLXLXLXLXLXLXLXLXLXLXPXLXLXLXLXKXZXlXuXuXuXuXuXK.K.K.K.J.e.J.J.e.w.e.w.M M M S H.OXBXDXSXIXSXDXDXSXSXSXSXSXSXSXGXGXGXGXGXGXGXJXJXJXJXJXJXJXJXJXJXJXJXJXJXJXJXJXJXJXJXJXJXJXJXJXJXJXJXJXJXJXJXJXJXJXJXJXJXJXAXnXxXrXxXxXcXbXnXnXCXAXGXJXJXJXJXJXJXJXJXGXGXJXKXJXDXnXcXhXXXhXjX.X.XsX@X+X*.*.@.%.$.+.+.$.$.#.#.#.#.#.#.$.$.$.$.$.$.$.$.$.$.$.$.$.$.$.$.$.$.$.$.$.$.$.$.$.$.$.$.$.$.$.$.$.$.$.$.$.$.$.$.$.$.$.$.$.$.$.$.$.$.$.$.$.$.#.%.*.T L J J J J H J J J J J J J J J J J J I P J J H H K P K V R !.!.E.E.E.E.R.R.R.R.R.R.R.R.R.R.R.R.R.R.R.E.E.R.R.E.E.E.E.E.E.E.E.E.W.W.W.W.W.W.W.W.W.W.W.W.W.W.W.W.W.W.W.W.W.W.W.W.W.W.W.W.W.W.W.).).W.W.W.W.W.W.W.W.W.W.W.W.W.).W.W.W.W.W.W.W.).W.).).).W.W.W.",
"1X1X1X1X<X<X2X2X2X2X2X2X2X4X<X=.[ ) ) _ _ _ ` ' ` ` ` ` ` ` ` ` ` ` ` ` ` ` ` ` ` ` ` ` ` ` ` ` ` ` ` ` ` ` ` ` ` ` ` ` ` ` ` ` ` ` ` ` ` ` ` ` ` ` ` ` ` ` ` ` ` ] P > 8 7 s w t r w r z 2.s.s.b.b.z.z.c.c.z.z.z.z.b.b.b.b.z.b.a.1.g 3 g 2.t.r.c.y.y.y.a.m.c.m.c.r.r.m.m.m.t.3.g i g 2.a.a.r.r.r.r.m.m.y.y.m.m.m.t.4.3 4 1.t.b.r.m.y.r.y.i.i.j.`.yXvXtXrXzXzXhXbXCXGXGXAXAXGXGXGXGXGXGXGXGXGXGXGXGXGXJXJXGXSXGXPX{.*   O B Y.cXDXSXJXSXGXJXJXSXJXJXJXGXGXGXGXGXJXJXJXJXJXJXJXJXJXJXJXJXJXJXJXJXSXSXJXJXJXJXJXJXPXPXPXPXPXLXLXLXLXLXLXLXLXLXLXLXLXLXLXLXLXLXLXLXLXLXLXLXLXPXKXZXlXkXuXuXK.K.K.K.J.B.B.J.B.B.B.B.J.`.uXyXkXNXHXJXJXSXSXSXJXSXSXJXJXGXSXSXGXGXGXGXGXGXGXGXJXJXJXJXJXJXJXJXJXJXJXJXJXJXJXJXJXJXJXJXJXJXJXJXJXJXJXJXJXJXJXJXJXJXJXJXJXJXJXJXDXbXxXhXhXxXxXcXbXbXNXCXGXGXGXGXGXGXJXJXGXJXJXJXDXnXcXhXrXrXhXhX.XhXsX@X$X*.@.@.%.$.+.+.$.$.$.$.$.$.%.#.$.$.$.$.$.$.$.$.$.$.$.$.$.$.$.$.$.$.$.$.$.$.$.$.$.$.$.$.$.$.$.$.$.$.$.$.$.$.$.$.$.$.$.$.$.$.$.$.$.$.$.$.$.$.%.%.*.T I J J J J H J J J J J J J J J J J J I P P P L H K P K V R !.Q.R.E.E.E.R.E.E.R.R.R.R.R.R.R.R.R.R.R.R.E.E.E.E.E.E.E.E.E.E.E.W.W.W.W.W.W.W.W.W.W.W.W.W.W.W.W.W.W.W.W.W.W.W.W.W.W.W.W.W.W.W.W.W.W.W.W.W.W.W.W.W.W.W.W.W.W.W.).).W.W.W.W.W.W.).).W.W.).).).).W.",
"1X1X1X1X<X<X2X2X2X2X2X2X2X2X>X-.' ) ) _ _ ` ` ' ` ` ` ` ` ` ` ` ` ` ` ` ` ` ` ` ` ` ` ` ` ` ` ` ` ` ` ` ` ` ` ` ` ` ` ` ` ` ` ` ` ` ` ` ` ` ` ` ` ` ` ` ` ` ` ` ` ] P > 8 7 s w t r t e h 4.s.s.b.b.r.r.c.c.z.r.z.z.b.b.b.b.z.b.s.1.g 3 g 2.r.r.c.y.y.y.a.m.m.m.c.r.r.m.m.m.t.3.g i g 2.s.a.r.r.r.r.m.m.y.y.m.m.b.t.<.3 g 1.t.b.r.c.y.y.c.u.i.j.S.eXvXdXrXzXzXrXcXnXDXGXHXAXGXGXGXGXGXGXGXGXGXGXAXGXGXJXGXGXPXJXoXB o = A .XDXGXDXGXJXGXGXJXJXGXJXJXJXGXGXGXGXGXJXJXJXJXJXJXJXJXJXJXJXJXJXJXJXJXSXSXSXGXJXJXJXJXJXJXPXPXPXPXPXPXPXPXLXLXLXLXLXLXLXLXLXLXPXPXPXPXLXLXPXPXPXPXPXKXZXlXkXuXK.K.J.B.B.B.B.J.J.K.uXyXkXVXZXKXKXKXPXAXPXGXSXJXJXSXSXPXJXGXSXSXGXGXGXGXGXGXGXGXJXJXJXJXJXJXJXJXJXJXJXJXJXJXJXJXJXJXJXJXJXJXJXJXJXJXJXJXJXJXJXJXJXJXJXJXJXJXJXJXGXCXbXxXhXhXhXhXxXcXbXbXNXNXCXDXAXGXJXJXGXSXDXCXnXvXxXhXrXhXjX.XhXhX@X(.*.@.@.#.%.#.$.+.O.O.O.$.$.$.%.%.$.$.$.$.$.$.$.$.$.$.$.$.$.$.$.$.$.$.$.$.$.$.$.$.$.$.$.$.$.$.$.$.$.$.$.$.$.$.$.$.$.$.$.$.$.$.$.$.$.$.$.$.$.$.%.%.*.T I L J J J H J J J J J J J J J J J J J P P I L H H P K V R !.Q.R.E.E.E.R.E.E.R.R.R.R.R.R.R.R.R.R.R.R.E.E.E.E.E.E.E.E.E.E.W.W.W.W.W.W.W.W.W.W.W.W.W.W.W.W.W.W.W.W.W.W.W.W.W.W.).).W.W.W.W.W.).W.W.W.W.W.W.W.W.W.W.).).W.W.W.W.W.W.W.).W.W.).W.W.W.).W.W.W.W.",
"1X1X1X1X1X1X2X2X2X3X2X2X<X2X;.-.' ) _ _ _ ` ` ` ` ` ` ` ` ` ` ` ` ` ` ` ` ` ` ` ` ` ` ` ` ` ` ` ` ` ` ` ` ` ` ` ` ` ` ` ` ` ` ` ` ` ` ` ` ` ` ` ` ` ` ` ` ` ` ` ` ] W > 8 7 s t s u t w i z s.s.b.b.r.r.c.c.r.r.a.b.b.b.z.b.z.b.t.<.3 3 g 2.a.r.c.y.r.r.r.a.m.m.c.r.r.m.m.m.t.2.g i g 2.s.a.r.r.r.a.m.m.y.y.m.m.b.t.g 3 g 2.r.b.y.y.y.c.c.y.u.u.j.`.yXdXsXsXrXhXhXbXNXAXGXAXHXJXGXGXGXGXGXGXGXGXSXGXGXGXAXPXJXcXS * B ).bXGXLXGXGXGXJXJXJXJXGXGXJXJXGXGXGXGXGXJXJXJXJXJXJXJXJXJXJXJXJXJXJXJXJXJXSXSXGXJXGXGXGXGXSXGXJXJXPXPXPXPXPXPXPXPXLXLXPXPXPXLXLXPXPXPXPXPXPXPXPXPXPXPXPXPXKXZXlXkXuXK.J.J.J.K.uXuXkXlXZXZXKXKXKXKXHXJXKXJXGXGXSXGXSXDXSXJXJXJXSXSXGXGXGXGXGXGXGXGXJXJXJXJXJXJXJXJXJXJXJXJXJXJXJXJXJXJXJXJXJXJXJXJXJXJXJXJXJXJXJXJXJXJXJXJXJXJXGXGXJXAXNXbXhXhXhXhXhXhXhXhXcXcXbXbXnXCXDXDXDXNXnXbXcXjXxXxXzXxXhX&X.X{.Q.~.*.%.%.#.%.#.$.$.O.O.O.O.$.$.#.%.$.$.$.$.$.$.$.$.$.$.$.$.$.$.$.$.$.$.$.$.$.$.$.$.$.$.$.$.$.$.$.$.$.$.$.$.$.$.$.$.$.$.$.$.$.$.$.$.$.$.$.$.$.$.#.%.*.T I L J J J H J J J J J J J J J J J J J J J P J H H J K V R { Q.R.E.E.E.R.E.E.R.R.R.R.R.R.R.R.R.R.R.R.E.E.E.E.E.E.E.E.E.Q.W.W.W.W.W.W.W.W.W.W.W.W.W.W.W.W.).).W.W.W.W.W.).W.).).).W.W.W.W.).).W.W.W.W.W.W.).).W.W.W.).W.W.W.W.W.W.).).W.W.W.W.W.W.W.W.W.W.W.",
"1X1X1X1X<X<X<X2X2X3X2X2X2X2X;.&.' _ _ _ _ ` ` ` ` ` ` ` ` ` ` ` ` ` ` ` ` ` ` ` ` ` ` ` ` ` ` ` ` ` ` ` ` ` ` ` ` ` ` ` ` ` ` ` ` ` ` ` ` ` ` ` ` ` ` ` ` ` ` ` ` ] W > 8 7 s t s r t t e z s.n.b.a.r.r.c.m.r.r.a.b.b.b.z.z.z.b.s.<.3 3 g 2.a.r.c.c.r.r.r.a.m.m.z.r.r.m.m.m.t.2.g i g 2.a.h.r.t.r.r.m.m.a.y.m.m.a.3.g i g 2.a.a.m.y.y.c.c.y.y.u.u.`.yXdXxXrXXXzXhXxXnXAXGXAXAXJXGXGXGXGXGXSXSXSXSXJXGXGXGXPXbXH.* A xXDXAXGXJXAXDXSXGXJXGXGXGXJXGXGXGXGXGXJXJXJXJXJXJXJXJXJXJXJXJXJXJXJXJXJXJXJXSXSXGXGXGXGXGXGXSXSXSXJXJXPXPXPXPXPXPXPXLXPXPXPXPXLXPXPXPXPXPXPXPXPXPXLXLXPXPXPXKXKXZXlXkXuXuXuXuXlXZXZXZXKXKXKXKXHXKXPXPXSXSXJXSXJXJXSXSXJXJXSXJXJXSXSXSXGXGXGXGXGXGXGXJXJXJXJXJXJXJXJXJXJXJXJXJXJXJXJXJXJXJXJXJXJXJXJXJXJXJXJXJXJXJXJXJXJXJXJXJXJXGXGXGXGXDXnXxXxXhXhXhXhXhXrXhXhXhXxXcXcXbXbXnXbXcXhXhXjXxXhXxXhXhXjX|.P.A R *.%.%.%.#.%.%.$.+.+.O.+.$.$.#.#.$.$.$.$.$.$.$.$.$.$.$.$.$.$.$.$.$.$.$.$.$.$.$.$.$.$.$.$.$.$.$.$.$.$.$.$.$.$.$.$.$.$.$.$.$.$.$.$.$.$.$.$.$.$.#.%.*.T I J J J J J J J J J J J J J J J J J J J P P H H K J K V R { !.R.E.E.R.R.R.R.R.R.R.R.R.R.R.R.R.R.R.R.E.E.E.E.E.E.E.E.Q.Q.W.W.W.W.W.W.W.W.W.W.W.W.W.W.W.W.W.).).).W.W.W.).).).).W.W.W.W.W.).).W.W.W.W.).).).W.W.W.W.).W.W.W.W.W.W.).).W.W.W.W.W.W.W.W.W.W.W.",
"1X1X1X1X<X<X1X<X3X<X2X4X4X4X>.[ _ ` ` ` ` ` ` ` ` ` ` ` ` ` ` ` ` ` ` ` ` ` ` ` ` ` ` ` ` ` ` ` ` ` ` ` ` ` ` ` ` ` ` ` ` ` ` ` ` ` ` ` ` ` ` ` ` ` ` ` ` ) ) ' ) ] W q 8 7 s w t y s s i g 2.s.s.a.r.r.y.m.m.a.a.m.m.r.y.c.m.b.3.g 3 3 4.3.b.b.z.z.z.z.r.r.r.r.m.y.y.c.c.m.t.1.i i g 3.a.r.r.r.r.r.m.m.m.m.m.m.a.2.g i 4.t.b.b.y.y.y.y.y.y.y.y.u.j.`.yXtXxXzXzXrXhXbXCXSXGXGXGXGXHXGXGXSXSXFXFXSXJXSXGXPXCX{.A ].cXAXJXSXJXJXSXJXJXGXGXJXJXJXJXJXJXJXJXJXJXJXJXJXJXJXJXJXJXJXJXJXJXJXJXJXJXJXJXGXGXGXGXGXGXGXGXGXGXGXJXGXGXGXGXJXJXPXPXPXPXPXPXLXPXLXLXLXPXLXPXPXPXPXPXPXPXPXPXPXKXKXZXVXBXBXVXZXZXZXKXKXKXKXKXJXHXHXGXGXSXSXGXSXGXGXGXGXGXGXGXGXGXGXGXGXGXGXGXJXJXJXJXJXJXJXJXJXJXJXJXJXJXJXJXJXJXJXJXJXJXJXJXJXJXJXJXJXJXJXJXJXJXJXJXJXJXJXJXGXGXGXGXGXGXGXGXNXnXbXxXhXhXhXhXrXhXxXxXhXhXhXhXcXhXrXhXxXhXhXhXhXhXjX|.H.B , E @.#.#.#.#.#.#.$.$.$.$.$.#.#.#.$.$.$.$.$.$.$.$.$.$.$.$.$.$.$.$.$.$.$.$.$.$.$.$.$.$.$.$.$.$.$.$.$.$.$.$.$.$.$.$.$.$.$.$.$.$.$.$.$.$.$.#.#.#.#.#.#.%.Q I L I J J J J J J J J J J J J J J J I I J J J H J K P V V { Q.E.E.E.R.R.R.E.R.E.E.E.E.E.R.R.R.R.E.E.E.E.E.E.E.E.E.E.E.W.W.W.W.W.W.W.W.W.W.W.W.W.W.W.W.W.).).W.W.W.W.).).).W.W.W.W.).).).W.W.W.).).).W.W.W.W.W.W.W.W.W.W.W.W.W.W.W.W.W.W.W.W.W.W.W.W.W.W.W.",
"1X1X1X1X<X<X1X1X3X<X2X2X4X4X>.[ ` ` ` ` ` ` ` ` ` ` ` ` ` ` ` ` ` ` ` ` ` ` ` ` ` ` ` ` ` ` ` ` ` ` ` ` ` ` ` ` ` ` ` ` ` ` ` ` ` ` ` ` ` ` ` ` ` ` ` ` ` ` ) ' ) ] W q 8 7 s t t y s s i g 2.s.a.a.r.r.r.m.m.a.a.m.c.y.y.c.m.b.3.g 3 i <.3.b.b.z.c.c.c.r.z.r.r.m.r.c.c.c.m.t.4.i i g 3.a.r.r.r.r.r.m.m.m.m.m.m.t.1.g g 4.s.b.m.y.y.y.y.y.y.y.y.y.j.S.yXdXrXrXxXXXzXcXnXDXSXGXGXGXHXHXGXSXSXFXFXJXSXSXJXDXcXXXxXnXAXJXSXSXJXJXDXGXJXGXGXJXJXJXJXJXJXJXJXJXJXJXJXJXJXJXJXJXJXJXJXJXJXJXJXJXJXJXJXGXGXGXGXGXGXGXGXGXGXJXJXGXGXGXGXJXJXJXJXPXPXPXPXPXPXPXPXPXPXPXPXPXPXPXPXPXPXPXPXPXKXKXHXHXHXHXHXKXKXKXKXKXKXJXJXHXHXGXGXGXGXSXGXGXGXGXGXGXGXGXGXGXGXGXGXGXGXGXGXJXJXJXJXJXJXJXJXJXJXJXJXJXJXJXJXJXJXJXJXJXJXJXJXJXJXJXJXJXJXJXJXJXJXJXJXJXJXJXJXGXGXGXGXGXGXGXGXGXDXNXbXbXxXhXXXrXrXhXhXhXhXhXhXhXjXjXjXhXhXjXjXhXhXoXU.S D , Y @.#.#.#.#.#.#.#.$.$.$.$.#.#.$.$.$.$.$.$.$.$.$.$.$.$.$.$.$.$.$.$.$.$.$.$.$.$.$.$.$.$.$.$.$.$.$.$.$.$.$.$.$.$.$.$.$.$.$.$.$.$.$.$.$.$.#.#.#.#.#.#.%.Q I F L J J J J J J J J J J J J J J J I I J J J H J P P V V { Q.E.E.E.R.R.R.R.R.R.E.E.E.E.R.R.R.E.E.E.E.E.E.E.E.E.E.E.E.W.W.W.W.W.W.W.W.W.W.W.W.W.W.W.W.W.).).W.W.W.W.).).W.W.W.W.).).W.W.W.W.W.).W.).W.W.W.W.W.W.W.W.W.W.W.W.W.W.W.W.W.W.W.W.W.W.W.W.).).W.",
"1X1X1X1X<X<X1X1X1X1X2X2X4X>X=.' ` ` ` ` ` ` ` ` ` ` ` ` ` ` ` ` ` ` ` ` ` ` ` ` ` ` ` ` ` ` ` ` ` ` ` ` ` ` ` ` ` ` ` ` ` ` ` ` ` ` ` ` ` ` ` ` ` ` ` ` ` ` ` ` ' ] W q 8 7 s t w y t s e d 4.t.a.a.r.r.r.y.b.a.a.m.c.y.c.c.m.a.2.g 3 g 1.t.b.b.z.c.c.c.z.z.b.b.m.r.c.c.c.m.t.4.i i g 3.a.c.r.r.r.r.m.m.m.h.m.m.t.1.i g 4.s.b.m.y.y.y.y.c.c.c.y.y.u.j.`.tXtXrXxXrXhXxXcXnXDXGXGXGXHXHXGXAXSXFXFXFXSXGXJXDXbXnXJXJXJXJXSXSXKXJXSXGXGXGXGXJXJXJXJXJXJXJXJXJXJXJXJXJXJXJXJXJXJXJXJXJXJXJXJXJXJXJXJXGXGXGXGXGXGXGXGXGXJXJXJXGXGXGXGXGXJXJXJXJXJXJXPXPXPXPXPXPXPXPXPXPXPXPXPXPXPXPXPXPXJXKXHXHXKXHXHXKXKXJXJXKXKXKXKXKXKXHXKXGXGXGXGXGXGXGXJXGXGXGXGXGXGXGXGXGXGXGXGXJXJXJXJXJXJXJXJXJXJXJXJXJXJXJXJXJXJXJXJXJXJXJXJXJXJXJXJXJXJXJXJXJXJXJXJXJXJXJXJXGXGXGXGXGXGXGXGXJXGXAXCXNXnXbXcXhXhXhXhXhXhXhXhXhXjXjXjXhXhXhXhXhXoXY.S D * , Y @.#.#.#.#.#.#.#.$.$.$.$.#.#.$.$.$.$.$.$.$.$.$.$.$.$.$.$.$.$.$.$.$.$.$.$.$.$.$.$.$.$.$.$.$.$.$.$.$.$.$.$.$.$.$.$.$.$.$.$.$.$.$.$.$.$.#.#.#.#.#.#.%.Q I F L J J J J J J J J J J J J J J J I J J J J H J K P V V R Q.E.E.E.R.R.R.R.R.R.E.E.E.E.E.R.E.E.E.E.E.E.E.E.E.E.E.E.Q.Q.W.W.W.W.W.W.W.W.W.W.W.W.W.W.W.W.W.W.W.W.W.W.W.W.W.W.W.W.W.W.W.W.W.W.W.W.W.W.W.W.W.W.W.W.W.W.W.).W.W.W.W.).W.W.W.W.W.W.W.W.W.).).W.",
"1X1X1X1X<X<X1X1X1X<X2X2X4X>X=.) ` ` ` ` ` ` ` ` ` ` ` ` ` ` ` ` ` ` ` ` ` ` ` ` ` ` ` ` ` ` ` ` ` ` ` ` ` ` ` ` ` ` ` ` ` ` ` ` ` ` ` ` ` ` ` ` ` ` ` ` ` ` ` ` ` ] W q 8 7 s s w y w t e i z 3.a.h.r.r.r.r.a.a.a.b.c.y.c.c.b.r.4.g 3 g 2.t.a.b.z.z.c.z.z.z.a.b.a.r.c.c.c.m.t.4.i i <.t.b.c.r.r.r.r.a.m.m.m.m.a.2.g i g 2.s.M.m.c.y.y.y.c.c.c.y.y.u.i.S.yXtXrXxXzXzXhXzXbXDXGXJXGXHXHXGXAXSXFXFXSXJXJXSXGXJXSXDXSXJXJXJXGXSXAXAXGXGXGXGXJXJXJXJXJXJXJXJXJXJXJXJXJXJXJXJXJXJXJXJXJXJXJXJXJXJXJXJXGXGXGXGXGXGXGXGXGXJXJXJXGXGXGXGXGXGXGXJXGXJXJXJXJXJXJXJXJXJXJXJXJXJXJXJXKXKXPXPXKXHXHXHXHXKXKXKXKXKXKXKXKXKXKXJXJXKXHXKXGXGXGXGXGXGXGXJXGXGXGXGXGXGXGXGXGXGXGXGXJXJXJXJXJXJXJXJXJXJXJXJXJXJXJXJXJXJXJXJXJXJXJXJXJXJXJXJXJXJXJXJXJXJXJXJXJXJXJXJXGXGXGXGXGXGXGXGXJXGXGXGXAXDXCXNXbXbXcXxXhXrXrXrXhXhXrXjXhXhXrXhX.XT.B 1 1 * , Y @.#.#.#.#.#.#.#.$.$.$.#.#.#.$.$.$.$.$.$.$.$.$.$.$.$.$.$.$.$.$.$.$.$.$.$.$.$.$.$.$.$.$.$.$.$.$.$.$.$.$.$.$.$.$.$.$.$.$.$.$.$.$.$.$.$.#.#.#.#.#.#.%.Q G F L H J J J J J J J J J J J J J J J J J J J H H K P V V R Q.E.E.E.R.R.R.R.R.E.E.E.E.E.E.R.E.E.E.E.E.E.E.E.E.E.E.Q.Q.Q.W.W.W.W.W.W.W.W.W.W.W.W.W.W.W.W.W.W.W.W.W.W.W.W.W.W.W.W.W.W.W.W.W.W.W.W.W.W.W.W.W.).W.W.).).).).W.W.W.W.).).).).W.W.).).W.W.W.W.W.",
"1X1X1X1X<X<X1X1X<X1X2X4X4X;.-./ ` ` ` ` ` ` ` ` ` ` ` ` ` ` ` ` ` ` ` ` ` ` ` ` ` ` ` ` ` ` ` ` ` ` ` ` ` ` ` ` ` ` ` ` ` ` ` ` ` ` ` ` ` ` ` ` ` ` ` ` ` ` ) ) ` ] Y q 0 u w s t y r w e i z 2.a.h.y.r.r.r.a.a.a.b.b.c.c.m.b.t.<.i 3 g 3.a.a.r.z.c.c.c.r.r.a.a.r.r.c.c.m.m.t.<.2 i <.t.m.y.r.r.r.r.a.m.m.m.b.b.2.g 3 g 3.s.M.m.r.r.r.r.z.z.z.r.y.h.u.j.`.tXtXrXxXzXhXrXcXnXSXJXGXHXHXGXAXSXSXFXJXJXJXJXSXSXSXSXJXJXJXJXGXAXSXJXGXGXGXGXJXJXJXJXJXJXJXJXJXJXJXJXJXJXJXJXJXJXJXJXJXJXJXJXJXJXJXJXJXJXJXJXJXJXJXJXJXJXJXJXJXJXJXJXGXGXGXGXGXGXGXJXJXJXJXJXJXJXJXJXJXJXJXJXJXJXJXJXHXHXAXHXKXKXKXKXKXKXKXKXKXKXKXKXJXJXKXKXGXGXGXGXGXGXGXGXGXGXGXGXGXGXGXGXGXGXGXGXJXJXJXJXJXJXJXJXJXJXJXJXJXJXJXJXJXJXJXJXJXJXJXJXJXJXJXJXJXJXJXJXJXJXJXJXJXJXJXJXGXGXGXGXGXGXGXGXJXJXGXGXGXHXAXDXCXnXbXcXhXrXrX.XhXhXhXrXrXXX.XoXP.S * = D * , Y @.%.#.#.#.#.#.#.#.#.#.#.$.$.$.$.$.$.$.$.$.$.$.$.$.$.$.$.$.$.$.$.$.$.$.$.$.$.$.$.$.$.$.$.$.$.$.$.$.$.$.$.$.$.$.$.$.$.$.$.$.$.$.$.$.$.#.#.#.#.#.#.%.@.T L L J J J J J J J J J J J P J J J J J J J J H H H J V V R !.!.R.R.R.R.R.R.R.E.E.E.E.E.E.E.E.E.E.E.E.E.E.E.E.E.E.E.E.W.W.W.W.W.W.W.W.W.W.W.W.).W.W.W.W.W.W.).W.W.W.W.W.W.).).).).W.W.W.).).W.W.W.W.W.W.).).W.).).).).).).W.W.).).).).).).W.).).W.W.W.W.W.",
"1X1X1X1X<X<X1X1X<X2X2X4X4X;.&./ ` ` ` ` ` ` ` ` ` ` ` ` ` ` ` ` ` ` ` ` ` ` ` ` ` ` ` ` ` ` ` ` ` ` ` ` ` ` ` ` ` ` ` ` ` ` ` ` ` ` ` ` ` ` ` ` ` ` ` ` ` ' ' ` ` ] Y q 8 7 w t t w h r e i g 2.s.a.h.r.r.r.a.a.a.b.z.c.c.m.a.t.g i 3 <.t.b.a.r.r.c.c.c.z.r.a.a.r.r.m.m.m.m.t.g 2 i 4.t.m.y.r.r.r.r.a.m.m.m.b.a.1.g 3 4.s.s.m.m.r.r.r.r.z.z.z.z.z.m.j.i.l.yXtXtXxXzXhXrXcXbXDXJXGXHXHXGXAXSXSXFXSXSXJXJXDXDXSXPXSXSXSXSXJXJXJXJXGXGXGXGXJXJXJXJXJXJXJXJXJXJXJXJXJXJXJXJXJXJXJXJXJXJXJXJXJXJXJXJXJXJXJXJXJXJXJXJXJXJXJXJXJXJXJXJXGXGXGXGXGXGXGXGXGXGXGXGXGXGXGXGXJXJXJXJXJXJXKXKXHXGXGXHXKXKXKXKXKXKXKXKXKXKXKXKXJXJXJXGXGXGXGXGXJXJXJXJXJXJXJXJXJXJXJXJXJXJXJXJXJXJXJXJXJXJXJXJXJXJXJXJXJXJXJXJXJXJXJXJXJXJXJXJXJXJXJXJXJXJXJXJXJXJXJXJXJXJXJXJXGXGXGXGXGXGXGXGXJXGXGXAXHXHXAXAXDXNXbXcXhXrXrX.XhXjXhXrXhXXX].H.B D * * 1 * , T @.%.#.#.#.#.#.#.#.#.#.#.$.$.$.$.$.$.$.$.$.$.$.$.$.$.$.$.$.$.$.$.$.$.$.$.$.$.$.$.$.$.$.$.$.$.$.$.$.$.$.$.$.$.$.$.$.$.$.$.$.$.$.$.$.$.#.#.#.#.#.#.%.%.T L H J J J J J J J J J J J P P J J J J J J J H H H J V V R !.!.R.R.R.R.R.R.E.E.E.E.E.E.E.E.E.E.E.E.E.E.E.E.E.E.E.E.W.W.W.W.W.W.W.W.W.W.W.W.).W.W.W.W.W.W.W.).W.W.W.W.W.).).).).W.W.W.W.).).W.W.W.W.W.W.).).W.).W.).).).W.W.W.W.).).).W.).W.).).W.W.W.W.W.",
"1X1X<X<X1X1X<X<X<X2X4X4X4X=.[ ) ` ` ` ` ` ` ` ` ` ` ` ` ` ` ` ` ` ` ` ` ` ` ` ` ` ` ` ` ` ` ` ` ` ` ` ` ` ` ` ` ` ` ` ` ` ` ` ` ` ` ` ` ` ` ` ` ` ` ` ` ' ' ' ' _ ] Y q 8 8 u w w y l h e e e g t.r.h.y.y.y.b.a.a.a.b.z.m.m.a.t.g i 3 <.s.b.a.r.r.r.y.c.r.r.a.a.r.r.m.m.m.m.t.g 2 i 4.t.m.y.r.r.a.r.r.m.m.m.b.a.<.g 3 1.s.b.b.m.r.z.z.z.z.z.z.z.z.m.h.u.j.`.yXtXrXrXhXzXxXcXnXSXGXGXHXGXHXGXGXFXSXSXGXJXSXSXJXJXJXGXSXSXJXJXSXDXGXGXGXGXJXJXJXJXJXJXJXJXJXJXJXJXJXJXJXJXJXJXJXJXJXJXJXJXJXJXJXJXJXJXJXJXJXJXJXJXJXJXJXJXJXJXJXJXJXJXJXGXGXGXGXGXGXGXGXGXGXGXGXGXSXSXSXSXGXGXGXGXGXGXJXGXHXHXHXHXKXKXKXKXKXHXHXGXJXJXJXJXGXGXGXGXJXJXJXJXJXJXJXJXJXJXJXJXJXJXJXJXJXJXJXJXJXJXJXJXJXJXJXJXJXJXJXJXJXJXJXJXJXJXJXJXJXJXJXJXJXJXJXJXJXJXJXJXJXJXJXJXGXGXGXGXGXGXGXGXGXGXAXAXAXAXDXDXnXbXcXhXhXhXhXhXhXhXrXrX.X].A B * * * * 1 * , T %.%.#.#.#.#.#.#.$.$.$.$.$.$.$.$.$.$.$.$.$.$.$.$.$.$.$.$.$.$.$.$.$.$.$.$.$.$.$.$.$.$.$.$.$.$.$.$.$.$.$.$.$.$.$.$.$.$.$.$.$.$.$.$.$.$.#.#.#.#.#.#.%.%.T F H H J J J J J J J J J J P P P P J J J J J H H H J V V R !.Q.R.R.I.R.R.R.R.E.R.R.E.E.E.E.E.E.E.E.E.E.E.E.E.E.E.Q.W.W.W.W.W.W.W.W.W.W.W.W.W.W.W.W.).).).).).).W.W.W.W.).).W.W.W.W.W.W.W.).W.).).).W.W.W.W.W.W.W.W.W.W.W.W.W.W.W.W.W.W.W.W.W.W.W.W.W.W.W.",
"1X1X<X<X1X1X<X<X<X2X4X5X4X=.' ) ` ` ` ` ` ` ` ` ` ` ` ` ` ` ` ` ` ` ` ` ` ` ` ` ` ` ` ` ` ` ` ` ` ` ` ` ` ` ` ` ` ` ` ` ` ` ` ` ` ` ` ` ` ` ` ` ` ` ` ` ' ' ' ' ' ] E q 8 7 u w w y v h r e e g 3.t.a.y.y.h.b.a.a.a.b.z.m.m.a.3.g i i 4.s.M.a.r.r.r.y.c.r.r.r.a.r.r.m.m.m.m.t.g 2 i 4.s.m.y.r.r.a.r.r.m.m.m.b.a.<.g 3 1.s.b.a.a.z.z.z.z.z.z.z.z.z.c.y.u.u.l.yXdXtXrXrXzXhXzXnXDXJXGXHXGXHXGXGXGXPXAXSXPXSXDXJXPXJXPXJXSXSXJXJXJXGXGXGXGXJXJXJXJXJXJXJXJXJXJXJXJXJXJXJXJXJXJXJXJXJXJXJXJXJXJXJXJXJXJXJXJXJXJXJXJXJXJXJXJXJXJXJXJXJXJXJXJXJXJXGXGXGXGXGXGXGXGXGXGXSXSXSXSXGXGXGXGXHXJXPXJXGXHXHXGXHXHXHXHXHXJXGXGXJXJXGXJXGXGXGXGXJXJXJXJXJXJXJXJXJXJXJXJXJXJXJXJXJXJXJXJXJXJXJXJXJXJXJXJXJXJXJXJXJXJXJXJXJXJXJXJXJXJXJXJXJXJXJXJXJXJXJXJXJXJXJXJXGXGXGXGXGXGXGXGXJXGXGXAXAXDXCXCXbXxXhX.XrXhXhXjXhX.XrXrX].A N * 1 * * * D * , Y %.%.#.#.#.#.#.#.$.$.$.$.$.$.$.$.$.$.$.$.$.$.$.$.$.$.$.$.$.$.$.$.$.$.$.$.$.$.$.$.$.$.$.$.$.$.$.$.$.$.$.$.$.$.$.$.$.$.$.$.$.$.$.$.$.$.$.#.#.#.#.#.%.%.T F H H J J J J J J J J J J P P P P J J J J J H H H J K V R !.Q.Q.R.I.R.R.R.R.R.R.R.R.R.E.E.E.E.E.E.E.E.E.E.Q.Q.E.W.W.W.W.W.W.W.W.W.W.W.W.W.W.).W.W.W.W.).).W.).W.W.W.W.W.W.W.W.W.W.W.W.W.W.W.W.).).W.W.W.W.W.W.W.W.W.W.W.W.W.W.W.W.W.W.W.W.W.W.W.W.W.W.W.",
"3X3X1X1X<X<X<X<X2X<X4X4X>X-.) ) ` ` ` ` ` ` ` ` ` ` ` ` ` ` ` ` ` ` ` ` ` ` ` ` ` ` ` ` ` ` ` ` ` ` ` ` ` ` ` ` ` ` ` ` ` ` ` ` ` ` ` ` ` ` ` ` ` ` ` ` ` ` ) ' ) @.E q 9 8 w w s y 6.6.r w e e g t.a.y.r.r.a.b.b.b.b.z.b.M.s.2.g 3 3 2.s.b.a.z.b.c.z.z.b.b.r.r.r.r.c.c.c.m.3.g e i 4.s.m.z.r.r.a.r.a.a.m.M.b.3.g 3 g 2.s.b.m.a.z.c.c.c.z.z.z.c.c.r.y.h.j.j.`.yXxXtXxXxXxXcXcXnXSXGXGXGXGXGXGXGXJXJXJXJXJXJXJXJXJXJXJXJXJXJXJXJXJXJXJXJXJXJXJXJXJXJXJXJXJXJXJXJXJXJXJXJXJXJXJXJXJXJXJXJXJXJXJXJXJXJXJXJXJXJXJXJXJXJXJXJXJXJXJXJXJXJXJXJXJXJXJXJXJXJXJXJXJXJXJXJXJXJXJXJXJXJXJXJXJXGXGXGXGXGXGXGXKXKXKXKXJXJXJXJXJXJXJXJXJXJXJXJXJXJXJXJXJXJXJXJXJXJXJXJXJXJXJXJXJXJXJXJXJXJXJXJXJXJXJXJXJXJXJXJXJXJXJXJXJXJXJXJXJXJXJXJXJXJXJXJXJXJXJXJXJXJXJXJXGXJXJXGXGXGXJXPXJXJXJXGXAXNXbXcXhXhXhXhX.XhXjXhX.XjX.XR.S N * * * * * * 1 * , Y @.#.#.#.#.#.#.#.$.$.$.$.$.$.$.$.$.$.$.$.$.$.$.$.$.$.$.$.$.$.$.$.$.$.$.$.$.$.$.$.$.$.$.$.$.$.$.$.$.$.$.$.$.$.$.$.$.$.$.$.$.$.$.$.+.$.$.$.$.$.$.#.%.%.T I L H K I J J J J J J J J J J J J J J J J J H I H K V V R !.Q.R.R.R.R.R.R.E.E.E.E.E.E.E.E.E.E.E.E.E.E.E.E.W.W.W.W.W.W.W.W.W.W.W.W.W.W.W.W.W.W.).).W.W.W.W.W.W.W.).).).W.W.W.W.W.).).).W.W.W.W.W.W.).W.W.W.W.W.W.W.W.W.W.W.W.W.W.W.W.W.W.W.W.W.W.W.W.W.W.",
"3X3X1X1X<X<X<X<X2X2X4X4X>X-.) ) ` ` ` ` ` ` ` ` ` ` ` ` ` ` ` ` ` ` ` ` ` ` ` ` ` ` ` ` ` ` ` ` ` ` ` ` ` ` ` ` ` ` ` ` ` ` ` ` ` ` ` ` ` ` ` ` ` ` ` ` ` ` ` ' ) @.E q 9 8 w w w y 6.6.h w e e g 2.a.a.r.r.a.b.b.b.b.z.b.m.s.2.g 3 i 2.s.b.b.z.c.c.z.z.b.b.r.r.r.r.c.c.c.m.3.g e i 4.s.m.z.r.r.a.r.a.y.m.M.b.3.g i g 2.s.b.m.c.z.z.z.c.z.z.z.z.c.y.y.y.u.j.l.yXdXtXtXxXxXxXxXbXDXSXJXGXGXGXGXGXJXJXJXJXJXJXJXJXJXJXJXJXJXJXJXJXJXJXJXJXJXJXJXJXJXJXJXJXJXJXJXJXJXJXJXJXJXJXJXJXJXJXJXJXJXJXJXJXJXJXJXJXJXJXJXJXJXJXJXJXJXJXJXJXJXJXJXJXJXJXJXJXJXJXJXJXJXJXJXJXJXJXJXJXJXJXJXJXJXJXGXGXGXGXGXGXGXJXKXJXJXJXJXJXJXJXJXJXJXJXJXJXJXJXJXJXJXJXJXJXJXJXJXJXJXJXJXJXJXJXJXJXJXJXJXJXJXJXJXJXJXJXJXJXJXJXJXJXJXJXJXJXJXJXJXJXJXJXJXJXJXJXJXJXJXJXJXJXJXJXJXJXGXGXGXGXGXSXDXCXnXbXxXhXrXrXhXhXrXhXjXhXjX{.H.S B 1 * * * * * * 1 * , Y @.#.#.#.#.#.#.#.$.$.$.$.$.$.$.$.$.$.$.$.$.$.$.$.$.$.$.$.$.$.$.$.$.$.$.$.$.$.$.$.$.$.$.$.$.$.$.$.$.$.$.$.$.$.$.$.$.$.$.$.$.$.$.$.+.+.$.$.$.$.$.#.%.%.T I L H K I J J J J J J J J J J J J J J J J J H J H K K V R !.Q.R.R.R.R.R.R.E.E.E.E.E.E.E.E.E.E.E.E.E.E.E.E.W.W.W.W.W.W.W.W.W.W.W.W.W.W.W.W.W.W.).).W.W.W.W.W.W.W.W.).).W.W.W.W.W.).W.).W.W.W.W.W.W.).W.W.W.W.W.W.W.W.W.W.W.W.W.W.W.W.W.W.W.W.W.W.W.W.W.W.",
"3X3X3X3X1X1X<X<X2X2X4X4X;.-.) ' ` ` ` ` ` ` ` ` ` ` ` ` ` ` ` ` ` ` ` ` ` ` ` ` ` ` ` ` ` ` ` ` ` ` ` ` ` ` ` ` ` ` ` ` ` ` ` ` ` ` ` ` ` ` ` ` ` ` ` ` ` ` ' ' ) ] E V 9 8 w w w u 6.8.j r e i g 1.t.a.a.a.a.a.b.b.m.z.b.m.s.2.g 3 i 2.s.b.b.z.c.c.z.z.b.b.r.r.r.r.c.c.c.m.3.g e i 4.s.m.y.r.r.a.r.m.c.m.M.a.2.g i g 2.a.b.m.c.z.z.r.r.r.r.r.r.z.r.r.y.u.u.N.`.yXtXtXxXxXhXxXcXnXDXJXJXGXGXJXGXJXJXJXJXJXJXJXJXJXJXJXJXJXJXJXJXJXJXJXJXJXJXJXJXJXJXJXJXJXJXJXJXJXJXJXJXJXJXJXJXJXJXJXJXJXJXJXJXJXJXJXJXJXJXJXJXJXJXJXJXJXJXJXJXJXJXJXJXJXJXJXJXJXJXJXJXJXJXJXJXJXJXJXJXJXJXJXJXJXGXJXJXGXGXGXGXJXJXJXJXJXJXJXJXJXJXJXJXJXJXJXJXJXJXJXJXJXJXJXJXJXJXJXJXJXJXJXJXJXJXJXJXJXJXJXJXJXJXJXJXJXJXJXJXJXJXJXJXJXJXJXJXJXJXJXJXJXJXJXJXJXJXJXJXJXJXJXJXPXJXGXGXGXGXGXGXAXDXnXbXcXxXhXrXhXrXhXrX.XhXjXhX].l.B 1 * * * * * * * * 1 * , Y @.#.#.#.#.#.#.#.$.$.$.$.$.$.$.$.$.$.$.$.$.$.$.$.$.$.$.$.$.$.$.$.$.$.$.$.$.$.$.$.$.$.$.$.$.$.$.$.$.$.$.$.$.$.$.$.$.$.$.$.$.$.$.$.+.+.$.$.$.$.$.#.%.%.T I L H H I J J J J J J J J J J J J J J J J J H J K H K V R !.Q.Q.R.!.R.R.R.E.E.E.E.E.E.E.E.E.E.E.E.E.E.E.E.W.W.W.W.W.W.W.W.W.W.W.W.W.W.).).W.W.W.).W.W.).W.W.W.W.W.W.W.W.W.W.W.W.W.W.W.W.W.W.W.W.W.).).W.W.W.).).).).).W.W.W.W.).).).).).W.).).W.W.).).W.",
"3X3X3X3X1X1X<X2X2X2X4X4X>.&.) ' ` ` ` ` ` ` ` ` ` ` ` ` ` ` ` ` ` ` ` ` ` ` ` ` ` ` ` ` ` ` ` ` ` ` ` ` ` ` ` ` ` ` ` ` ` ` ` ` ` ` ` ` ` ` ` ` ` ` ` ` ` ` ' ' ) ] E V 8 7 t w u u v 9.5.r e i e g 3.a.h.h.a.a.b.b.m.c.b.m.t.2.g 3 i 2.n.b.r.z.c.c.z.z.b.b.r.r.r.r.c.c.c.m.3.g e i 4.s.m.y.r.r.a.r.m.c.m.M.s.2.g i g 3.a.b.m.c.r.r.r.r.r.r.r.r.r.r.r.y.y.u.j.N.yXtXxXxXjXhXxXhXbXDXJXJXGXJXJXJXJXJXJXJXJXJXJXJXJXJXJXJXJXJXJXJXJXJXJXJXJXJXJXJXJXJXJXJXJXJXJXJXJXJXJXJXJXJXJXJXJXJXJXJXJXJXJXJXJXJXJXJXJXJXJXJXJXJXJXJXJXJXJXJXJXJXJXJXJXJXJXJXJXJXJXJXJXJXJXJXJXJXJXJXJXJXJXJXGXGXJXJXGXGXGXGXJXJXJXJXJXJXJXJXJXJXJXJXJXJXJXJXJXJXJXJXJXJXJXJXJXJXJXJXJXJXJXJXJXJXJXJXJXJXJXJXJXJXJXJXJXJXJXJXJXJXJXJXJXJXJXJXJXJXJXJXJXJXJXJXJXJXJXJXJXJXJXJXJXGXSXGXGXJXGXAXNXnXbXxXhXhXrXrXhXrX.XhXhXrX{.E.S B 1 * * * * * * * * * 1 * , Y @.#.#.#.#.#.#.#.$.$.$.$.$.$.$.$.$.$.$.$.$.$.$.$.$.$.$.$.$.$.$.$.$.$.$.$.$.$.$.$.$.$.$.$.$.$.$.$.$.$.$.$.$.$.$.$.$.$.$.$.$.$.$.$.+.+.$.$.$.$.$.#.%.%.T I L H H J J J J J J J J J J J J J J J J J J H I H K K V R !.Q.R.R.!.R.R.R.E.E.E.E.E.E.E.E.E.E.E.E.E.E.E.E.W.W.W.W.W.W.W.W.W.W.W.W.W.W.).W.W.W.W.W.W.W.).).W.W.W.W.W.W.W.W.W.W.W.W.W.W.W.W.).W.W.W.W.).W.W.W.W.).).).).W.W.W.W.).).).).W.W.).).W.W.).).W.",
"3X3X3X3X1X1X2X2X2X2X4X>X=.[ ) ) ` ` ` ` ` ` ` ` ` ` ` ` ` ` ` ` ` ` ` ` ` ` ` ` ` ` ` ` ` ` ` ` ` ` ` ` ` ` ` ` ` ` ` ` ` ` ` ` ` ` ` ` ` ` ` ` ` ` ` ` ' ' ' ' ' ] E U m 8 t w u y v 9.7.j r g 2 g 1.t.a.h.a.a.b.b.c.z.b.b.t.4.i 3 g 3.b.b.r.b.b.b.b.b.b.b.r.r.r.r.c.c.c.b.3.g 3 i 4.s.m.y.r.r.r.a.m.m.b.m.a.2.g i <.t.a.b.m.c.r.r.y.y.y.y.y.r.r.c.r.y.y.u.u.j.`.yXvXdXrXhXxXXXcXnXDXJXJXJXJXJXJXJXJXJXJXJXJXJXJXJXJXJXJXJXJXJXJXJXJXJXJXJXJXJXJXJXJXJXJXJXJXJXJXJXJXJXJXJXJXJXJXJXJXJXJXJXJXJXJXJXJXJXJXJXJXJXJXJXJXJXJXJXJXJXJXJXJXJXJXJXJXJXJXJXJXJXJXJXJXJXJXJXJXJXJXJXJXJXJXJXJXJXJXJXJXJXJXFXFXFXFXFXJXJXJXJXJXJXJXJXJXJXJXJXJXJXJXJXJXJXJXJXJXJXJXJXJXJXJXJXJXJXJXJXJXJXJXJXJXJXJXJXJXJXJXJXJXJXJXJXJXJXJXJXJXJXJXJXJXJXJXJXJXJXJXJXJXJXGXGXGXGXGXAXDXNXbXcXxXhXhXhXhXrXhXrXhXjXhX{.H.B D 1 1 1 * = * 1 * * * * 1 * , Y %.#.#.#.#.#.#.#.$.$.$.$.$.$.$.$.$.$.$.$.$.$.$.$.$.$.$.$.$.$.$.$.$.$.$.$.$.$.$.$.$.$.$.$.$.$.$.$.$.$.$.$.$.$.$.$.$.$.$.$.$.$.$.$.$.$.$.$.$.$.$.#.%.%.T I L H H J J J J J J J J J J J J J I I J J J H J H J K V R !.Q.Q.R.!.R.R.R.E.E.E.E.E.E.E.E.E.E.E.E.E.E.E.E.W.W.Q.Q.W.W.W.W.W.W.).).).W.W.W.W.W.W.W.W.W.W.).).).W.W.W.W.).).).).).W.W.W.).).).).W.W.W.W.W.W.W.W.W.).).W.W.W.W.W.W.).).W.W.W.W.).).).).W.W.",
"3X3X3X3X1X<X2X2X2X<X4X>X-.' ' ) ` ` ` ` ` ` ` ` ` ` ` ` ` ` ` ` ` ` ` ` ` ` ` ` ` ` ` ` ` ` ` ` ` ` ` ` ` ` ` ` ` ` ` ` ` ` ` ` ` ` ` ` ` ` ` ` ` ` ` ` ' ` ' ' ' ] E U m 8 t w u u v 9.d.6.h h e i g 3.a.a.a.a.b.b.m.c.z.b.t.4.i i g 3.n.b.r.r.b.b.b.b.b.b.r.r.r.r.c.c.c.m.3.g 3 i 4.s.m.y.r.r.a.a.m.m.m.m.s.4.g i 4.t.a.m.m.m.r.r.y.y.y.y.y.y.r.c.c.y.y.y.y.u.l.uXdXdXtXhXxXhXzXbXCXSXJXJXJXJXJXJXJXJXJXJXJXJXJXJXJXJXJXJXJXJXJXJXJXJXJXJXJXJXJXJXJXJXJXJXJXJXJXJXJXJXJXJXJXJXJXJXJXJXJXJXJXJXJXJXJXJXJXJXJXJXJXJXJXJXJXJXJXJXJXJXJXJXJXJXJXJXJXJXJXJXJXJXJXJXJXJXJXJXJXJXJXJXJXJXJXJXJXJXJXJXFXFXFXFXFXFXJXJXJXJXJXJXJXJXJXJXJXJXJXJXJXJXJXJXJXJXJXJXJXJXJXJXJXJXJXJXJXJXJXJXJXJXJXJXJXJXJXJXJXJXJXJXJXJXJXJXJXJXJXJXJXJXJXJXJXJXJXJXJXJXJXJXGXGXGXGXDXNXbXcXxXhXhXhXhXhXhXhXrXjXjX.XE.A B * * 1 1 1 * * * 1 * * * * 1 * , Y %.#.#.#.#.#.#.#.$.$.$.$.$.$.$.$.$.$.$.$.$.$.$.$.$.$.$.$.$.$.$.$.$.$.$.$.$.$.$.$.$.$.$.$.$.$.$.$.$.$.$.$.$.$.$.$.$.$.$.$.$.$.$.$.$.$.$.$.$.$.$.$.%.%.Q I L H H J J J J J J J J J J J J J I I J J J H J L J J V R !.Q.Q.R.!.R.R.R.E.E.E.E.E.E.E.E.E.E.E.E.E.E.W.E.W.W.Q.Q.W.W.W.W.W.W.).).W.W.W.W.W.W.W.W.W.W.W.).).W.W.W.W.W.).).).W.).W.W.).).).).).W.W.).).W.W.W.W.W.).W.W.W.W.W.W.W.W.).W.W.W.W.).).W.W.W.W.",
"<X<X3X3X<X<X2X2X3X<X4X>X-.' ' ) ` ` ` ` ` ` ` ` ` ` ` ` ` ` ` ` ` ` ` ` ` ` ` ` ` ` ` ` ` ` ` ` ` ` ` ` ` ` ` ` ` ` ` ` ` ` ` ` ` ` ` ` ` ` ` ` ` ` ` ` ` ` ` ' ' ] E W q 7 t w u u j 9.g.7.z i e e g 1.t.a.a.b.b.b.m.c.z.b.t.<.i i g 3.M.b.r.r.b.b.b.b.b.b.r.r.r.r.c.c.c.m.3.g i i 4.s.m.y.r.r.r.a.m.m.m.m.s.2.i i 1.s.b.m.m.m.r.y.y.y.y.y.y.y.r.c.c.r.y.y.y.u.j.`.yXtXjXhX%XxXzXzXnXDXFXAXSXJXJXJXJXJXJXJXJXJXJXJXJXJXJXJXJXJXJXJXJXJXJXJXJXJXJXJXJXJXJXJXJXJXJXJXJXJXJXJXJXJXJXJXJXJXJXJXJXJXJXJXJXJXJXJXJXJXJXJXJXJXJXJXJXJXJXJXJXJXJXJXJXJXJXJXJXJXJXJXJXJXGXGXGXGXGXGXJXJXJXJXJXJXJXJXFXFXFXFXFXFXFXFXFXFXJXJXJXJXJXJXJXJXJXJXJXJXJXJXJXJXJXJXJXJXJXJXJXJXJXJXJXJXJXJXJXJXJXJXJXJXJXJXJXJXJXJXJXJXJXJXJXJXJXJXJXJXJXJXJXJXJXJXJXJXJXJXJXJXGXGXDXNXbXcXxXhXhXhXrXrXhXhXhXrXrXhXoXT.S D D * * 1 1 1 * * * * * * * * 1 * , Y %.#.#.#.#.#.#.#.$.$.$.$.$.$.$.$.$.$.$.$.$.$.$.$.$.$.$.$.$.$.$.$.$.$.$.$.$.$.$.$.$.$.$.$.$.$.$.$.$.$.$.$.$.$.$.$.$.$.$.$.$.$.$.$.O.$.$.$.#.$.$.$.%.%.Q Y L H J J J J J J J J J J J J J J I P P J J H J L J J K R !.Q.Q.R.R.R.R.R.E.E.E.E.E.E.E.E.E.E.E.E.E.W.W.W.W.W.W.Q.W.W.W.W.W.W.W.).W.W.W.W.W.W.).).W.W.W.W.).).W.W.W.W.).W.W.W.W.W.W.W.W.W.W.W.W.W.).).W.W.W.W.).).W.W.W.W.W.W.W.W.).).W.W.W.W.W.W.W.W.W.",
"<X<X<X1X3X3X3X2X4X2X4X>X-./ ) ) ` ` ` ` ` ` ` ` ` ` ` ` ` ` ` ` ` ` ` ` ` ` ` ` ` ` ` ` ` ` ` ` ` ` ` ` ` ` ` ` ` ` ` ` ` ` ` ` ` ` ` ` ` ` ` ` ` ` ` ` ` ` ` ` ' ] E W q 7 t w u u j 9.C.d.l p e e i 4.t.a.a.b.b.b.m.m.b.a.t.<.i i g t.M.m.r.r.b.b.b.b.b.b.r.r.r.r.c.c.c.b.3.g 3 i 4.s.m.y.r.r.r.b.m.m.m.m.s.4.i i 2.a.b.a.m.c.r.r.y.y.y.y.y.y.y.m.c.r.y.y.y.u.u.l.uXyXxXrX.XzX%XzXbXDXJXAXAXKXJXJXJXJXJXJXJXJXJXJXJXJXJXJXJXJXJXJXJXJXJXJXJXJXJXJXJXJXJXJXJXJXJXJXJXJXJXJXJXJXJXJXJXJXJXJXJXJXJXJXJXJXJXJXJXJXJXJXJXJXJXJXJXJXJXJXJXJXJXJXJXJXJXJXJXJXJXJXJXJXGXGXGXGXGXGXJXJXJXJXJXJXJXJXJXFXFXFXFXFXFXFXJXJXJXJXJXJXJXJXJXJXJXJXJXJXJXJXJXJXJXJXJXJXJXJXJXJXJXJXJXJXJXJXJXJXJXJXJXJXJXJXJXJXJXJXJXJXJXJXJXJXJXJXJXJXJXJXJXJXJXJXJXJXJXJXJXJXJXAXNXbXhXrXhXxXxXzXhXhXhXjXhXhXhX{.R.S N * * * * 1 1 * * * 1 * 1 1 1 1 1 * , Y %.#.#.#.#.#.#.$.$.$.$.$.$.$.$.$.$.$.$.$.$.$.$.$.$.$.$.$.$.$.$.$.$.$.$.$.$.$.$.$.$.$.$.$.$.$.$.$.$.$.$.$.$.$.$.$.$.$.$.$.$.$.$.$.O.+.$.$.$.$.$.#.%.%.Q T F H J J J J J J J J J J J J J J P P J J I H J J J J K W !.!.Q.R.R.R.R.R.E.E.E.E.E.E.E.E.E.E.E.E.W.W.W.W.W.W.W.W.W.W.W.W.W.W.W.).W.W.W.W.W.).).).W.W.W.W.W.W.W.W.W.W.W.W.W.W.W.W.W.W.W.W.W.W.W.W.).W.W.W.W.W.).W.W.W.W.W.W.W.W.W.W.).W.W.W.W.W.W.W.W.W.",
"<X<X<X1X1X1X1X3X<X2X4X>.[ ' ) ' ` ` ` ` ` ` ` ` ` ` ` ` ` ` ` ` ` ` ` ` ` ` ` ` ` ` ` ` ` ` ` ` ` ` ` ` ` ` ` ` ` ` ` ` ` ` ` ` ` ` ` ` ` ` ` ` ` ` ` ` ` ` ` _ _ )  .W q 8 s r y y f 6.f.C.8.f e e e g 2.s.a.a.a.a.m.m.b.b.3.g i i <.a.m.a.r.m.b.b.b.b.c.c.c.c.m.r.r.r.z.b.3.g 3 i 4.s.m.m.r.b.b.z.c.m.m.M.s.1.i i 2.s.b.m.c.c.z.z.y.y.r.r.r.r.c.y.c.c.c.c.y.y.h.j.`.yXtXtXrXxXzX%XzXnXAXHXHXHXJXJXJXJXJXJXJXJXJXJXJXJXJXJXJXJXJXJXJXJXJXJXJXJXJXJXJXJXJXJXJXJXJXJXJXJXJXJXJXJXJXJXJXJXJXJXJXJXJXJXJXJXJXJXJXJXJXJXJXJXJXJXJXJXJXJXJXJXJXJXJXJXJXJXJXJXJXJXJXJXJXJXJXJXJXJXJXJXJXJXJXJXJXJXJXJXJXJXJXJXJXJXJXJXJXJXJXJXJXJXJXJXJXJXJXJXJXJXJXJXJXJXJXJXJXJXJXJXJXJXJXJXJXJXJXJXJXJXJXJXJXJXJXJXGXGXJXJXJXJXGXGXJXJXGXGXGXGXJXJXSXSXSXGXGXSXDXCXnXvXxXrXrXrXhX%XhXzXhXjXjXkXjX[.W.H.^ B D D * = * * 1 * * * * 1 1 1 * * = = : Y *.%.%.%.#.#.$.$.$.$.$.$.$.$.$.$.$.$.$.$.$.$.$.$.$.$.$.$.$.$.$.$.$.$.$.$.$.$.$.$.$.$.$.$.$.$.$.$.$.$.$.$.$.$.$.$.$.$.$.$.$.$.$.$.$.$.$.$.$.$.$.$.#.%.Q T F L J J J J J J J J J J J J J J J J J J H I J L J J U V { !.Q.R.R.R.E.E.E.E.E.E.E.E.E.E.E.E.E.E.E.E.Q.Q.Q.Q.Q.Q.Q.Q.Q.Q.W.W.W.W.W.W.W.W.W.W.).).).W.W.W.W.W.W.W.W.W.W.W.W.W.W.W.W.W.W.W.W.W.W.W.).).W.W.W.W.W.W.W.W.W.W.W.W.W.W.W.W.W.W.W.W.).].].).W.",
"<X<X1X1X1X1X1X1X<X2X2X=.[ ' ) ' ` ` ` ` ` ` ` ` ` ` ` ` ` ` ` ` ` ` ` ` ` ` ` ` ` ` ` ` ` ` ` ` ` ` ` ` ` ` ` ` ` ` ` ` ` ` ` ` ` ` ` ` ` ` ` ` ` ` ` ` ` ` _ _ _ T ] W q 7 7 w y y y 6.f.C.7.j t e e e z s.n.a.b.b.m.m.b.s.3.g i i 4.s.m.r.r.r.b.b.b.b.c.c.c.c.m.r.r.r.z.b.3.g e i 4.s.M.m.r.b.b.b.c.c.m.m.s.4.i i 2.s.b.c.c.c.z.c.c.y.r.r.r.r.c.y.y.c.c.c.c.y.y.u.l.uXtXxXxXxXhXhXzXbXCXHXHXHXGXJXJXJXJXJXJXJXJXJXJXJXJXJXJXJXJXJXJXJXJXJXJXJXJXJXJXJXJXJXJXJXJXJXJXJXJXJXJXJXJXJXJXJXJXJXJXJXJXJXJXJXJXJXJXJXJXJXJXJXJXJXJXJXJXJXJXJXJXJXJXJXJXJXJXJXJXJXJXJXJXJXJXJXJXJXJXJXJXJXJXJXJXJXJXJXJXJXJXJXJXJXJXJXJXJXJXJXJXJXJXJXJXJXJXJXJXJXJXJXJXJXJXJXJXJXJXJXJXJXJXJXJXJXJXJXJXJXJXJXJXJXJXJXJXJXJXJXJXJXGXGXJXJXGXGXGXGXJXJXFXFXSXSXDXDXnXbXcXhXjXjXhXhXhX%X%X%XhXhXjXrX[.J.H.^ ^ N D * * * * * * * * * * 1 1 1 * * = = : Y *.%.%.%.#.#.$.$.$.$.O.O.$.$.$.$.$.$.$.$.$.$.$.$.$.$.$.$.$.$.$.$.$.$.$.$.$.$.$.$.$.$.$.$.$.$.$.$.$.$.$.$.$.$.$.$.$.$.$.$.$.$.$.$.$.$.$.$.$.$.$.$.#.%.Q T F L J J J J J J J J J J J J J J J J J J H I J L J J K U { !.Q.R.R.R.E.R.E.E.E.E.R.R.E.E.E.E.E.E.E.E.Q.Q.Q.Q.Q.W.Q.Q.Q.Q.W.W.W.W.W.W.W.W.W.W.).W.).W.W.W.W.W.W.W.W.W.W.W.W.W.).).W.W.W.W.W.W.W.W.).).W.W.W.W.W.W.W.W.W.W.W.W.W.W.W.W.W.W.W.W.W.W.W.W.W.",
"<X<X1X1X1X1X1X1X<X5X4X-.' ' ) ) ` ` ` ` ` ` ` ` ` ` ` ` ` ` ` ` ` ` ` ` ` ` ` ` ` ` ` ` ` ` ` ` ` ` ` ` ` ` ` ` ` ` ` ` ` ` ` ` ` ` ` ` ` ` ` ` ` ` ` ` ` ` _ _ ) T ] R q 9 7 t y r y b g.C.p.b s e e e g 3.s.h.m.m.m.b.a.s.2.g i i 4.s.m.a.r.r.b.b.b.b.c.c.c.c.m.r.r.r.z.b.3.g e i 4.s.m.m.z.b.b.b.z.c.b.b.t.<.i i 2.r.m.c.c.c.z.z.y.y.r.r.r.r.c.c.c.c.c.c.y.y.y.u.j.`.yXvXcXxXhXhXhXxXnXDXGXHXGXJXJXJXJXJXJXJXJXJXJXJXJXJXJXJXJXJXJXJXJXJXJXJXJXJXJXJXJXJXJXJXJXJXJXJXJXJXJXJXJXJXJXJXJXJXJXJXJXJXJXJXJXJXJXJXJXJXJXJXJXJXJXJXJXJXJXJXJXJXJXJXJXJXJXJXJXJXJXJXJXJXJXJXJXJXJXJXJXJXJXJXJXJXJXJXJXJXJXJXJXJXJXJXJXJXJXJXJXJXJXJXJXJXJXJXJXJXJXJXJXJXJXJXJXJXJXJXJXJXJXJXJXJXJXJXJXJXJXJXJXJXJXJXGXGXGXGXGXJXJXJXGXGXGXJXJXJXJXJXFXAXDXCXnXbXcXhXhXhXhXhXhXzX%X&X&X&X&X}.[.J.H.^ ~ ~ ~ N D = * 1 * * * * * * * * 1 1 1 * = = : Y *.%.%.%.#.#.$.$.O.O.O.O.$.$.$.$.$.$.$.$.$.$.$.$.$.$.$.$.$.$.$.$.$.$.$.$.$.$.$.$.$.$.$.$.$.$.$.$.$.$.$.$.$.$.$.$.$.$.$.$.$.$.$.$.$.$.$.$.#.#.#.#.%.%.@.T F L J J J J J J J J J J J J J J J J J J J J J L J J U U R !.Q.R.R.I.R.R.E.E.E.R.R.R.R.E.E.E.E.E.E.E.Q.Q.Q.Q.W.W.Q.Q.W.Q.W.W.W.W.W.W.W.W.W.W.W.W.W.W.W.W.W.W.).).).).).W.W.W.W.).).W.W.W.W.W.W.W.).W.W.W.W.W.W.W.W.W.].].W.).).W.W.).W.).W.W.W.W.W.W.W.",
"<X<X1X1X1X1X1X<X2X5X>X-.) ' ) ) ` ` ` ` ` ` ` ` ` ` ` ` ` ` ` ` ` ` ` ` ` ` ` ` ` ` ` ` ` ` ` ` ` ` ` ` ` ` ` ` ` ` ` ` ` ` ` ` ` ` ` ` ` ` ` ` ` ` ` ` ` ` _ _ ) ) E E q 8 7 t y r y v g.C.g.8.r p e t i 4.s.s.a.m.m.a.a.s.2.g i i 4.s.h.r.r.r.b.b.b.b.c.c.c.c.m.r.r.c.c.b.3.g e i 4.s.m.m.z.b.m.b.z.c.r.b.3.<.i g 2.r.m.c.c.c.r.z.y.y.y.r.r.r.c.c.c.c.c.c.y.y.m.y.i.l.'.tXxXhXrXrXrXhXvXNXSXGXJXJXJXJXJXJXJXJXJXJXJXJXJXJXJXJXJXJXJXJXJXJXJXJXJXJXJXJXJXJXJXJXJXJXJXJXJXJXJXJXJXJXJXJXJXJXJXJXGXGXGXGXGXGXGXGXJXJXJXJXJXJXJXJXJXJXJXJXJXJXJXJXJXJXJXJXJXJXJXJXJXJXJXJXJXJXJXJXJXJXJXJXJXJXJXJXJXJXJXJXJXJXJXJXJXJXJXJXJXJXJXJXJXJXJXJXJXJXJXJXJXJXJXJXJXJXJXJXJXJXJXJXJXJXJXJXGXGXGXGXGXGXGXGXJXGXGXSXSXGXGXJXGXGXGXJXGXGXSXDXAXCXnXmXxXzXhXhXxXhXhX%X%X%X%X&X*X*X[.E.H.H.~ ~ ~ ~ ~ N D = * * * * * * * * * * 1 1 1 * = = : Y *.%.%.%.#.#.$.$.O.O.O.O.$.$.$.$.$.$.$.$.$.$.$.$.$.$.$.$.$.$.$.$.$.$.$.$.$.$.$.$.$.$.$.$.$.$.$.$.$.$.$.$.$.$.$.$.$.$.$.$.$.$.$.$.$.$.$.$.#.#.#.#.%.%.%.T F L J J J J J J J J J J J J J J J J J J J J J L J J U U R !.Q.R.R.I.E.R.E.E.E.R.R.R.E.E.E.E.E.E.E.E.Q.Q.Q.Q.W.W.Q.W.W.W.W.W.W.W.W.W.W.W.W.W.W.W.W.W.W.W.W.W.).).).).W.W.W.W.).).).W.W.W.W.W.W.W.W.W.W.W.W.W.W.W.W.).].].).).W.W.W.).).).W.W.W.W.W.).].",
"<X<X1X1X1X1X1X<X3X4X;.[ / ) ' ) ` ` ` ` ` ` ` ` ` ` ` ` ` ` ` ` ` ` ` ` ` ` ` ` ` ` ` ` ` ` ` ` ` ` ` ` ` ` ` ` ` ` ` ` ` ` ` ` ` ` ` ` ` ` ` ` ` ` ` ` ` ` _ _ ) ) ] E V 9 7 s r w y v d.C.C.p.6.j w t e g 4.3.a.h.m.a.a.s.4.i i i 1.a.a.a.a.a.b.b.b.b.c.c.c.c.m.z.c.c.c.b.3.g e i 4.s.M.m.r.b.m.b.z.z.r.b.3.<.i g 2.r.b.c.c.y.c.c.c.c.c.c.c.c.c.c.c.c.c.c.c.y.c.h.i.u.`.yXxXjXzXzXhXrXxXnXDXGXJXJXJXJXJXJXJXJXJXJXJXJXJXJXJXJXJXJXJXJXJXJXJXJXJXJXJXJXJXJXJXJXJXJXJXJXJXJXJXJXJXJXJXJXJXJXJXJXGXGXGXGXGXGXGXGXJXJXJXJXJXJXJXJXJXJXJXJXJXJXJXJXJXJXJXJXJXJXJXJXJXJXJXJXJXJXJXJXJXJXJXJXJXJXJXJXJXJXJXJXJXJXJXJXJXJXJXJXJXJXJXJXJXJXJXJXJXJXJXJXJXJXJXJXJXJXJXJXJXJXJXJXJXJXJXJXGXGXGXGXGXGXGXGXPXJXJXGXSXSXGXGXJXJXGXSXDXCXNXnXnXbXcXzXhXhXhXhXhXhX%X%X%X&X*X*X*X*X/.^ ^ ~ ~ ~ ~ ~ ~ N D = * * 1 1 * * * * * * 1 1 1 1 = = : Y *.%.%.%.#.#.$.$.O.O.O.O.$.$.$.$.$.$.$.$.$.$.$.$.$.$.$.$.$.$.$.$.$.$.$.$.$.$.$.$.$.$.$.$.$.$.$.$.$.$.$.$.$.$.$.$.$.$.$.$.$.$.$.$.$.$.$.$.#.$.$.$.#.%.%.T F L H J J J J J J J J J J J J J J J J J J J J J J J U U R !.!.R.R.I.E.R.E.R.R.R.R.R.R.E.E.E.E.E.Q.Q.Q.Q.Q.W.W.W.W.W.W.W.W.W.W.W.W.W.W.W.).).W.W.W.).).).W.W.W.).).W.W.W.W.W.).).).W.W.W.W.).).).).).).W.W.W.W.W.W.W.^.^.W.W.W.W.W.W.W.W.W.W.W.).].].{.",
"<X<X1X1X1X1X1X<X3X4X>.[ ) ) ' ) ` ` ` ` ` ` ` ` ` ` ` ` ` ` ` ` ` ` ` ` ` ` ` ` ` ` ` ` ` ` ` ` ` ` ` ` ` ` ` ` ` ` ` ` ` ` ` ` ` ` ` ` ` ` ` ` ` ` ` ` ` ` _ _ _ ) ] E V 9 7 s r w u j 9.C.C.g.g.5.r r e e g 4.t.a.h.h.b.s.2.i i g 2.a.a.a.m.r.b.b.b.b.c.c.c.c.m.z.c.c.c.b.3.g e i 4.s.M.m.r.b.b.b.z.z.b.b.3.<.i g 2.r.b.c.c.y.c.c.y.c.c.c.c.c.c.c.c.c.c.c.c.y.r.m.u.i.l.`.tXxXxXxXzXrXhXbXCXSXJXJXJXJXJXJXJXJXJXJXJXJXJXJXJXJXJXJXJXJXJXJXJXJXJXJXJXJXJXJXJXJXJXJXJXJXJXJXJXJXJXJXJXJXJXJXJXJXGXGXGXGXGXGXGXGXJXJXJXJXJXJXJXJXJXJXJXJXJXJXJXJXJXJXJXJXJXJXJXJXJXJXJXJXJXJXJXJXJXJXJXJXJXJXJXJXJXJXJXJXJXJXJXJXJXJXJXJXJXJXJXJXJXJXJXJXJXJXJXJXJXJXJXJXJXJXJXJXJXJXJXJXJXJXJXJXGXGXGXGXGXGXGXGXJXJXGXGXGXJXJXJXJXGXDXCXnXbXbXcXcXxXhXzXzXhXhX%X.X&X&X&X&X*X*X/.*X*X/.^ ~ ~ ~ ~ ~ ~ ~ N D * * * * * * * * * * 1 1 1 1 1 = = : Y *.%.%.%.#.#.$.$.O.O.O.O.$.$.$.$.$.$.$.$.$.$.$.$.$.$.$.$.$.$.$.$.$.$.$.$.$.$.$.$.$.$.$.$.$.$.$.$.$.$.$.$.$.$.$.$.$.$.$.$.$.$.$.$.$.$.$.$.#.#.O.$.$.%.%.T F L H J J J J J J J J J J J J J J J J J J J I J J J U U R !.!.R.R.I.E.R.E.E.R.R.R.R.R.E.E.E.E.E.Q.Q.Q.Q.Q.W.W.W.W.W.W.W.W.W.W.W.W.W.W.W.).).).W.W.).W.).W.W.W.W.).W.W.W.W.W.).).).).W.W.W.W.).).W.).).W.W.W.W.W.W.W.^.W.W.W.W.W.W.W.W.W.W.).].].{.{.OX",
"<X<X<X1X1X1X3X<X2X4X=.' ) ) ' ' ` ` ` ` ` ` ` ` ` ` ` ` ` ` ` ` ` ` ` ` ` ` ` ` ` ` ` ` ` ` ` ` ` ` ` ` ` ` ` ` ` ` ` ` ` ` ` ` ` ` ` ` ` ` ` ` ` ` ` ` ` ` _ _ _ ` ] E U 9 7 t y w w h 8.C.C.C.C.8.p r r r i g 2.t.a.h.M.a.1.g i g 2.a.a.a.m.r.b.b.b.b.c.c.c.c.m.z.c.c.c.b.3.g e i 4.s.M.m.r.b.b.b.b.c.b.m.s.4.i g 2.t.b.c.c.y.c.c.y.y.c.c.c.c.y.y.c.c.c.c.c.c.r.c.y.i.u.S.yXxXtXrXrXrXrXxXbXDXJXJXJXJXJXJXJXJXJXJXJXJXJXJXJXJXJXJXJXJXJXJXJXJXJXJXJXJXJXJXJXJXJXJXJXJXJXJXJXJXJXJXJXJXJXJXJXJXGXGXGXGXGXGXGXGXJXJXJXJXJXJXJXJXJXJXJXJXJXJXJXJXJXJXJXJXJXJXJXJXJXJXJXJXJXJXJXJXJXJXJXJXJXJXJXJXJXJXJXJXJXJXJXJXJXJXJXJXJXJXJXJXJXJXJXJXJXJXJXJXJXJXJXJXJXJXJXJXJXJXJXJXJXJXJXJXGXGXGXGXGXGXGXGXSXGXGXGXGXGXSXSXCXNXnXbXbXcXxXxXhXhXhXhXxXhXhX&X&X&X&X*X*X/././.*X*X=X^ ~ ~ ~ ~ ~ ~ ~ N D * * 1 * 1 1 * * * * 1 1 1 1 1 = = : Y *.%.%.%.#.#.$.$.O.O.O.O.$.$.$.$.$.$.$.$.$.$.$.$.$.$.$.$.$.$.$.$.$.$.$.$.$.$.$.$.$.$.$.$.$.$.$.$.$.$.$.$.$.$.$.$.$.$.$.$.$.$.$.$.$.$.$.$.O.O.O.$.$.%.%.T F F H J J J J J J J J J J J J J J J J J H I J J J J U U R !.!.R.R.R.E.R.E.E.E.E.E.E.E.E.E.E.E.E.Q.Q.Q.Q.W.W.W.W.W.W.W.W.W.W.W.W.W.W.W.W.W.W.W.W.W.W.W.W.W.W.W.W.).).W.W.W.W.W.).W.W.W.W.W.W.W.W.W.W.W.W.W.W.W.W.W.W.W.W.W.W.).W.).W.W.W.W.].].{.}..X.X",
"<X<X<X1X1X1X3X<X2X4X-.' ) ) ) ` ` ` ` ` ` ` ` ` ` ` ` ` ` ` ` ` ` ` ` ` ` ` ` ` ` ` ` ` ` ` ` ` ` ` ` ` ` ` ` ` ` ` ` ` ` ` ` ` ` ` ` ` ` ` ` ` ` ` ` ` ` ` _ _ _ ` ]  .U 9 8 u y w w p 8.C.C.C.C.9.j y w r p g 4.t.a.h.M.a.2.g i g 2.a.a.a.m.r.b.b.b.b.c.c.c.c.m.c.z.c.c.m.3.g e i 4.s.M.m.r.b.b.r.b.m.m.M.s.4.i g 2.t.b.c.c.y.c.c.c.c.c.c.c.c.y.y.y.y.c.c.c.c.m.c.m.u.i.l.`.yXtXtXrXrXrXhXcXUXJXJXJXJXJXJXJXJXJXJXJXJXJXJXJXJXJXJXJXJXJXJXJXJXJXJXJXJXJXJXJXJXJXJXJXJXJXJXJXJXJXJXJXJXJXJXJXJXGXGXGXGXGXGXGXGXJXJXJXJXJXJXJXJXJXJXJXJXJXJXJXJXJXJXJXJXJXJXJXJXJXJXJXJXJXJXJXJXJXJXJXJXJXJXJXJXJXJXJXJXJXJXJXJXJXJXJXJXJXJXJXJXJXJXJXJXJXJXJXJXJXJXJXJXJXJXJXJXJXJXJXJXJXJXJXJXGXGXGXGXGXGXGXGXJXJXGXSXDXCXNXnXbXbXcXcXxXxXxXxXxXhXhXhXhXhXhX&X&X&X*X}././.^ ^ =X*X=X^ ~ ~ ~ ~ ~ ~ ~ N D * * 1 1 1 1 1 * * * * 1 1 1 1 = = : Y *.%.%.#.#.#.$.$.O.O.O.O.$.$.$.$.$.$.$.$.$.$.$.$.$.$.$.$.$.$.$.$.$.$.$.$.$.$.$.$.$.$.$.$.$.$.$.$.$.$.$.$.$.$.$.$.$.$.$.$.$.$.$.$.$.$.$.$.O.O.O.O.$.%.%.T F F H J J J J J J J J J J J J J J J J J J J J L J J U U R !.!.R.R.R.E.R.E.E.E.E.E.E.E.E.E.E.E.E.Q.Q.Q.Q.W.W.W.W.W.W.W.W.W.W.W.W.W.W.W.W.W.W.W.W.W.W.W.W.W.W.W.W.W.).W.W.W.W.W.W.W.W.W.W.W.W.W.W.W.W.W.W.W.W.W.W.W.W.W.W.W.W.).).).W.W.W.W.].].}..X&XhX",
"2X2X<X<X1X1X3X3X4X;.-.) / ) _ _ ` ` ` ` ` ` ` ` ` ` ` ` ` ` ` ` ` ` ` ` ` ` ` ` ` ` ` ` ` ` ` ` ` ` ` ` ` ` ` ` ` ` ` ` ` ` ` ` ` ` ` ` ` ` ` ` ` ` ` ` ` ` _ _ _ ` ] ] W q 7 t w w w y v g.C.C.C.d.6.y w y r e e 4.t.h.h.a.1.i e g 2.a.r.a.m.r.b.b.b.b.c.c.c.c.m.m.m.c.r.r.t.<.2 i 4.s.M.m.z.b.r.m.c.c.b.b.s.4.i i 4.t.b.c.c.c.c.z.r.r.r.z.z.z.c.c.c.c.c.c.c.c.m.c.r.y.u.i.l.yXvXtXvXvXjXrXhXbXDXGXPXJXGXJXJXGXJXJXJXJXJXJXJXJXJXJXJXJXJXJXJXJXJXJXJXJXJXJXJXJXJXJXJXJXJXJXJXJXJXJXJXJXJXJXJXJXJXGXGXSXSXGXGXJXGXGXGXGXGXGXGXGXJXGXGXGXGXGXGXGXJXJXJXJXJXJXJXJXGXGXGXGXGXJXJXJXGXGXGXGXGXGXGXGXGXGXGXGXGXGXGXGXGXGXGXGXGXGXGXGXGXGXGXGXGXGXGXGXGXGXGXGXGXJXJXJXJXJXJXJXJXGXGXGXJXJXJXGXGXGXSXSXDXCXNXnXbXbXcXxXxXxXhXxXxXxXhXhXhXhXhX%XhXhX&X&X*X*X*X/./.,.^ ^ =XlX=X^ ~ ~ ~ ~ ~ ~ ~ N D * * 1 * * * * * * * * * 1 1 = = = : Y *.%.%.%.%.#.$.$.+.+.+.+.$.$.$.$.$.$.$.$.$.$.$.$.$.$.$.$.$.$.$.$.$.$.$.$.$.$.$.$.$.$.$.$.$.$.$.$.$.$.$.$.$.$.$.$.$.$.$.$.$.$.$.$.$.$.$.$.$.$.$.$.%.%.%.Q I F H I J J J J J J J J J J J J J J J J J J J J J J U U R { !.R.R.R.E.E.E.E.E.R.R.R.E.E.E.E.E.E.E.Q.Q.W.W.W.Q.Q.W.W.W.W.W.W.W.W.W.W.W.W.W.W.W.W.).W.W.W.W.W.W.W.W.W.W.W.W.W.W.W.W.W.W.W.W.W.W.W.W.W.W.W.W.W.W.W.W.W.W.W.W.W.W.W.W.).).].{.{.OX.XhXhXhX",
"2X2X<X1X1X,X3X2X4X;.-.) / _ ` ` ` ` ` ` ` ` ` ` ` ` ` ` ` ` ` ` ` ` ` ` ` ` ` ` ` ` ` ` ` ` ` ` ` ` ` ` ` ` ` ` ` ` ` ` ` ` ` ` ` ` ` ` ` ` ` ` ` ` ` ` ` ` _ _ _ ` ] ] R q 7 t w w w y v d.C.C.C.f.7.j y y y e e g 3.a.h.a.1.i i g 2.a.r.a.m.r.b.b.b.b.c.c.c.c.m.m.m.c.r.r.t.<.e i 4.s.M.m.z.c.r.m.c.c.z.b.s.4.i i 4.r.b.y.c.c.z.z.r.r.z.z.z.z.c.c.c.c.c.c.c.c.c.c.r.y.u.i.l.`.tXtXsXrXhXhXhXcXNXAXJXJXJXJXJXGXJXJXJXJXJXJXJXJXJXJXJXJXJXJXJXJXJXJXJXJXJXJXJXJXJXJXJXJXJXJXJXJXJXJXJXJXJXJXJXJXSXAXDXCXCXCXCXDXDXDXDXDXAXAXSXGXGXGXGXJXJXJXJXJXGXGXGXGXGXJXJXJXJXJXJXGXGXGXGXGXJXJXJXJXJXJXJXJXGXGXGXGXGXGXGXGXGXGXGXGXGXGXGXGXGXJXJXJXJXJXJXJXJXJXJXGXGXGXGXGXJXJXJXGXGXGXGXGXJXGXGXAXDXCXNXNXbXbXbXcXcXxXhXhXhXhXxXxXxXhXxXxXhXhXhX%XhX%X}.{.*X*X*X/.,.,.^ ^ =X=X=X^ ~ ~ ~ ~ ~ ~ ~ N D * * 1 * * * * * * * * * 1 1 = = = : Y *.%.%.%.%.#.$.$.+.+.+.+.$.$.$.$.$.$.$.$.$.$.$.$.$.$.$.$.$.$.$.$.$.$.$.$.$.$.$.$.$.$.$.$.$.$.$.$.$.$.$.$.$.$.$.$.$.$.$.$.$.$.$.$.$.$.$.$.$.$.$.$.#.%.%.Q I F H I H J J J J J J J J J J J J J J J J J J J J J U U R { !.I.R.R.E.E.E.E.E.R.R.R.E.E.E.E.E.E.E.Q.Q.W.W.W.Q.W.W.W.W.W.W.W.W.W.W.W.W.W.W.W.W.W.).).W.W.W.W.W.W.).).W.W.W.W.W.W.W.W.W.W.W.W.).W.W.W.W.W.W.W.W.W.W.W.W.W.).W.W.W.W.].].].}.OX.X%XhXhXhX",
"2X2X<X1X1X,X3X2X4X>.[ ) ) _ ` ` ` ` ` ` ` ` ` ` ` ` ` ` ` ` ` ` ` ` ` ` ` ` ` ` ` ` ` ` ` ` ` ` ` ` ` ` ` ` ` ` ` ` ` ` ` ` ` ` ` ` ` ` ` ` ` ` ` ` ` ` ` ` _ _ _ ` ] ] E q 9 u w w w y v p.C.C.C.C.d.6.p u r r r g 2.t.a.s.4.i i g 2.a.a.a.m.a.b.b.b.b.c.c.c.c.b.m.m.c.r.r.t.4.e i 4.s.M.m.z.c.a.m.c.c.z.b.s.4.i i 4.r.b.y.c.c.z.z.z.r.z.z.z.z.c.c.c.c.c.c.c.c.z.z.c.c.u.i.u.l.yXtXtXtXrXhXxXxXbXCXGXJXJXJXGXGXJXJXJXJXJXJXJXJXJXJXJXJXJXJXJXJXJXJXJXJXJXJXJXJXJXJXJXJXJXJXJXJXJXJXJXJXJXJXJXJXGXAXCXnXnXbXbXbXnXnXnXnXNXCXDXAXAXAXSXGXJXJXJXJXJXJXJXJXGXGXGXGXJXJXJXJXGXGXGXGXGXGXGXGXGXGXGXGXJXJXJXJXJXJXJXJXJXJXJXJXJXJXJXJXGXGXGXGXGXJXJXJXJXJXJXJXJXJXJXJXSXGXGXGXGXGXGXGXCXCXNXnXbXbXcXcXcXcXcXxXxXxXhXhXhXhXxXhXhXhXhXxXhXhXhX%XhX&X].E./.*X*X/.,.,.^ ^ =X=X=X^ ~ ~ ~ ~ ~ ~ ~ N D * * 1 * * * * * * * * * 1 1 = = = : Y *.%.%.%.#.#.$.$.+.+.+.+.$.$.$.$.$.$.$.$.$.$.$.$.$.$.$.$.$.$.$.$.$.$.$.$.$.$.$.$.$.$.$.$.$.$.$.$.$.$.$.$.$.$.$.$.$.$.$.$.$.$.$.$.$.#.$.$.$.$.+.#.#.#.%.Q I F H I H J J J J J J J J J J J J J J J J J J J J J U U Y { !.I.I.R.E.E.E.E.E.E.R.E.E.E.E.E.E.E.E.Q.Q.W.W.W.W.W.W.W.W.W.W.W.W.W.W.W.W.W.).).W.W.).).W.W.).).W.W.).).W.W.W.W.).).).W.).W.W.W.).).W.W.).).E.E.W.W.W.W.W.W.).W.W.W.).].{.}..XXX%XhXhXhXhX",
"2X2X<X1X1X,X3X2X4X=.' ) _ _ ` ` ` ` ` ` ` ` ` ` ` ` ` ` ` ` ` ` ` ` ` ` ` ` ` ` ` ` ` ` ` ` ` ` ` ` ` ` ` ` ` ` ` ` ` ` ` ` ` ` ` ` ` ` ` ` ` ` ` ` ` ` ` ` _ _ _ ` ) ] E V 9 8 u w w w j 9.C.C.C.C.C.9.j y w r h d g 2.s.s.4.i i g 2.a.a.a.m.a.b.b.b.b.c.c.c.c.b.m.m.c.y.z.t.4.e i 4.s.M.m.z.c.a.m.c.c.z.b.s.4.i i 4.r.b.c.c.c.z.z.z.r.z.c.c.c.c.c.c.c.c.c.c.c.z.c.c.c.y.i.i.j.`.yXdXrXrXhXxXhXcXnXDXJXJXJXGXGXGXGXGXGXGXGXGXGXJXJXJXJXJXJXJXJXJXJXJXJXJXJXJXJXJXJXJXJXJXJXJXJXJXJXJXJXJXJXJXJXJXGXDXCXnXbXcXxXxXxXxXcXcXbXnXnXNXNXCXCXDXDXAXAXGXGXGXGXGXGXGXGXJXKXJXJXJXJXJXJXGXGXGXJXJXJXJXJXJXJXJXJXJXJXJXJXJXJXJXJXJXJXJXJXGXGXGXGXGXGXGXGXJXJXJXJXJXJXGXGXGXSXAXDXNXnXnXnXbXcXcXcXxXxXxXxXxXxXxXhXhXhXhXhXhXhXhXhXhXhXrXrXhXhX%X%XhX&X].I./.*X*X,.,.^ ^ ^ =X=X=X^ ~ ~ ~ ~ ~ ~ ~ N D * * 1 * * * * * * * * * 1 1 = = = : Y *.%.%.%.#.#.$.$.O.O.+.+.$.$.$.$.$.$.$.$.$.$.$.$.$.$.$.$.$.$.$.$.$.$.$.$.$.$.$.$.$.$.$.$.$.$.$.$.$.$.$.$.$.$.$.$.$.$.$.$.$.$.$.$.#.#.$.$.$.#.+.+.#.#.%.Q T F F I H J J J J J J J J J J J J J J J J J J J J J J U U { !.I.I.E.E.E.E.E.E.E.R.E.E.E.E.E.E.E.E.Q.Q.W.W.W.W.W.W.W.W.W.W.W.W.W.W.W.W.W.).).W.W.W.W.W.W.).).).W.).W.W.W.W.).).).).).).W.W.W.).).).).).W.E.E.Q.W.W.W.).).).W.).].].{.oX.XhXhXzXzXzXxXhX",
"2X2X2X<X<X<X3X2X4X-.) ) _ _ _ _ ` ` ` ` ` ` ` ` ` ` ` ` ` ` ` ` ` ` ` ` ` ` ` ` ` ` ` ` ` ` ` ` ` ` ` ` ` ` ` ` ` ` ` ` ` ` ` ` ` ` ` ` ` ` ` ` ` ` ` ` ` ` _ _ _ _ ) ]  .W m 8 u w w w h 9.C.C.C.C.C.d.v y w r h e d x 8.8.4.i i g 2.a.a.h.m.a.b.b.b.b.c.c.c.c.b.m.c.c.y.c.s.4.i i 4.0.n.m.z.c.a.m.c.c.z.b.s.4.i i 4.r.b.c.c.c.r.r.r.r.z.r.r.z.c.c.c.c.c.c.c.c.c.c.c.r.y.y.u.u.l.uXdXxXrXrXxXhXhXbXNXSXJXJXGXGXGXGXGXGXGXGXGXGXJXJXJXJXJXJXJXJXJXJXJXJXJXJXJXJXJXJXJXJXJXJXJXJXJXJXJXJXJXJXJXJXJXJXGXAXCXnXbXcXhXhXrXrXrXhXxXcXcXcXbXbXbXnXnXnXnXnXNXCXDXDXAXAXGXGXGXGXGXJXJXJXJXJXJXJXJXJXJXJXJXJXJXJXJXJXJXJXJXJXJXJXJXJXJXJXJXJXJXJXGXGXGXSXGXGXAXDXCXNXnXnXnXnXnXbXcXxXhXhXhXxXxXxXxXxXxXxXxXhXhXhXhXhXhXhXhXhXhXhXcXcXxXhXhXhX%X%X7X&X}.Q./.*X*X,.^ L.^ ^ /.=X=X^ ~ ~ ~ ~ ~ ~ ~ N D D * D * * * * * * * * 1 1 1 1 = = : Y *.%.%.%.#.#.$.$.O.O.O.O.$.$.$.$.$.$.$.$.$.$.$.$.$.$.$.$.$.$.$.$.$.$.$.$.$.$.$.$.$.$.$.$.$.$.$.$.$.$.$.$.$.$.$.$.$.$.$.$.$.$.$.$.#.#.#.$.$.$.+.+.#.#.%.@.T F F I H J J J J J J J J J J J J J J J J J J J J J J U V { !.I.I.E.E.E.E.E.E.E.E.E.E.E.E.E.E.Q.E.Q.Q.W.W.W.W.W.W.W.W.W.W.W.W.W.W.W.W.W.).W.W.W.W.).W.W.W.W.W.W.).).W.W.W.W.).).).).W.W.W.W.).).).W.W.W.E.E.W.W.W.).).).W.].].{.OX.XrXhXhXzXzXxXxXxXxX",
"2X2X2X<X<X<X3X2X>X-./ ' _ _ _ _ ` ` ` ` ` ` ` ` ` ` ` ` ` ` ` ` ` ` ` ` ` ` ` ` ` ` ` ` ` ` ` ` ` ` ` ` ` ` ` ` ` ` ` ` ` ` ` ` ` ` ` ` ` ` ` ` ` ` ` ` ` ` _ _ ` _ ' ]  .W m 8 u w w s y 8.g.C.C.C.C.f.7.j y w r e e g 2.2.z e i g 2.a.a.h.m.m.b.b.b.b.c.c.c.c.b.m.c.c.c.c.a.4.i i 4.3.n.m.z.z.r.m.c.c.r.b.s.4.i i 4.r.b.c.c.c.z.r.r.z.r.r.z.z.c.c.c.c.c.c.c.c.c.c.c.z.z.y.u.u.u.`.yXxXrXrXxXxXhXxXnXDXGXGXGXGXGXGXGXGXGXGXGXGXJXJXJXJXJXJXJXJXJXJXJXJXJXJXJXJXJXJXJXJXJXJXJXJXJXJXJXJXJXJXJXJXGXGXJXGXSXDXCXNXbXbXcXxXhXrXrXXXrXrXrXhXhXxXxXxXcXcXcXbXbXbXnXnXnXnXnXnXnXNXNXNXCXCXCXCXDXDXDXDXDXDXDXDXDXDXDXDXDXDXDXDXDXDXDXDXDXDXDXCXCXNXNXNXnXnXnXbXbXcXxXxXhXhXhXhXhXhXhXhXhXhXhXhXhXhXhXhXhXhXhXhXhXhXhXhXxXxXxXbXnXnXbXcXxXzX7X7X%X%X&X{./.*X8X,.L.L.^ ^ /.=X=XL.~ ~ ~ ~ ~ ~ ~ N D D * * * * * * * * * * 1 1 1 1 = = : Y *.%.%.%.#.#.$.$.O.O.O.O.$.$.$.$.$.$.$.$.$.$.$.$.$.$.$.$.$.$.$.$.$.$.$.$.$.$.$.$.$.$.$.$.$.$.$.$.$.$.$.$.$.$.$.$.$.$.$.$.$.$.$.$.#.#.#.$.$.$.+.+.#.#.%.@.T F F I H J J J J J J J J J J J J J J J J J J J J J U U V { !.I.T.Q.Q.E.E.E.E.E.E.E.E.E.E.E.E.Q.Q.Q.Q.W.W.W.W.W.W.W.W.W.W.W.W.W.W.W.W.W.W.W.W.W.).).W.W.W.W.W.W.).).W.W.W.W.).W.W.W.W.W.W.W.).).W.W.W.W.E.W.W.W.).].].].].].{.oXrXhXjXhXhXhXzXzXxXxXxX",
"2X2X<X<X<X,X3X2X;.&./ ) _ _ ` ` ` ` ` ` ` ` ` ` ` ` ` ` ` ` ` ` ` ` ` ` ` ` ` ` ` ` ` ` ` ` ` ` ` ` ` ` ` ` ` ` ` ` ` ` ` ` ` ` ` ` ` ` ` ` ` ` ` ` ` ` ` ` _ _ ` ` ' ]  .R n 8 u w w u y 6.g.C.C.C.C.C.d.6.p y r r t e z 2.z e i g 2.a.a.h.m.m.b.b.b.b.c.c.c.c.b.m.c.c.c.m.a.4.i i <.3.b.m.z.z.r.m.c.r.r.a.s.<.i i 4.r.b.z.z.c.z.z.z.z.z.z.z.z.c.c.c.c.c.c.c.c.c.c.c.c.z.y.y.u.i.l._.tXtXrXhXhXhXxXbXNXAXGXGXGXGXGXGXGXGXGXGXGXJXJXJXJXJXJXJXJXJXJXJXJXJXJXJXJXJXJXJXJXJXJXJXJXJXJXJXJXJXJXJXJXSXGXGXGXGXGXSXAXDXCXnXnXbXcXxXxXhXhXhXhXhXhXhXhXhXhXxXxXxXxXxXxXxXxXxXxXcXcXcXcXcXbXbXbXbXbXbXbXbXbXbXbXbXbXbXbXbXbXbXbXbXbXbXbXbXbXbXbXcXcXcXcXhXhXhXhXhXhXhXhXxXxXhXhXhXhXhXhXhXhXhXrXrXrXrXrXrXrXhXhXxXxXcXcXbXnXnXCXAXDXCXnXxXzX7X7X7X%X&X}./.*X8X,.L.L.^ ^ /.=X=XL.~ ~ ~ ~ ~ ~ ~ N D D * * * * * * * * * * 1 1 1 1 = = : Y *.%.%.%.#.#.$.$.O.O.O.O.$.$.$.$.$.$.$.$.$.$.$.$.$.$.$.$.$.$.$.$.$.$.$.$.$.$.$.$.$.$.$.$.$.$.$.$.$.$.$.$.$.$.$.$.$.$.$.$.$.$.$.$.#.#.#.$.$.$.$.+.#.#.%.%.T F F I H J J J J J J J J J J J J J J J H J J J J J J U V R !.P.T.Q.Q.E.E.E.E.E.E.E.E.E.E.E.E.Q.Q.Q.Q.Q.W.Q.W.W.W.W.W.W.W.W.W.W.W.W.W.W.W.W.W.W.).W.W.W.W.W.W.W.).W.W.W.W.W.W.W.W.W.W.W.W.W.W.W.W.W.W.W.W.W.W.).].].].].{.OXoXrXhXjXjXhXzXzXzXzXxXxXxX",
"2X2X<X<X<X<X3X2X;.[ / ) _ _ o.o.` ` ` ` ` ` ` ` ` ` ` ` ` ` ` ` ` ` ` ` ` ` ` ` ` ` ` ` ` ` ` ` ` ` ` ` ` ` ` ` ` ` ` ` ` ` ` ` ` ` ` ` ` ` ` ` ` ` ` ` ` ` ` ` ` _ ' ` ] E q 7 7 u w s y b g.C.C.C.C.C.C.7.j y r r w e g 2.z e e g 2.a.a.h.m.m.m.m.m.m.b.b.b.b.b.m.c.c.c.m.a.1.i i <.3.b.m.b.z.r.m.c.r.r.a.s.4.i i 4.r.b.z.z.c.z.z.z.z.z.z.z.z.c.c.c.c.c.c.c.c.r.r.c.c.z.r.y.u.i.i.`.yXtXjXhXhXxXhXcXnXDXGXGXGXGXGXGXGXGXGXGXGXJXJXJXJXJXJXJXJXJXJXJXJXJXJXJXJXJXJXJXJXJXJXJXJXJXJXJXJXJXJXJXJXGXGXSXAXAXSXGXGXGXGXAXDXCXnXnXnXcXcXcXcXxXxXxXxXhXhXhXhXhXhXhXhXhXhXhXhXhXxXxXzXhXhXhXhXhXxXxXxXxXxXxXxXxXxXxXxXxXxXxXxXxXxXxXxXxXhXhXhXhXrXrXrXhXhXhXhXhXhXxXxXxXxXxXxXhXhXhXhXhXhXhXhXhXhXhXhXxXxXcXbXbXnXnXnXCXDXSXJXPXJXDXCXcXzXzX7X%X%X%X|./.*X8X=X,.^ ^ ^ /.*X=XL.~ ~ ~ ~ ~ ~ ~ N D D * 1 * * * * * * * * 1 1 1 1 = = : Y *.%.%.%.#.#.$.$.+.O.O.O.$.$.$.$.$.$.$.$.$.$.$.$.$.$.$.$.$.$.$.$.$.$.$.$.$.$.$.$.$.$.$.$.$.$.$.$.$.$.$.$.$.$.$.$.$.$.$.$.$.$.$.$.$.$.$.$.$.$.$.$.#.#.%.%.T F F I H J J J J J J J J J J J J J J J H J J J J J J U V R !.P.I.^.^.E.E.E.E.E.E.E.E.E.E.E.E.Q.Q.Q.Q.Q.Q.Q.W.W.W.W.W.W.W.W.W.W.W.W.W.W.W.W.W.W.).W.W.W.W.W.W.W.W.W.W.W.W.W.W.W.W.W.W.W.W.W.W.W.W.W.W.W.W.W.W.].].].].].OXoX.XhXjXhXhXhXxXzXzXxXxXxXxX",
"<X<X2X,X,X3X2X5X=.' ) ` ` o.o.` ` ` ` ` ` ` ` ` ` ` ` ` ` ` ` ` ` ` ` ` ` ` ` ` ` ` ` ` ` ` ` ` ` ` ` ` ` ` ` ` ` ` ` ` ` ` ` ` ` ` ` ` ` ` ` ` ` ` ` ` ` ` ` ` ` ) ' ' ] E U m 7 u w w y j g.F.F.C.C.C.C.g.6.h r r w r h h g e e g t.a.h.h.h.y.y.y.a.a.a.a.m.m.m.m.c.c.c.m.t.3.i i g 2.s.M.m.b.r.z.c.r.z.m.t.<.i i 4.s.b.c.c.c.z.z.z.z.z.z.z.z.z.z.z.z.z.z.z.z.c.c.c.c.c.c.c.y.u.i.l.`.yXjXhXhXhXrXrXcXNXAXHXGXJXJXSXSXSXJXJXGXJXJXJXJXJXJXJXJXJXJXJXJXJXJXJXJXJXJXJXJXJXJXJXJXJXJXJXJXJXJXJXJXGXGXGXGXGXGXGXGXJXJXGXGXSXAXAXAXCXCXNXnXbXcXcXxXhXhXhXhXhXhXhXhXxXxXxXxXxXxXxXxXhXhXhXhXhXhXhXhXhXhXhXhXhXhXhXhXhXhXhXhXhXhXhXhXhXhXhXhXhXhXhXhXhXhXhXhXhXhXhXhXrXrXrXhXhXhXhXhXhXhXhXxXcXcXcXbXnXnXnXNXCXDXAXAXJXJXGXGXGXGXGXSXDXbXhXhXhXzX%X&X}.8X8X=X,.^ ^ ^ ^ =XlXL.^ ~ ~ ~ ~ ~ ~ N D = 1 1 * * * * * * * * 1 1 1 = = = & Y *.@.%.%.#.#.#.+.+.+.O.O.$.$.$.$.$.$.$.$.$.$.$.$.$.$.$.$.$.$.$.$.$.$.$.$.$.$.$.$.$.$.$.$.$.$.$.$.$.$.$.$.$.$.$.$.$.$.$.$.$.$.$.$.+.+.+.+.#.#.#.#.%.%.%.%.T F F L H H H H H H H H J H H H H H H H H H J J J J J P V R I.P.P.R.E.E.E.E.E.E.E.E.E.E.E.E.E.Q.Q.Q.Q.W.W.W.W.W.W.W.W.W.W.W.W.W.W.W.W.W.W.W.W.).W.W.W.W.W.W.).).W.W.W.W.W.W.W.).^.].^.^.].].W.W.W.W.W.W.].].W.W.].].}.oXhX%XhXhXhXzXzXxXxXzXzXzXxXxXxX",
"<X2X<X,X2X3X4X2X=.' ) ` ` o.o.o.` ` ` ` ` ` ` ` ` ` ` ` ` ` ` ` ` ` ` ` ` ` ` ` ` ` ` ` ` ` ` ` ` ` ` ` ` ` ` ` ` ` ` ` ` ` ` ` ` ` ` ` ` ` ` ` ` ` ` ` ` ` ` ` ` ) ) _ ` ] P m 8 y w w y j 0.F.C.C.C.C.C.f.8.l r r w r r r r e e g t.a.a.h.h.y.y.y.h.a.a.a.b.b.m.m.m.c.m.m.r.3.g i g 2.s.M.b.b.r.z.c.r.z.m.t.<.i i 4.s.b.c.c.c.z.z.z.z.z.z.z.z.z.z.z.z.z.z.z.z.c.c.c.c.c.c.c.y.y.u.j.S.yXtXhXrXhXhXhXxXnXAXHXGXJXGXSXSXSXSXGXGXJXJXJXJXJXJXJXJXJXJXJXJXJXJXJXJXJXJXJXJXJXJXJXJXJXJXJXJXJXJXJXJXGXGXGXGXGXGXGXGXGXGXGXGXGXSXAXAXGXAXAXDXCXNXnXnXbXbXbXbXcXxXxXxXxXxXxXhXhXhXhXhXhXhXhXhXhXhXhXhXhXhXhXhXhXhXhXhXhXhXhXhXhXhXhXhXhXhXhXhXhXhXhXhXhXhXhXhXhXhXhXhXxXxXxXxXxXcXcXcXbXbXbXnXnXNXCXCXDXAXAXGXJXJXPXPXJXJXGXGXGXGXGXSXDXnXcXhXhXzX%X&X*X8X8X=X,.^ ^ ^ ^ =XlX/.^ ~ ~ ~ ~ ~ ~ N D = 1 1 * * * * * * * * 1 1 1 = = = & Y *.@.%.%.#.#.#.+.+.+.O.+.$.$.$.$.$.$.$.$.$.$.$.$.$.$.$.$.$.$.$.$.$.$.$.$.$.$.$.$.$.$.$.$.$.$.$.$.$.$.$.$.$.$.$.$.$.$.$.$.$.$.$.$.+.+.+.+.#.#.#.#.#.%.%.%.T F F L H H H H H H H H J J H H H H J J H H J J J J J P V R I.P.I.E.Q.E.E.E.E.E.E.E.E.E.E.E.E.Q.Q.Q.Q.W.W.W.W.W.W.W.W.W.W.W.W.W.W.W.W.W.W.W.W.).W.W.W.W.W.W.W.).W.W.W.W.W.W.W.).W.^.^.^.].W.W.W.).).).).W.).].].].{.oX.X%X%XhXhXhXxXzXzXzXzXzXzXxXxXxX",
"<X2X2X<X2X2X4X>X-.' ) _ ` o.o.o.` ` ` ` ` ` ` ` ` ` ` ` ` ` ` ` ` ` ` ` ` ` ` ` ` ` ` ` ` ` ` ` ` ` ` ` ` ` ` ` ` ` ` ` ` ` ` ` ` ` ` ` ` ` ` ` ` ` ` ` ` ` ` ` ` _ _ ' ` ] W q 8 u w w y h 9.C.C.C.C.C.C.C.d.8.p r t w r w w r e g t.a.a.h.h.y.y.y.a.a.a.a.b.b.m.m.m.y.c.m.r.t.g i g 4.s.M.b.b.r.z.b.r.z.m.t.<.i i 4.s.b.c.c.c.c.z.z.z.z.z.z.z.z.z.z.z.z.z.z.z.c.c.c.c.c.c.c.c.y.u.i.j.`.yXjXhXhXxXxXhXvXNXAXHXJXGXSXSXSXGXGXGXJXJXJXJXJXJXJXJXJXJXJXJXJXJXJXJXJXJXJXJXJXJXJXJXJXJXJXJXJXJXJXJXGXGXGXGXGXGXGXGXGXGXGXGXGXGXGXGXJXGXGXGXSXAXAXAXDXDXDXCXnXnXnXbXbXbXbXcXcXxXxXxXxXxXxXxXxXxXxXxXxXxXxXxXxXxXxXxXxXxXxXxXxXxXxXxXxXxXxXxXxXxXxXxXhXhXxXxXxXxXxXcXcXcXbXbXnXnXNXNXDXDXDXAXAXGXGXJXJXJXJXJXJXJXPXPXJXJXGXGXGXGXGXGXDXCXbXxXhXzX%X&X*X*X8X=X,.^ ^ ^ ^ =XlX=X^ ~ ~ ~ ~ ~ ~ N D = * 1 * * * * * * * * 1 1 1 = = = & Y *.@.%.%.#.#.#.+.+.+.O.O.$.$.$.$.$.$.$.$.$.$.$.$.$.$.$.$.$.$.$.$.$.$.$.$.$.$.$.$.$.$.$.$.$.$.$.$.$.$.$.$.$.$.$.$.$.$.$.$.$.$.$.$.+.+.+.+.#.#.#.#.#.%.%.%.T I F L H H H H J H H H H H H H H H H J H H J J J J J P V R I.P.I.R.Q.E.E.E.E.E.E.E.E.E.E.E.E.Q.Q.Q.W.W.W.W.W.W.W.W.W.W.W.W.W.W.W.W.W.W.W.W.).).W.W.W.W.W.W.).).W.W.W.W.W.W.).).].).W.W.W.W.W.W.].].).).Q.).].{.}.oX.XhX%X%XhXhXhXxXzXzXzXzXzXzXzXzXzX",
"<X2X<X<X2X2X4X>X&.' ' _ ` o.o.o.` ` ` ` ` ` ` ` ` ` ` ` ` ` ` ` ` ` ` ` ` ` ` ` ` ` ` ` ` ` ` ` ` ` ` ` ` ` ` ` ` ` ` ` ` ` ` ` ` ` ` ` ` ` ` ` ` ` ` ` ` ` ` ` _ _ _ ` ] ] Y q 8 u w w u f 8.f.C.C.C.C.C.C.g.d.h r s t w t t r e g t.s.a.h.h.y.y.y.a.a.a.a.b.b.m.m.m.r.c.m.a.t.g i g 4.3.n.b.b.b.c.m.r.z.m.t.<.i i 4.s.b.c.c.c.c.c.z.z.z.z.z.z.z.z.z.z.z.z.z.z.c.c.c.c.c.c.c.c.r.u.i.i.l.yXxXxXjXxXxXhXxXbXCXAXGXGXSXSXSXGXGXGXJXJXJXJXJXJXJXJXJXJXJXJXJXJXJXJXJXJXJXJXJXJXJXJXJXJXJXJXJXJXJXJXGXGXGXGXGXGXGXGXSXGXGXGXGXGXJXJXGXGXGXGXGXGXGXGXGXGXGXGXAXAXAXAXCXCXCXNXnXnXnXnXnXnXnXbXbXbXbXbXbXbXbXbXbXbXbXbXbXbXbXbXbXbXbXbXbXbXbXbXbXbXbXbXbXnXnXnXnXnXnXnXnXnXCXCXDXAXGXGXJXJXJXJXJXGXGXGXGXGXGXGXGXGXGXGXJXJXGXGXGXGXGXGXSXDXnXcXhXzX%X&X*X*X*X/.,.^ ^ ^ ^ =XlX=X^ ~ ~ ~ ~ ~ ~ N D = * * * * * * * * * * 1 1 1 = = = & Y *.@.%.%.%.#.$.+.+.+.O.O.$.$.$.$.$.$.$.$.$.$.$.$.$.$.$.$.$.$.$.$.$.$.$.$.$.$.$.$.$.$.$.$.$.$.$.$.$.$.$.$.$.$.$.$.$.$.$.$.$.$.$.$.+.+.+.+.#.#.$.$.#.%.#.#.T G F L H H H H J H H H H H H H H H H H H H J J J J J P V R { P.I.I.E.R.E.E.E.E.E.E.E.E.E.E.E.Q.Q.Q.W.W.W.W.W.W.W.W.^.^.W.W.W.W.W.W.W.W.W.W.).W.W.W.W.).W.W.W.W.W.W.).).W.W.).).).).W.W.W.W.W.W.W.W.W.W.W.].{.oX.XXXhXhXhXhXhXhXhXxXzXzXzXzXzXzXzXzXzX",
"<X3X<X2X2X2X4X;.&.) ' _ ` o.` o.` ` ` ` ` ` ` ` ` ` ` ` ` ` ` ` ` ` ` ` ` ` ` ` ` ` ` ` ` ` ` ` ` ` ` ` ` ` ` ` ` ` ` ` ` ` ` ` ` ` ` ` ` ` ` ` ` ` ` ` ` ` ` ` _ _ _ ` ` ] Y U m u w w r y 6.d.F.C.C.C.C.C.f.g.5.r s t r r w e e g 7.s.a.h.h.y.y.y.r.r.a.a.a.b.m.m.m.y.c.m.a.t.4.g i g 2.n.b.b.b.c.m.z.z.m.t.<.i i 4.s.b.c.c.c.z.z.z.z.z.z.z.z.z.z.z.z.z.z.z.z.c.c.c.c.c.c.c.c.y.r.u.i.j.`.yXvXxXhXhXhXhXxXnXDXSXSXSXSXSXSXGXGXJXJXJXJXJXJXJXJXJXJXJXJXJXJXJXJXJXJXJXJXJXJXJXJXJXJXJXJXJXJXJXJXJXJXJXJXJXJXJXJXGXGXGXGXGXJXJXJXGXGXGXGXJXJXJXJXAXSXSXGXGXGXGXJXJXJXGXGXGXSXSXAXAXAXAXAXAXAXDXDXDXDXDXDXDXDXCXCXDXDXDXDXDXDXDXDXDXDXDXDXDXDXDXDXAXAXAXSXGXGXJXJXGXGXJXJXGXGXGXGXJXJXJXJXJXGXGXGXGXGXGXGXGXGXGXGXJXJXGXGXGXGXGXGXGXAXCXbXxXxX%X&X&X*X*X/.,.,.^ ^ ^ =X=X=X^ ~ ~ ~ ~ ~ ~ N N * * * * * * * * * * * * * * = D = & Y @.@.%.%.%.#.#.#.+.+.+.+.$.$.$.$.$.$.$.$.$.$.$.$.$.$.$.$.$.$.$.$.$.$.$.$.$.$.$.$.$.$.$.$.$.$.$.$.$.$.$.$.$.$.$.$.$.$.$.$.$.$.$.$.+.+.+.+.#.#.#.$.#.%.%.@.Q T F L H H J J H H H H H H H H H H H H H H J J J J J P V A { P.P.I.T.T.E.E.E.E.E.E.E.E.E.E.Q.Q.Q.W.W.W.W.W.W.W.^.^.^.^.W.W.W.W.W.W.W.W.W.W.W.W.W.W.).).W.W.W.W.W.W.W.).W.W.W.^.W.).W.W.W.W.W.W.W.W.W.).].{.oX%XhXhXhXhXhXhXhXhXzXzXzXzXzXzXzXzXzXzXzX",
"3X3X<X2X2X4X>X=.[ ) ' _ ` o.` o.` ` ` ` ` ` ` ` ` ` ` ` ` ` ` ` ` ` ` ` ` ` ` ` ` ` ` ` ` ` ` ` ` ` ` ` ` ` ` ` ` ` ` ` ` ` ` ` ` ` ` ` ` ` ` ` ` ` ` ` ` ` ` ` _ ' _ ` ` ] E U m 8 w w w y l 9.F.C.C.C.C.C.C.f.7.z r t e r r r e g 7.s.a.h.h.y.y.y.y.r.a.a.a.a.m.m.m.y.r.m.b.a.4.g i g 2.s.a.a.b.c.m.z.z.m.t.<.i i 4.s.b.c.c.c.z.z.z.z.z.z.z.z.z.z.z.z.z.z.z.z.c.c.c.c.c.c.c.c.c.r.h.h.i.l.uXtXxXrXhXxXhXhXcXCXDXSXSXGXSXSXSXGXJXJXJXJXJXJXJXJXJXJXJXJXJXJXJXJXJXJXJXJXJXJXJXJXJXJXJXJXJXJXJXJXJXJXJXJXJXJXJXJXGXGXGXGXJXJXJXJXGXGXGXGXGXGXGXGXGXGXGXGXGXJXJXJXJXJXJXJXJXJXJXJXJXJXJXJXJXJXJXGXGXGXGXGXGXGXGXGXGXGXGXGXGXGXGXGXJXJXJXJXJXJXJXJXGXGXGXJXJXJXJXJXJXJXJXJXJXJXGXGXGXGXGXGXGXJXJXJXGXGXJXJXJXJXJXJXJXJXGXGXGXGXGXGXGXSXDXnXcXxX%X&X&X&X*X*X/.,.^ ^ ^ =X=X=X^ ~ ~ ~ ~ ~ ~ N N * * D * * * * * * * * * * * * D = & Y *.@.%.#.%.#.$.#.+.+.+.+.$.$.$.$.$.$.$.$.$.$.$.$.$.$.$.$.$.$.$.$.$.$.$.$.$.$.$.$.$.$.$.$.$.$.$.$.$.$.$.$.$.$.$.$.$.$.$.$.$.$.$.$.+.+.+.+.#.#.#.#.#.$.#.@.Q T F I H H H J H J H H H H H H H H H H H H J J J J J P V V R P.P.P.T.T.R.E.E.E.E.E.E.E.E.E.Q.Q.W.W.W.W.W.W.W.W.^.^.^.^.].].].].^.^.].].W.W.).).W.W.).).W.W.).W.W.W.).).W.W.^.^.W.).W.W.).W.W.E.W.].].].OX.X%XhXhXhXhXhXhXhXhXhXzXxXzXzXzXzXzXzXzXzXzX",
"3X3X<X4X4X4X>X-.' ) ' _ ` o.T ` ` ` ` ` ` ` ` ` ` ` ` ` ` ` ` ` ` ` ` ` ` ` ` ` ` ` ` ` ` ` ` ` ` ` ` ` ` ` ` ` ` ` ` ` ` ` ` ` ` ` ` ` ` ` ` ` ` ` ` ` ` ` ` ` _ ` ` ` ' ] E W q 8 w w w r j 7.C.C.C.C.C.C.C.C.f.8.h r e r r w e z 7.s.a.a.h.y.y.y.y.y.a.a.b.b.m.m.m.y.r.m.b.s.2.g i i 4.s.a.a.b.m.m.z.z.m.t.<.3 i 4.s.b.c.c.c.z.z.z.z.z.z.z.z.z.z.z.z.z.z.z.z.c.c.c.c.c.c.c.c.c.r.c.h.u.j.S.yXtXrXjXzXhXXXcXbXDXDXSXGXGXGXGXGXJXJXJXJXJXJXJXJXJXJXJXJXJXJXJXJXJXJXJXJXJXJXJXJXJXJXJXJXJXJXJXJXJXJXJXJXJXJXJXJXJXJXJXJXJXJXJXJXGXGXGXGXGXGXGXGXJXJXJXJXJXJXJXJXGXGXGXGXGXGXGXJXGXGXGXGXGXGXGXGXJXJXJXGXJXJXJXJXJXJXJXJXJXJXJXGXJXJXJXJXJXJXJXJXSXGXGXGXGXGXGXGXGXGXGXJXJXJXJXJXJXJXJXJXJXJXGXGXGXGXGXGXGXGXGXGXJXJXGXGXGXGXGXGXGXSXDXCXbXxX%XhXhX&X&X*X/./.^ ^ ^ =X=X=X^ ~ ~ ~ ~ ~ ~ S N * 1 1 * * * * * * * * * * * * D = & V @.@.%.%.%.#.$.#.+.+.+.+.$.$.$.$.$.$.$.$.$.$.$.$.$.$.$.$.$.$.$.$.$.$.$.$.$.$.$.$.$.$.$.$.$.$.$.$.$.$.$.$.$.$.$.$.$.$.$.$.$.$.$.$.+.+.+.+.#.#.#.#.#.$.#.#.Q T F I H H H J H H H H J J H H H H J J H H J J J J J P V V R I.I.I.T.T.R.R.E.E.E.E.E.E.E.Q.Q.Q.W.W.W.W.W.W.W.].].^.^.].^.^.^.^.^.^.].].W.W.).).W.W.W.W.W.W.).).W.W.W.W.).].^.^.W.W.W.W.).W.E.E.].].OXoXrXhXhXzXhXhXhXhXzXzXzXzXzXzXzXzXzXzXzXzXzXzXzX",
"3X4X<X4X4X4X>X-.' ) _ _ ` o.T ` ` ` ` ` ` ` ` ` ` ` ` ` ` ` ` ` ` ` ` ` ` ` ` ` ` ` ` ` ` ` ` ` ` ` ` ` ` ` ` ` ` ` ` ` ` ` ` ` ` ` ` ` ` ` ` ` ` ` ` ` ` ` ` ` _ ` ` ` _ ] E W q 8 u w w r p 8.C.C.C.C.C.C.C.C.C.d.l r r r r t e z 7.s.s.a.h.y.r.y.y.y.a.y.m.b.r.m.m.r.r.m.b.b.2.g i i 4.s.a.a.b.m.m.z.z.m.t.<.3 i 4.s.b.c.c.c.z.z.z.z.z.z.z.z.z.z.z.z.z.z.z.z.c.c.c.c.c.c.c.c.z.z.t.y.u.i.l.uXtXtXxXjXrXrXxXcXDXDXGXJXJXGXGXGXJXJXJXJXJXJXJXJXJXJXJXJXJXJXJXJXJXJXJXJXJXJXJXJXJXJXJXJXJXJXJXJXJXJXJXJXJXJXJXJXJXJXJXJXJXJXJXJXJXJXJXJXJXJXJXJXJXJXGXGXGXGXGXGXGXGXGXGXGXGXGXGXJXJXJXJXGXGXGXGXJXJXGXGXJXJXJXJXJXJXJXJXJXJXJXGXJXJXJXJXJXJXJXJXJXJXJXJXJXJXJXJXJXJXJXJXJXJXJXJXJXJXJXJXJXJXJXJXJXJXJXJXGXGXGXGXJXJXGXGXGXGXGXGXGXAXAXDXnXxXrXhXjXhX&X*X}./.^ ^ ^ =X=X=X^ ~ ~ ~ ~ ~ ~ S N * * 1 * * * * * * * * * * * = D = & V @.@.#.%.%.#.$.#.+.+.+.+.$.$.$.$.$.$.$.$.$.$.$.$.$.$.$.$.$.$.$.$.$.$.$.$.$.$.$.$.$.$.$.$.$.$.$.$.$.$.$.$.$.$.$.$.$.$.$.$.$.$.$.$.+.+.+.+.#.#.#.#.#.$.#.#.@.T F I H H H H H H H H J J H H H H J H H H J J J J J J V V { I.I.I.R.R.R.R.E.E.E.E.E.E.E.Q.Q.Q.W.W.W.W.W.W.W.].].^.].].^.^.^.^.W.^.].].W.W.W.).W.W.W.W.W.W.).).W.W.W.W.).].^.^.W.W.W.W.).W.Q.W.].{..XhXhXjXzXzXhXhXhXhXzXzXzXzXzXzXzXzXzXzXzXzXzXzXzX",
"3X2X2X4X4X>X;.-.) ' _ _ ` ` ` ` ` ` ` ` ` ` ` ` ` ` ` ` ` ` ` ` ` ` ` ` ` ` ` ` ` ` ` ` ` ` ` ` ` ` ` ` ` ` ` ` ` ` ` ` ` ` ` ` ` ` ` ` ` ` ` ` ` ` ` ` ` ` ` ` ` ' o.o._ ' T W m 8 u r r y y 6.f.C.F.C.F.F.C.C.C.C.d.l r w w e 2 g 8.s.s.a.t.u.r.r.y.y.a.h.m.m.m.c.c.y.y.m.b.n.3.<.e i g 3.b.r.b.c.c.r.z.m.t.4.i i 4.s.m.m.z.c.z.z.z.z.z.z.z.z.z.z.z.z.z.z.z.z.z.z.z.z.z.z.z.z.z.z.z.c.y.u.j.l.yXtXvXtXjXxXhX%XbXCXSXJXJXJXGXSXJXJXJXJXJXJXJXJXJXJXJXJXJXJXJXJXJXJXJXJXJXJXJXJXJXJXJXJXJXJXJXJXJXJXJXJXJXJXJXJXJXJXJXJXJXJXJXJXJXJXJXJXJXJXJXJXJXJXJXJXJXJXJXJXJXJXJXJXJXJXJXJXJXJXJXJXJXJXJXJXJXJXJXJXJXJXJXJXJXJXJXJXJXJXJXJXJXJXJXJXJXJXJXJXJXJXJXJXJXJXJXJXJXJXJXJXJXJXJXJXJXJXJXJXJXJXJXJXJXJXJXJXJXJXJXJXJXJXJXJXJXJXJXJXPXGXSXDXCXbXhXrXjXjXhX&X*X/.^ ^ ^ =XlX=X^ ~ ~ ~ ~ ~ ~ S D = D * * * * * * * * * * * 1 * D = & V ] %.%.#.%.#.$.#.+.+.O.O.$.$.$.$.$.$.$.$.$.$.$.$.$.$.$.$.$.$.$.$.$.$.$.$.$.$.$.$.$.$.$.$.$.$.$.$.$.$.$.$.$.$.$.$.$.$.$.$.$.$.$.$.+.+.+.+.$.$.#.#.%.+.+.#.@.T F L H H H H H H H H H H H H H H H H P J J J J J J U V V R !.R.T.R.E.R.E.E.E.E.E.E.E.E.E.Q.Q.Q.W.W.W.W.W.W.W.W.^.^.].].].^.^.W.^.^.].W.W.).).W.W.W.W.W.W.W.W.W.W.W.W.].].W.W.W.W.W.).W.W.W.].{..XjXjXxXxXhXhXxXxXhXhXhXhXzXzXzXzXzXzXzXzXzXzXzXzXzX",
"3X<X2X4X4X>X;.&.) ) _ _ ` ` ` ` ` ` ` ` ` ` ` ` ` ` ` ` ` ` ` ` ` ` ` ` ` ` ` ` ` ` ` ` ` ` ` ` ` ` ` ` ` ` ` ` ` ` ` ` ` ` ` ` ` ` ` ` ` ` ` ` ` ` ` ` ` ` ` ` ` ' o.o.) ) T Y m 8 u y y y y v g.C.C.C.F.F.C.C.C.C.g.8.h r w r w i 4.s.s.a.r.u.r.r.y.y.a.h.m.m.m.c.c.y.y.m.b.n.s.4.i 3 g 3.a.a.b.c.c.r.z.m.s.4.i i <.t.m.m.z.c.z.z.z.z.z.z.z.z.z.z.z.z.z.z.z.z.z.z.z.z.z.z.c.z.c.c.z.c.c.r.y.N.`.yXkXtXrXxXhXhXcXnXAXJXGXGXGXGXJXJXJXJXJXJXJXJXJXJXJXJXJXJXJXJXJXJXJXJXJXJXJXJXJXJXJXJXJXJXJXJXJXJXJXJXJXJXJXJXJXJXJXJXJXJXJXJXJXJXJXJXJXJXJXJXJXJXJXJXJXJXJXJXJXJXJXJXJXJXJXJXJXJXJXJXJXJXJXJXJXJXJXJXJXJXJXJXJXJXJXJXJXJXJXJXJXJXJXJXJXJXJXJXJXJXJXJXJXJXJXJXJXJXJXJXJXJXJXJXJXJXJXJXJXJXJXJXJXJXJXJXJXJXJXJXJXJXJXJXJXJXJXJXJXGXSXAXCXnXxXjXjXjXjXhX&X*X/.^ ^ =XlX=X^ ~ ~ ~ ~ ~ ~ S D = D * * * * * * * * * * * 1 * D = & V ] %.%.#.%.#.$.#.$.+.O.O.$.$.$.$.$.$.$.$.$.$.$.$.$.$.$.$.$.$.$.$.$.$.$.$.$.$.$.$.$.$.$.$.$.$.$.$.$.$.$.$.$.$.$.$.$.$.$.$.$.$.$.$.+.+.#.#.$.$.#.#.$.+.+.#.@.T F F H H H H H H H H H H H H H H H H P J J J J P J U V V R !.R.I.R.E.E.E.E.E.E.E.E.E.E.E.Q.Q.Q.W.W.W.W.W.W.W.W.^.^.].].].^.^.^.^.^.^.W.W.).).W.W.W.W.W.).W.W.W.W.W.).].].).W.W.W.W.W.].].].{.oXhXjXcXxXxXhXhXxXxXhXhXhXhXzXzXzXzXzXzXzXzXzXzXzXzXzX",
"3X<X2X4X4X>X>.&.) ) _ _ ` ` ` ` ` ` ` ` ` ` ` ` ` ` ` ` ` ` ` ` ` ` ` ` ` ` ` ` ` ` ` ` ` ` ` ` ` ` ` ` ` ` ` ` ` ` ` ` ` ` ` ` ` ` ` ` ` ` ` ` ` ` ` ` ` ` ` ` ` ` o.o./ ) T Y q 0 u y w y y v g.C.C.C.C.C.C.C.C.C.C.g.5.p w w e e i 4.s.a.a.r.r.r.r.r.a.a.y.y.m.c.c.y.y.m.b.n.s.4.i 3 g 2.a.b.b.c.m.r.r.m.a.1.i i <.3.n.m.c.c.z.z.z.z.z.z.z.z.z.z.z.z.z.z.z.z.z.z.z.z.z.z.z.z.c.v.c.z.c.y.y.h.l.uXyXtXtXjXhXhXhXbXCXGXGXAXSXGXJXJXJXJXJXJXJXJXJXJXJXJXJXJXJXJXJXJXJXJXJXJXJXJXJXJXJXJXJXJXJXJXJXJXJXJXJXJXJXJXJXJXJXJXJXJXJXJXJXJXJXJXJXJXJXJXJXJXJXJXJXJXJXJXJXJXJXJXJXJXJXJXJXJXJXJXJXJXJXJXJXJXJXJXJXJXJXJXJXJXJXJXJXJXJXJXJXJXJXJXJXJXJXJXJXJXJXJXJXJXJXJXJXJXJXJXJXJXJXJXJXJXJXJXJXJXJXJXJXJXJXJXJXJXJXJXJXJXJXJXJXJXJXJXGXGXSXAXAXCXbXjXxXjXhXhX&X*X/.I.^ /.*X=X^ ~ ~ ~ ~ ~ ~ S D = D * * * * * * * * * * * 1 * D = & V ] %.%.#.%.#.$.#.$.+.O.O.$.$.$.$.$.$.$.$.$.$.$.$.$.$.$.$.$.$.$.$.$.$.$.$.$.$.$.$.$.$.$.$.$.$.$.$.$.$.$.$.$.$.$.$.$.$.$.$.$.$.$.$.$.$.$.$.$.$.$.$.$.+.+.#.@.T F F H H H H J J H H H H J J H H H H P J J J J J J U K V R !.I.I.T.E.E.E.E.E.E.E.E.E.E.Q.Q.Q.Q.W.W.W.W.^.W.W.^.^.^.^.W.W.^.^.^.^.^.^.W.W.W.).W.W.W.W.).).W.W.W.W.W.).).).W.W.W.W.W.W.].{.oX.XhXjXjXcXxXxXhXhXxXxXxXxXzXzXzXzXzXzXzXzXzXzXzXzXzXzXzX",
"3X<X2X4X4X>X-.[ ) ) ' _ ` ` ` ` ` ` ` ` ` ` ` ` ` ` ` ` ` ` ` ` ` ` ` ` ` ` ` ` ` ` ` ` ` ` ` ` ` ` ` ` ` ` ` ` ` ` ` ` ` ` ` ` ` ` ` ` ` ` ` ` ` ` ` ` ` ` ` ` ` ` ` o./ / T Y V m u y y y y l d.C.C.C.C.C.C.C.C.C.C.C.0.j r t i e e g 2.a.h.h.r.r.r.y.a.a.y.y.m.m.c.y.y.m.b.n.s.4.i 3 g 2.a.b.b.c.m.r.r.m.a.4.g i g 3.b.m.c.c.z.z.z.z.z.z.z.z.z.z.z.z.z.z.z.z.z.z.z.z.z.z.z.z.z.v.c.z.z.c.c.u.j.`.yXvXjXrXjXhXXXxXnXAXGXGXSXJXJXJXJXJXJXJXJXJXJXJXJXJXJXJXJXJXJXJXJXJXJXJXJXJXJXJXJXJXJXJXJXJXJXJXJXJXJXJXJXJXJXJXJXJXJXJXJXJXJXJXJXJXJXJXJXJXJXJXJXJXJXJXJXJXJXJXJXJXJXJXJXJXJXJXJXJXJXJXJXJXJXJXJXJXJXJXJXJXJXJXJXJXJXJXJXJXJXJXJXJXJXJXJXJXJXJXJXJXJXJXJXJXJXJXJXJXJXJXJXJXJXJXJXJXJXJXJXJXJXJXJXJXJXJXJXJXJXJXJXJXJXJXJXJXGXSXSXHXHXHXNXvXjXjXjXhXhX&X}./.^ /.*X=X^ ~ ~ ~ ~ ~ ~ S D = D * * * * * * * * * * * 1 * D = & V ] %.%.%.#.#.$.#.$.$.O.O.$.$.$.$.$.$.$.$.$.$.$.$.$.$.$.$.$.$.$.$.$.$.$.$.$.$.$.$.$.$.$.$.$.$.$.$.$.$.$.$.$.$.$.$.$.$.$.$.$.$.$.$.$.$.$.$.$.$.$.+.$.+.+.#.@.T F F H H H H J J H H H H H J H H H J P J J J J J J U K V R !.!.I.R.E.E.E.E.E.E.E.E.Q.Q.Q.Q.Q.W.W.W.W.W.^.^.^.^.^.^.^.W.^.^.^.^.^.^.^.W.W.W.W.W.W.W.W.).).).W.W.W.).).).W.E.E.Q.W.].].{.oXhXjXxXjXjXcXxXxXhXxXxXxXxXxXzXzXzXzXxXxXzXzXzXzXzXzXzXzXzX",
"1X<X<X4X4X;.-.' ) ) ' ' ` ` ` ` ` ` ` ` ` ` ` ` ` ` ` ` ` ` ` ` ` ` ` ` ` ` ` ` ` ` ` ` ` ` ` ` ` ` ` ` ` ` ` ` ` ` ` ` ` ` ` ` ` ` ` ` ` ` ` ` ` ` ` ` ` ` ` ` ` ` ` _ / / T T U m u y y y y h 9.f.C.C.C.C.C.C.C.C.C.C.f.8.p t r e i e g t.h.h.r.r.r.r.y.y.c.c.m.m.y.r.r.a.b.b.n.2.i 3 g 2.a.m.r.c.m.r.r.m.n.2.g i g 2.b.m.c.r.z.z.z.z.z.z.z.z.z.z.z.z.z.z.z.z.z.z.z.z.z.y.z.z.z.z.z.z.z.c.c.r.u.l.uXvXkXtXxXhXrXhXbXNXGXJXSXSXJXJXJXJXJXJXJXJXJXJXJXJXJXJXJXJXJXJXJXJXJXJXJXJXJXJXJXJXJXJXJXJXJXJXJXJXJXJXJXJXJXJXJXJXJXJXJXJXJXJXJXJXJXJXJXJXJXJXJXJXJXJXJXJXJXJXJXJXJXJXJXJXJXJXJXJXJXJXJXJXJXJXJXJXJXJXJXJXJXJXJXJXJXJXJXJXJXJXJXJXJXJXJXJXJXJXJXJXJXJXJXJXJXJXJXJXJXJXJXJXJXJXJXJXJXJXJXJXJXJXJXJXJXJXJXJXJXJXJXJXJXJXJXJXSXSXSXGXKXKXCXNXjXjXjXhXhXhX&X}./.=X*X=XL.~ ~ ~ ~ ~ ~ S D = D * * * * * * * * * * * 1 * = = & V ] %.%.%.%.#.$.#.+.+.+.+.$.$.$.$.$.$.$.$.$.$.$.$.$.$.$.$.$.$.$.$.$.$.$.$.$.$.$.$.$.$.$.$.$.$.$.$.$.$.$.$.$.$.$.$.$.$.$.$.$.$.$.$.$.$.+.+.$.$.$.+.$.+.+.#.#.T I F H H H H H H H H H H J H H H H J P P J J J J J U K V R !.!.I.R.R.E.E.E.E.E.E.E.E.Q.Q.W.W.W.W.W.W.W.^.^.].].].].^.^.^.^.^.^.W.].].W.).).).).).).W.W.W.W.W.W.W.W.W.W.W.E.E.W.].{.{..XhXjXcXjXhXhXhXxXxXxXxXxXxXhXhXzXzXzXzXxXxXzXzXzXzXzXzXzXzXzX",
"1X<X<X4X4X>.&.' ) ) ) ' ` ` ` ` ` ` ` ` ` ` ` ` ` ` ` ` ` ` ` ` ` ` ` ` ` ` ` ` ` ` ` ` ` ` ` ` ` ` ` ` ` ` ` ` ` ` ` ` ` ` ` ` ` ` ` ` ` ` ` ` ` ` ` ` ` ` ` ` ` ` _ _ / / T E W q u y y y y y 8.g.C.C.C.C.C.C.C.C.C.C.C.d.l r r p i e g 1.t.r.r.r.r.r.y.y.c.c.m.m.y.r.r.a.b.b.n.2.g i i 1.r.m.r.m.m.r.r.m.b.3.g i g 2.a.m.c.c.z.z.z.z.z.z.z.z.z.z.z.z.z.z.z.z.z.z.z.z.z.y.z.z.z.z.z.z.z.c.v.y.y.u.`.yXtXtXxXhXhXhXxXnXDXJXGXSXJXJXJXJXJXJXJXJXJXJXJXJXJXJXJXJXJXJXJXJXJXJXJXJXJXJXJXJXJXJXJXJXJXJXJXJXJXJXJXJXJXJXJXJXJXJXJXJXJXJXJXJXJXJXJXJXJXJXJXJXJXJXJXJXJXJXJXJXJXJXJXJXJXJXJXJXJXJXJXJXJXJXJXJXJXJXJXJXJXJXJXJXJXJXJXJXJXJXJXJXJXJXJXJXJXJXJXJXJXJXJXJXJXJXJXJXJXJXJXJXJXJXJXJXJXJXJXJXJXJXJXJXJXJXJXJXJXJXJXJXJXJXJXJXFXSXSXGXKXKXHXCXvXjXhXhXhXhXhX&X/.=X*XlXL.~ ~ ~ ~ ~ ~ S D = D * * * * * * * * * * * 1 * = = & V ] %.%.%.%.#.$.+.+.+.+.+.$.$.$.$.$.$.$.$.$.$.$.$.$.$.$.$.$.$.$.$.$.$.$.$.$.$.$.$.$.$.$.$.$.$.$.$.$.$.$.$.$.$.$.$.$.$.$.$.$.$.$.$.$.$.+.+.$.$.$.+.$.+.+.#.%.Q I F H H H H H H H H H H J J H H H K P P J J J J J U K V R !.!.R.E.R.E.E.E.E.E.E.E.E.Q.W.W.W.W.W.W.W.^.^.^.].].].].].].^.^.^.W.W.].].W.).).W.).).W.W.W.W.W.W.W.W.W.W.).W.W.W.].{.OX.XhXhXjXjXjXhXhXhXxXxXxXxXxXxXhXhXzXzXzXzXzXxXzXzXzXzXzXzXzXzXzX",
"<X4X<X4X4X=.[ ' ) ) ' _ ` ` ` ` ` ` ` ` ` ` ` ` ` ` ` ` ` ` ` ` ` ` ` ` ` ` ` ` ` ` ` ` ` ` ` ` ` ` ` ` ` ` ` ` ` ` ` ` ` ` ` ` ` ` ` ` ` ` ` ` ` ` ` ` ` ` ` ` ` _ _ _ / / ) E R q 8 y y y r y 6.g.C.C.C.C.C.C.C.C.C.C.C.f.8.l p p i e i g 1.t.r.r.r.r.y.y.c.c.m.c.y.r.r.a.b.b.n.2.g i i 1.t.a.r.c.m.r.r.m.b.3.g i i 2.a.m.c.y.z.z.z.z.z.z.z.z.z.z.z.z.z.z.z.z.z.z.z.z.z.y.c.z.z.z.v.z.z.z.c.y.y.i.l.`.yXtXrXhXhXhXhXvXnXAXSXDXJXJXJXJXJXJXJXJXJXJXJXJXJXJXJXJXJXJXJXJXJXJXJXJXJXJXJXJXJXJXJXJXJXJXJXJXJXJXJXJXJXJXJXJXJXJXJXJXJXJXJXJXJXJXJXJXJXJXJXJXJXJXJXJXJXJXJXJXJXJXJXJXJXJXJXJXJXJXJXJXJXJXJXJXJXJXJXJXJXJXJXJXJXJXJXJXJXJXJXJXJXJXJXJXJXJXJXJXJXJXJXJXJXJXJXJXJXJXJXJXJXJXJXJXJXJXJXJXJXJXJXJXJXJXJXJXJXJXJXJXJXJXJXJXFXSXSXGXKXKXHXHXNXcXhX&XhXhXjXhX*X*X*XbXL.~ ~ ~ ~ ~ ~ S D = D * * * * * * * * * * * 1 * = = & V ] @.%.%.%.#.$.+.+.+.+.+.$.$.$.$.$.$.$.$.$.$.$.$.$.$.$.$.$.$.$.$.$.$.$.$.$.$.$.$.$.$.$.$.$.$.$.$.$.$.$.$.$.$.$.$.$.$.$.$.$.$.$.$.$.$.$.$.$.$.$.+.O.$.+.$.%.Q I F H H H H H H H H H H H J H H H K P P J J P P J P K V R !.Q.R.E.R.E.E.E.E.E.Q.E.E.W.W.W.W.W.W.W.W.^.^.^.].].].].].].].].^.W.^.^.].W.W.W.W.W.W.W.W.W.W.).W.W.).W.W.].].].].{.oXhXhXcXjXjXjXjXjXhXhXxXxXxXxXxXxXhXhXhXhXzXzXzXzXzXzXzXzXzXzXzXzXzX",
"<X4X<X4X4X-.[ ' ' ) ' _ ` ` ` ` ` ` ` ` ` ` ` ` ` ` ` ` ` ` ` ` ` ` ` ` ` ` ` ` ` ` ` ` ` ` ` ` ` ` ` ` ` ` ` ` ` ` ` ` ` ` ` ` ` ` ` ` ` ` ` ` ` ` ` ` ` ` ` ` ` _ _ _ / T ) ] R q 8 u y y w u 6.g.C.C.C.C.C.C.C.C.C.C.C.C.d.6.h r r r e 3 g i.r.r.r.r.y.y.c.c.m.m.y.y.r.a.b.b.n.2.g i i 1.t.a.r.c.m.r.r.m.b.3.g i i 2.a.m.m.r.z.z.z.z.z.z.z.z.z.z.z.z.z.z.z.z.z.z.z.z.z.c.z.z.c.z.v.c.z.z.c.c.c.u.u.l.yXtXtXrXrXhXhXxXbXDXAXDXJXJXJXJXJXJXJXJXJXJXJXJXJXJXJXJXJXJXJXJXJXJXJXJXJXJXJXJXJXJXJXJXJXJXJXJXJXJXJXJXJXJXJXJXJXJXJXJXJXJXJXJXJXJXJXJXJXJXJXJXJXJXJXJXJXJXJXJXJXJXJXJXJXJXJXJXJXJXJXJXJXJXJXJXJXJXJXJXJXJXJXJXJXJXJXJXJXJXJXJXJXJXJXJXJXJXJXJXJXJXJXJXJXJXJXJXJXJXJXJXJXJXJXJXJXJXJXJXJXJXJXJXJXJXJXJXJXJXJXJXJXJXJXJXIXSXSXGXKXHXHXKXAXbX%X%XhXhXrXhX*X*XbXVX/.^ ~ ~ ~ ~ ~ S D = D * * * * * * * * * * * 1 * = = & V ] %.%.%.#.#.$.+.$.$.+.+.$.$.$.$.$.$.$.$.$.$.$.$.$.$.$.$.$.$.$.$.$.$.$.$.$.$.$.$.$.$.$.$.$.$.$.$.$.$.$.$.$.$.$.$.$.$.$.$.$.$.$.$.$.$.$.+.$.$.$.+.O.$.+.$.%.Q G F L H H H H H H H H H H H H H H H P P J J P J J J P V R !.Q.R.E.R.E.E.E.E.E.Q.E.Q.W.W.W.W.W.W.W.W.^.^.].].].].].].].].].].W.^.^.].W.W.W.W.W.W.W.W.W.W.W.W.W.).).).].].{.OXoXrXjXxXcXjXhXhXjXcXcXhXxXzXxXxXxXxXhXhXhXhXzXzXzXzXzXzXzXzXzXzXzXzXzX",
"<X<X<X4X>X-./ ' ) ) _ _ _ ` ` ` ` ` ` ` ` ` ` ` ` ` ` ` ` ` ` ` ` ` ` ` ` ` ` ` ` ` ` ` ` ` ` ` ` ` ` ` ` ` ` ` ` ` ` ` ` ` ` ` ` ` ` ` ` ` ` ` ` ` ` ` ` ` ` ` ' ' _ _ _ _ ` E E q 8 u p p w u j g.F.C.f.C.C.C.C.C.C.C.C.f.f.f.v h r r r r d g 3.t.t.r.y.y.y.h.b.b.c.y.y.r.a.a.n.3.4.i i <.3.b.m.c.y.y.r.r.a.s.4.i i 4.s.m.m.r.z.z.z.z.z.z.z.z.z.z.z.z.z.z.z.z.z.z.z.z.z.z.z.z.z.z.z.z.z.z.z.c.r.y.i.j.`.yXtXtXsXrXhXxXcXnXDXSXSXGXJXGXGXGXGXGXGXGXGXGXGXGXGXGXJXJXJXJXJXJXJXJXJXJXJXJXJXJXJXJXJXJXJXJXJXJXJXJXJXJXJXJXJXJXJXJXJXJXJXJXJXJXJXJXJXJXJXJXJXJXJXJXJXJXJXJXJXJXJXJXJXJXJXJXJXJXJXJXJXJXJXJXJXJXJXJXJXJXJXJXJXJXJXJXJXJXJXJXJXJXJXJXJXJXJXJXJXJXJXJXJXJXJXJXJXJXJXJXJXJXJXJXJXJXJXJXJXJXJXJXJXJXJXJXJXJXJXJXJXJXJXJXGXSXJXJXGXGXGXGXJXNXcXxXhXrXrXhX%X&XjXbX/.^ ~ ~ ~ ~ ~ S N = D = * * * * * * * * * * * 1 = = & V T @.%.#.$.$.$.$.$.$.$.$.$.$.$.$.$.$.$.$.$.$.$.$.$.$.$.$.$.$.$.$.$.$.$.$.$.$.$.$.$.$.$.$.$.$.$.$.$.$.$.$.$.$.$.$.$.$.$.$.$.$.$.$.$.$.$.+.$.$.$.$.$.$.$.$.%.Q T F F L L L H H H H K K J J J J J J P P P J J J J J J U R { !.I.I.E.E.E.E.E.Q.Q.E.Q.W.W.W.W.W.W.W.W.].].].].].].].].].].].].].].].].E.E.W.W.W.W.W.W.W.W.W.W.].].].].].{.OX.XhXhXhXzXhXhXhXhXhXhXhXhXxXxXzXzXxXxXzXzXhXhXzXzXhXhXzXzXzXzXzXzXzXzXzX",
"<X<X<X4X;.-./ ' ) ) _ _ _ _ _ _ ` ` ` ` ` ` ` ` ` ` ` ` ` ` ` ` ` ` ` ` ` ` ` ` ` ` ` ` ` ` ` ` ` ` ` ` ` ` ` ` ` ` ` ` ` ` ` ` ` ` ` ` ` ` ` ` ` ` ` ` ` ` ` ` _ ) _ _ _ ` ` T E q 9 u y p r w h d.C.C.f.C.C.C.C.C.C.C.C.f.f.f.7.v p r r e i g g 2.t.h.y.r.y.h.b.b.m.y.y.r.a.a.n.3.4.i i g 3.b.m.c.y.y.r.r.a.a.4.i i 4.s.b.b.r.z.z.z.z.z.z.z.z.z.z.z.z.z.z.z.z.z.z.z.z.z.z.z.z.z.z.z.z.z.z.z.z.r.y.u.j.l.uXtXtXsXrXhXxXxXmXCXSXSXGXJXHXGXGXJXGXGXGXGXGXGXGXGXGXJXJXJXJXJXJXJXJXJXJXJXJXJXJXJXJXJXJXJXJXJXJXJXJXJXJXJXJXJXJXJXJXJXJXJXJXJXJXJXJXJXJXJXJXJXJXJXJXJXJXJXJXJXJXJXJXJXJXJXJXJXJXJXJXJXJXJXJXJXJXJXJXJXJXJXJXJXJXJXJXJXJXJXJXJXJXJXJXJXJXJXJXJXJXJXJXJXJXJXJXJXJXJXJXJXJXJXJXJXJXJXJXJXJXJXJXJXJXJXJXJXJXJXJXJXJXJXJXGXGXJXJXGXGXGXGXGXDXnXcXxXhXhXhX%X&XjXkX[.^ ~ ~ ~ ~ ~ S N = D * * * * * * * * * * * * * = = * V E @.%.#.$.$.$.$.$.$.$.$.$.$.$.$.$.$.$.$.$.$.$.$.$.$.$.$.$.$.$.$.$.$.$.$.$.$.$.$.$.$.$.$.$.$.$.$.$.$.$.$.$.$.$.$.$.$.$.$.$.$.$.$.$.$.$.+.+.+.$.$.$.$.$.$.%.#.T F F L L L L H H H K K J J J J J J J P P P J J J J J U R { !.I.I.E.E.E.E.E.Q.Q.Q.Q.W.W.W.W.W.W.W.W.].].].].].].].].].].].].].].].].W.W.W.W.W.W.W.W.W.W.W.W.].].{.{.}.OX.X%XhXhXhXhXhXhXhXhXhXhXhXhXxXxXzXzXxXxXzXzXhXhXzXzXhXhXzXzXzXzXzXzXzXzXzX",
"<X,X<X4X;.&./ ) ) ) _ _ _ _ _ _ ` ` ` ` ` ` ` ` ` ` ` ` ` ` ` ` ` ` ` ` ` ` ` ` ` ` ` ` ` ` ` ` ` ` ` ` ` ` ` ` ` ` ` ` ` ` ` ` ` ` ` ` ` ` ` ` ` ` ` ` ` ` ` ` _ ' _ ` _ ` ` ] E V m 8 w r w w y 7.C.C.C.C.C.C.f.C.C.C.C.f.f.f.f.7.l y r r e r g g 3.a.h.h.h.a.a.a.r.y.y.y.r.a.a.t.4.i i g 2.s.m.m.c.y.r.r.a.a.4.i i 4.s.b.b.z.z.z.z.z.z.z.z.z.z.z.z.z.z.z.z.z.z.z.z.z.z.z.z.z.z.z.z.z.z.z.z.z.c.r.y.u.j.`.yXdXtXrXhXzX%XxXnXDXSXGXJXHXGXHXJXJXGXGXGXGXGXGXGXGXJXJXJXJXJXJXJXJXJXJXJXJXJXJXJXJXJXJXJXJXJXJXJXJXJXJXJXJXJXJXJXJXJXJXJXJXJXJXJXJXJXJXJXJXJXJXJXJXJXJXJXJXJXJXJXJXJXJXJXJXJXJXJXJXJXJXJXJXJXJXJXJXJXJXJXJXJXJXJXJXJXJXJXJXJXJXJXJXJXJXJXJXJXJXJXJXJXJXJXJXJXJXJXJXJXJXJXJXJXJXJXJXJXJXJXJXJXJXJXJXJXJXJXJXJXJXJXJXGXGXGXGXGXGXGXGXGXGXDXnXcXxXxXrX%X%X&X&X[.^ ~ ~ ~ ~ ~ S N = * * * * * * * * * * * * * * = = * V E @.%.#.$.$.$.$.$.$.$.$.O.O.$.$.$.$.$.$.$.$.$.$.$.$.$.$.$.$.$.$.$.$.$.$.$.$.$.$.$.$.$.$.$.$.$.$.$.$.$.$.$.$.$.$.$.$.$.$.$.$.$.$.$.$.$.+.+.+.$.$.$.$.$.$.%.#.T F F L L L L H H H K K J J J J J J J P P P J J J J J V Y { !.I.T.E.E.E.E.E.Q.Q.Q.Q.W.W.W.W.W.W.W.W.].].].].].].].].].].W.].].].].W.W.W.W.W.W.W.W.W.].W.W.W.].{.oX.X.X.XhXhXxXhXhXhXhXhXhXhXhXhXhXhXxXxXzXzXxXzXzXzXhXhXzXzXhXzXzXzXzXzXzXzXzXzXzX",
"<X<X2X4X>.[ ) ) ) ) _ _ _ _ _ _ ` ` ` ` ` ` ` ` ` ` ` ` ` ` ` ` ` ` ` ` ` ` ` ` ` ` ` ` ` ` ` ` ` ` ` ` ` ` ` ` ` ` ` ` ` ` ` ` ` ` ` ` ` ` ` ` ` ` ` ` ` ` ` ` _ _ ` ` _ _ ` ] E U q 8 u r w w r 6.f.C.C.C.C.C.f.f.C.C.C.f.f.f.C.g.8.z p w r e e g g 2.a.m.h.a.a.a.a.y.y.y.y.a.a.s.2.g i g 2.a.m.c.c.c.r.r.r.a.1.g i g 3.s.b.z.z.z.z.z.z.z.z.z.z.z.z.z.z.z.z.z.z.z.z.z.z.z.z.z.z.z.z.z.z.z.z.z.c.c.y.i.i.l.uXyXxXsXjXhXXXXXcXnXAXGXJXHXHXGXGXGXGXGXGXGXGXGXGXGXJXJXJXJXJXJXJXJXJXJXJXJXJXJXJXJXJXJXJXJXJXJXJXJXJXJXJXJXJXJXJXJXJXJXJXJXJXJXJXJXJXJXJXJXJXJXJXJXJXJXJXJXJXJXJXJXJXJXJXJXJXJXJXJXJXJXJXJXJXJXJXJXJXJXJXJXJXJXJXJXJXJXJXJXJXJXJXJXJXJXJXJXJXJXJXJXJXJXJXJXJXJXJXJXJXJXJXJXJXJXJXJXJXJXJXJXJXJXJXJXJXJXJXJXJXJXJXJXGXGXGXGXGXGXGXGXSXJXGXCXbXcXhXhX%X&X&X&X[.H.~ ~ ~ ~ ~ S N = D * * * * * * * * * * * * * = = & V E @.%.#.$.$.$.$.$.$.$.$.O.O.$.$.$.$.$.$.$.$.$.$.$.$.$.$.$.$.$.$.$.$.$.$.$.$.$.$.$.$.$.$.$.$.$.$.$.$.$.$.$.$.$.$.$.$.$.$.$.$.$.$.$.$.$.+.+.+.$.$.$.$.$.$.%.%.T F F L L L L H H H H K J J J J J J J P P P J J J J P K V R !.I.U.R.E.E.E.E.Q.Q.Q.Q.W.W.W.W.W.W.W.W.].].].].].].].].].W.W.W.].].].W.W.W.W.W.W.W.W.W.).W.W.].].OX.XhXhXhXhXxXzXxXhXhXhXhXhXhXhXhXhXhXxXxXzXzXzXzXzXhXhXhXzXzXzXzXzXxXzXzXzXzXzXzXzX",
"2X<X2X>X=.[ ) ) ' _ ` ` ` ` _ _ ` ` ` ` ` ` ` ` ` ` ` ` ` ` ` ` ` ` ` ` ` ` ` ` ` ` ` ` ` ` ` ` ` ` ` ` ` ` ` ` ` ` ` ` ` ` ` ` ` ` ` ` ` ` ` ` ` ` ` ` ` ` ` ` ` ` ` _ _ ` ` ] E W V 8 7 w r w r l 9.C.C.C.C.C.f.f.C.C.C.f.f.f.C.f.g.8.z h e r r e g g 2.t.a.h.a.a.a.y.y.y.y.a.a.s.2.g i i 2.s.b.m.c.c.r.r.r.a.2.g i g 2.s.b.b.z.z.z.z.z.z.z.z.z.z.z.z.z.z.z.z.z.z.z.z.z.z.z.z.z.z.z.z.z.z.z.z.z.c.r.u.i.u.S.yXvXxXjXjXhXrXzXbXDXGXJXHXHXHXGXGXGXGXGXGXGXGXGXGXJXJXJXJXJXJXJXJXJXJXJXJXJXJXJXJXJXJXJXJXJXJXJXJXJXJXJXJXJXJXJXJXJXJXJXJXJXJXJXJXJXJXJXJXJXJXJXJXJXJXJXJXJXJXJXJXJXJXJXJXJXJXJXJXJXJXJXJXJXJXJXJXJXJXJXJXJXJXJXJXJXJXJXJXJXJXJXJXJXJXJXJXJXJXJXJXJXJXJXJXJXJXJXJXJXJXJXJXJXJXJXJXJXJXJXJXJXJXJXJXJXJXJXJXJXJXJXJXGXGXGXGXGXGXGXGXSXGXGXAXnXcXxXxX%X%X&X&X&XW.^ ~ ~ ~ ~ N D = * * * * * * * * * * * * * 1 = = * V E @.%.$.+.$.$.$.$.$.$.$.O.O.$.$.$.$.$.$.$.$.$.$.$.$.$.$.$.$.$.$.$.$.$.$.$.$.$.$.$.$.$.$.$.$.$.$.$.$.$.$.$.$.$.$.$.$.$.$.$.$.$.$.$.$.$.O.+.+.$.$.$.$.+.$.%.%.T F F L L L L H H H H H J J J J J J J P P P J J L J P V V R !.R.I.R.E.E.E.E.Q.Q.Q.Q.W.W.Q.Q.W.W.W.W.W.W.W.W.).).).).).W.W.W.W.).W.W.W.W.W.W.W.W.).).).].].{.OX.XhXjXhXxXxXxXxXxXhXhXhXhXhXhXhXhXzXzXxXxXzXzXzXzXzXzXhXhXzXzXzXzXxXxXzXzXzXzXzXzXzX",
"2X<X4X;.-.' ' ) _ _ ` ` ` ` _ ` ` ` ` ` ` ` ` ` ` ` ` ` ` ` ` ` ` ` ` ` ` ` ` ` ` ` ` ` ` ` ` ` ` ` ` ` ` ` ` ` ` ` ` ` ` ` ` ` ` ` ` ` ` ` ` ` ` ` ` ` ` ` ` ` ` ` ` ` ` _ ` ] E E W m 9 t r r r h 8.g.C.C.C.C.f.f.C.C.C.C.f.f.f.C.f.d.8.l h r e r i g g 1.t.a.a.a.a.y.y.y.y.h.a.a.3.4.i i 4.s.b.m.m.c.r.r.r.a.3.4.i i 4.t.a.m.z.z.z.z.z.z.z.z.z.z.z.z.z.z.z.z.z.z.z.z.z.z.z.z.z.z.z.z.z.z.z.z.z.c.r.r.u.i.l.`.yXdXxXjXhXhXhXxXNXDXHXHXGXGXGXGXGXGXGXGXGXGXGXGXJXJXJXJXJXJXJXJXJXJXJXJXJXJXJXJXJXJXJXJXJXJXJXJXJXJXJXJXJXJXJXJXJXJXJXJXJXJXJXJXJXJXJXJXJXJXJXJXJXJXJXJXJXJXJXJXJXJXJXJXJXJXJXJXJXJXJXJXJXJXJXJXJXJXJXJXJXJXJXJXJXJXJXJXJXJXJXJXJXJXJXJXJXJXJXJXJXJXJXJXJXJXJXJXJXJXJXJXJXJXJXJXJXJXJXJXJXJXJXJXJXJXJXJXJXJXJXJXGXGXGXGXGXGXGXGXGXGXGXJXDXnXcXcX%X&X&X&X&X[.H.^ ~ ~ ~ S D = * * * * * * * * * * * * 1 1 = = & V E @.%.$.+.$.$.$.$.$.$.$.O.O.$.$.$.$.$.$.$.$.$.$.$.$.$.$.$.$.$.$.$.$.$.$.$.$.$.$.$.$.$.$.$.$.$.$.$.$.$.$.$.$.$.$.$.$.$.$.$.$.$.$.$.$.$.O.+.+.$.$.$.$.+.$.%.%.T I F L L L L H H H H H J J J J J J J P P P J J L J P V V R !.R.I.R.R.E.E.E.Q.Q.Q.W.W.W.Q.Q.W.W.W.W.W.W.W.W.).).).).W.W.W.W.W.W.W.W.W.W.W.W.).].].].].].{.OX.XhXjXjXxXxXxXxXxXxXhXhXhXhXxXxXhXhXhXhXxXxXzXzXzXzXzXzXhXhXzXzXzXzXxXxXzXzXzXzXzXzXzX",
"4X<X4X;.&./ ' ) _ _ ` ` ` ` ` ` ` ` ` ` ` ` ` ` ` ` ` ` ` ` ` ` ` ` ` ` ` ` ` ` ` ` ` ` ` ` ` ` ` ` ` ` ` ` ` ` ` ` ` ` ` ` ` ` ` ` ` ` ` ` ` ` ` ` ` ` ` ` ` ` ` ` ` ` ` _ _ ` T E R q 9 7 w y r y v d.C.C.C.C.f.f.f.C.C.C.f.f.f.C.C.f.d.7.x h r r i r e g 2.s.a.a.r.h.a.h.h.h.a.s.s.4.i i 4.s.a.h.a.a.r.r.r.a.t.2.i 3 g 3.a.b.b.z.z.z.z.z.z.z.z.z.z.z.z.z.z.z.z.z.z.z.z.z.z.z.z.z.z.z.z.z.z.z.c.z.r.y.u.i.j.l.uXyXxXjXjXhXhXzXbXNXAXGXGXHXGXGXGXGXGXGXGXGXGXGXJXJXJXJXJXJXJXJXJXJXJXJXJXJXJXJXJXJXJXJXJXJXJXJXJXJXJXJXJXJXJXJXJXJXJXJXJXJXJXJXJXJXJXJXJXJXJXJXJXJXJXJXJXJXJXJXJXJXJXJXJXJXJXJXJXJXJXJXJXJXJXJXJXJXJXJXJXJXJXJXJXJXJXJXJXJXJXJXJXJXJXJXJXJXJXJXJXJXJXJXJXJXJXJXJXJXJXJXJXJXJXJXJXJXJXJXJXJXJXJXJXJXJXJXJXJXJXJXGXGXGXGXGXGXGXGXGXGXJXJXGXCXbXcXhXhX%XhXhX&X[.H.^ ~ ~ S D = = * * * * * * * * * * * 1 1 = = * V E @.%.#.$.$.$.$.$.$.$.$.O.O.$.$.$.$.$.$.$.$.$.$.$.$.$.$.$.$.$.$.$.$.$.$.$.$.$.$.$.$.$.$.$.$.$.$.$.$.$.$.$.$.$.$.$.$.$.$.$.$.$.$.$.$.$.+.+.+.$.$.$.$.+.$.%.%.T I F L L L L H H H K H J J J J J J J P P P P J L J P V V R !.R.I.I.E.R.E.E.Q.Q.W.W.W.W.W.Q.W.W.W.W.).).).).).).).).W.W.E.W.W.W.W.Q.E.E.W.W.].].].].{.{.oXrXhXjXjXjXxXxXxXxXhXhXhXhXhXhXhXhXhXhXhXhXxXxXzXzXzXzXzXzXhXhXzXzXzXzXzXzXzXzXzXzXzXzXzX",
"4X<X4X;.&./ ' ' _ _ ` ` ` ` ` ` ` ` ` ` ` ` ` ` ` ` ` ` ` ` ` ` ` ` ` ` ` ` ` ` ` ` ` ` ` ` ` ` ` ` ` ` ` ` ` ` ` ` ` ` ` ` ` ` ` ` ` ` ` ` ` ` ` ` ` ` ` ` ` ` ` ` ` ` ` _ _ ` T  .E q 9 7 w r y r j p.C.C.C.C.f.f.f.C.C.C.f.f.f.C.f.f.f.g.8.h y r r e i g z 2.a.a.a.a.a.h.h.h.a.a.s.1.i e 4.s.a.a.a.a.r.r.r.r.a.2.i 3 g 2.a.b.b.z.z.z.z.z.z.z.z.z.z.z.z.z.z.z.z.z.z.z.z.z.z.z.z.z.z.z.z.z.z.z.v.z.c.y.u.u.j.u.`.yXvXtXrXhXhXzXxXnXDXGXHXJXPXPXGXGXGXGXGXGXGXGXJXJXJXJXJXJXJXJXJXJXJXJXJXJXJXJXJXJXJXJXJXJXJXJXJXJXJXJXJXJXJXJXJXJXJXJXJXJXJXJXJXJXJXJXJXJXJXJXJXJXJXJXJXJXJXJXJXJXJXJXJXJXJXJXJXJXJXJXJXJXJXJXJXJXJXJXJXJXJXJXJXJXJXJXJXJXJXJXJXJXJXJXJXJXJXJXJXJXJXJXJXJXJXJXJXJXJXJXJXJXJXJXJXJXJXJXJXJXJXJXJXJXJXJXJXJXJXJXGXGXGXGXGXGXGXGXGXJXJXJXJXAXNXcXcXhXhX&X&XjX&X/.^ ^ ^ S D = = * * * * * * * * * * * 1 1 = = * V T @.%.$.$.$.$.$.$.$.$.$.O.O.$.$.$.$.$.$.$.$.$.$.$.$.$.$.$.$.$.$.$.$.$.$.$.$.$.$.$.$.$.$.$.$.$.$.$.$.$.$.$.$.$.$.$.$.$.$.$.$.$.$.$.$.$.+.+.+.$.$.$.$.+.$.%.%.T I F L L L L H H H K H J J J J J J J P P P P J L J U V V R !.!.I.I.R.R.E.E.Q.Q.W.W.W.W.W.W.W.W.W.W.).).).).).).).).W.W.E.W.W.W.W.Q.E.E.W.W.].].].].OXoX.XhXjXxXxXxXxXxXxXxXhXhXhXhXhXhXhXhXhXhXhXhXxXzXzXzXzXzXzXzXhXhXzXzXzXhXzXzXzXzXzXzXzXzXzX",
"4X4X4X-.' ' ) ' _ _ ` ` ` ` ` ` ` ` ` ` ` ` ` ` ` ` ` ` ` ` ` ` ` ` ` ` ` ` ` ` ` ` ` ` ` ` ` ` ` ` ` ` ` ` ` ` ` ` ` ` ` ` ` ` ` ` ` ` ` ` ` ` ` ` ` ` ` ` ` ` ` ` ` ` ` _ _ ` ] E E V 9 7 w w r r h 7.f.C.C.C.f.f.f.f.C.C.f.f.f.C.f.C.f.g.g.d.l h r r r h g d 4.3.s.h.a.a.h.h.h.M.s.2.d e g 3.s.b.b.a.r.r.r.r.M.3.g 3 3 1.a.b.b.z.z.z.z.z.z.r.c.c.c.c.c.c.c.c.z.z.z.z.z.z.z.z.z.z.z.z.z.z.z.z.z.z.z.c.c.y.u.u.l.uXtXtXjXxXhXrXrXbXCXHXGXPXJXGXGXGXGXGXGXGXGXGXJXJXJXJXJXJXJXJXJXJXJXJXJXJXJXJXJXJXJXJXJXJXJXJXJXJXJXJXJXJXJXJXJXJXJXJXJXJXJXJXJXJXJXJXJXJXJXJXJXJXJXJXJXJXJXJXJXJXJXJXJXJXJXJXJXJXJXJXJXJXJXJXJXJXJXJXJXJXJXJXJXJXJXJXJXJXJXJXJXJXJXJXJXJXJXJXJXJXJXJXJXJXJXJXJXJXJXJXJXJXJXJXJXJXJXJXJXJXJXJXJXJXJXJXJXJXJXJXGXGXGXGXGXGXGXGXJXGXSXGXJXJXDXnXjXhXjX&X&XhX&X}.[.H.^ S D D = = * * * * * * * * * * 1 * = = * V T @.%.#.$.+.$.$.$.$.$.$.$.$.$.$.$.$.$.$.$.$.$.$.$.$.$.$.$.$.$.$.$.$.$.$.$.$.$.$.$.$.$.$.$.$.$.$.$.$.$.$.$.$.$.$.$.$.$.$.$.$.$.$.$.$.$.+.+.+.$.$.$.+.O.$.%.%.Q G F L L L H H H L H K J J J J J J J H H K H H J J J K V R !.I.P.P.T.T.R.E.Q.Q.W.W.W.W.W.W.W.W.W.W.].].).W.).].].].Q.E.Q.W.W.W.E.R.W.W.W.).].].OXoXhXhXhXhXjXxXxXxXxXxXxXhXhXhXhXhXhXhXhXhXhXhXhXhXhXhXhXhXzXzXzXzXzXzXzXxXxXxXzXzXzXzXzXzXzXzXzX",
"4X4X4X-.' ) ) ' _ _ ` ` ` ` ` ` ` ` ` ` ` ` ` ` ` ` ` ` ` ` ` ` ` ` ` ` ` ` ` ` ` ` ` ` ` ` ` ` ` ` ` ` ` ` ` ` ` ` ` ` ` ` ` ` ` ` ` ` ` ` ` ` ` ` ` ` ` ` ` ` ` ` ` ` ` ` _ ` ] T E U > 9 w w r r h 8.f.C.C.C.f.f.f.f.C.C.f.f.f.C.f.C.f.g.g.g.6.l h e r r i i g g 3.a.M.M.h.r.r.h.a.2.g e g 2.s.b.b.a.r.r.r.r.M.t.<.3 3 4.s.b.b.z.z.z.z.z.r.r.c.c.c.c.c.c.c.c.z.z.z.z.z.z.z.z.z.z.z.z.z.z.z.z.z.z.z.c.c.y.y.u.j.S.yXtXtXjXjXxXhXcXnXDXGXJXGXHXGXGXGXGXGXGXGXGXJXJXJXJXJXJXJXJXJXJXJXJXJXJXJXJXJXJXJXJXJXJXJXJXJXJXJXJXJXJXJXJXJXJXJXJXJXJXJXJXJXJXJXJXJXJXJXJXJXJXJXJXJXJXJXJXJXJXJXJXJXJXJXJXJXJXJXJXJXJXJXJXJXJXJXJXJXJXJXJXJXJXJXJXJXJXJXJXJXJXJXJXJXJXJXJXJXJXJXJXJXJXJXJXJXJXJXJXJXJXJXJXJXJXJXJXJXJXJXJXJXJXJXJXJXJXJXJXGXGXGXGXGXGXGXGXGXGXSXGXJXJXAXCXbXjXhXhXhX&X.X.X}.W.H.S N = = = * * * * * * * * * * 1 * * = * , T @.%.#.$.+.$.$.$.$.$.$.$.$.$.$.$.$.$.$.$.$.$.$.$.$.$.$.$.$.$.$.$.$.$.$.$.$.$.$.$.$.$.$.$.$.$.$.$.$.$.$.$.$.$.$.$.$.$.$.$.$.$.$.$.$.$.+.+.+.$.$.$.+.O.$.%.%.Q G F L L H H H H H H H J J J J J J J H H K H H J J J V V R !.I.P.P.T.T.R.E.Q.Q.W.W.W.W.W.W.W.W.W.W.].].).W.).].].].W.W.W.W.W.W.E.E.E.W.).].{.{.oX.XhXhXhXhXjXxXxXxXxXxXxXhXhXhXhXhXhXhXhXhXhXhXhXhXhXhXhXhXzXzXzXzXzXzXzXxXxXxXzXzXzXzXzXzXzXzXzX",
"4X4X:.-./ ) _ _ _ ` ` ` ` ` ` ` ` ` ` ` ` ` ` ` ` ` ` ` ` ` ` ` ` ` ` ` ` ` ` ` ` ` ` ` ` ` ` ` ` ` ` ` ` ` ` ` ` ` ` ` ` ` ` ` ` ` ` ` ` ` ` ` ` ` ` ` ` ` ` ` ` ` ` ` ` ` _ _ ) T E U m 9 7 r y u y 6.g.C.C.f.f.f.f.f.C.C.f.f.f.f.f.C.f.f.g.g.d.8.l h r w r e e g g 3.s.M.h.r.r.h.a.3.g w g 2.s.b.b.b.r.r.r.r.M.t.4.i 2 <.t.b.b.z.z.z.z.z.r.r.c.c.c.c.c.c.c.c.z.z.z.z.z.z.z.z.z.z.z.z.z.z.z.z.z.z.z.z.c.c.y.y.u.j.`.yXtXtXjXcXhXhXcXNXAXGXHXJXGXGXGXGXGXGXGXGXJXJXJXJXJXJXJXJXJXJXJXJXJXJXJXJXJXJXJXJXJXJXJXJXJXJXJXJXJXJXJXJXJXJXJXJXJXJXJXJXJXJXJXJXJXJXJXJXJXJXJXJXJXJXJXJXJXJXJXJXJXJXJXJXJXJXJXJXJXJXJXJXJXJXJXJXJXJXJXJXJXJXJXJXJXJXJXJXJXJXJXJXJXJXJXJXJXJXJXJXJXJXJXJXJXJXJXJXJXJXJXJXJXJXJXJXJXJXJXJXJXJXJXJXJXJXJXJXGXGXGXGXGXGXGXGXGXGXGXGXJXJXGXAXCXbXhX&X&X.X.X&XjX}.R.S N = = = * * * * * * * * * * 1 * * = * V T @.%.#.$.+.$.$.#.$.$.$.+.+.$.$.$.$.$.$.$.$.$.$.$.$.$.$.$.$.$.$.$.$.$.$.$.$.$.$.$.$.$.$.$.$.$.$.$.$.$.$.$.$.$.$.$.$.$.$.$.$.$.$.$.$.$.+.+.+.$.$.$.+.O.$.%.%.Q T F L L L H H H H H H J J J J J J J H K K H H J J J K V R !.I.P.P.U.T.E.E.Q.W.W.W.W.W.W.W.W.W.W.W.].).W.W.W.).].].W.W.W.W.W.W.W.E.E.W.].{.OX.X.XhXhXhXhXjXhXxXxXxXxXxXxXxXxXxXhXhXhXhXhXhXhXhXhXhXhXhXhXhXzXzXzXzXzXzXzXzXxXzXzXzXzXzXzXzXzXzXzX",
"4X4X;.&./ _ _ ) ` ` ` ` ` ` ` ` ` ` ` ` ` ` ` ` ` ` ` ` ` ` ` ` ` ` ` ` ` ` ` ` ` ` ` ` ` ` ` ` ` ` ` ` ` ` ` ` ` ` ` ` ` ` ` ` ` ` ` ` ` ` ` ` ` ` ` ` ` ` ` ` ` ` ` ` ` ` _ _ ` T E W q 9 7 y y t r l d.C.C.f.f.f.f.f.C.C.f.f.g.f.f.C.C.f.f.f.f.d.8.l p r w e e e e g 2.s.a.h.h.h.h.s.g e i 4.s.a.b.b.r.r.y.c.m.a.4.i 2 g 3.a.b.z.z.z.z.z.r.r.c.c.c.c.c.c.c.c.z.z.z.z.z.z.z.z.z.z.z.z.z.z.z.z.c.z.z.z.z.c.c.y.u.i.l.uXtXtXrXjXzXrXhXbXCXHXGXJXGXGXGXGXGXGXGXGXJXJXJXJXJXJXJXJXJXJXJXJXJXJXJXJXJXJXJXJXJXJXJXJXJXJXJXJXJXJXJXJXJXJXJXJXJXJXJXJXJXJXJXJXJXJXJXJXJXJXJXJXJXJXJXJXJXJXJXJXJXJXJXJXJXJXJXJXJXJXJXJXJXJXJXJXJXJXJXJXJXJXJXJXJXJXJXJXJXJXJXJXJXJXJXJXJXJXJXJXJXJXJXJXJXJXJXJXJXJXJXJXJXJXJXJXJXJXJXJXJXJXJXJXJXJXJXJXGXGXGXGXGXGXGXGXGXGXGXJXJXJXJXJXDXnXjXhX.XXX&XhXjXjX{.^ B * = = * * * * * * * * * * 1 * * = * V T @.%.#.$.+.$.$.#.$.$.$.+.+.$.$.$.$.$.$.$.$.$.$.$.$.$.$.$.$.$.$.$.$.$.$.$.$.$.$.$.$.$.$.$.$.$.$.$.$.$.$.$.$.$.$.$.$.$.$.$.$.$.$.$.$.$.+.+.+.$.$.$.$.O.$.#.%.Q T F L L L H H H H H H J J J J J J J H K K K H J J J K V R { I.P.P.U.R.E.Q.Q.W.W.W.W.W.W.W.W.W.W.W.].).W.W.W.W.].].].).W.W.W.W.W.W.W.].{.oX.XhXhXhXhXhXjXjXxXxXxXxXxXxXxXxXxXxXhXhXhXhXzXzXhXhXhXhXhXhXhXhXzXzXzXzXzXzXzXzXxXzXzXzXzXzXzXzXzXzXzX",
"4X4X>.[ / ) _ _ ` ` ` ` ` ` ` ` ` ` ` ` ` ` ` ` ` ` ` ` ` ` ` ` ` ` ` ` ` ` ` ` ` ` ` ` ` ` ` ` ` ` ` ` ` ` ` ` ` ` ` ` ` ` ` ` ` ` ` ` ` ` ` ` ` ` ` ` ` ` ` ` ` ` ` ` ` ` ` ` ` T ] E V 9 7 y r t t j 9.C.C.f.f.f.f.f.C.C.f.f.g.f.f.C.C.C.C.C.C.f.d.8.l h r t r e e e g 2.s.a.h.M.h.s.z e i 4.s.a.a.a.r.r.r.c.m.s.2.g 2 g 2.a.b.z.z.z.z.z.c.c.c.c.c.c.c.c.c.c.z.z.z.z.z.z.z.z.z.z.z.z.z.z.z.z.c.c.z.z.c.c.c.y.y.i.j.`.yXtXtXjXjXhXhXcXnXAXGXGXGXGXGXGXGXGXGXGXJXJXJXJXJXJXJXJXJXJXJXJXJXJXJXJXJXJXJXJXJXJXJXJXJXJXJXJXJXJXJXJXJXJXJXJXJXJXJXJXJXJXJXJXJXJXJXJXJXJXJXJXJXJXJXJXJXJXJXJXJXJXJXJXJXJXJXJXJXJXJXJXJXJXJXJXJXJXJXJXJXJXJXJXJXJXJXJXJXJXJXJXJXJXJXJXJXJXJXJXJXJXJXJXJXJXJXJXJXJXJXJXJXJXJXJXJXJXJXJXJXJXJXJXJXJXJXJXGXGXGXGXGXGXGXGXJXJXJXJXGXJXJXJXHXCXbXhXrXhXhXhX&XjX&XE.S * = = * * * * * * * * * * 1 * * = * V T @.%.#.$.+.$.$.#.$.$.$.+.+.$.$.$.$.$.$.$.$.$.$.$.$.$.$.$.$.$.$.$.$.$.$.$.$.$.$.$.$.$.$.$.$.$.$.$.$.$.$.$.$.$.$.$.$.$.$.$.$.$.$.$.$.$.O.+.O.$.$.$.$.O.#.#.%.@.T F L L H L H H H K H J J J J J J J H H H K K J J J K V Y { I.I.I.R.R.E.Q.Q.W.W.W.W.W.W.W.W.W.W.W.).).W.W.W.W.).).].).W.W.Q.W.W.W.].{.oXrXhXhXjXjXhXhXhXxXxXxXxXxXxXxXzXzXzXzXzXzXzXzXzXzXzXzXzXzXhXhXhXhXzXzXhXhXzXxXxXzXxXxXxXxXzXzXzXzXzXzXzX",
"4X4X-.' / ) _ _ ` ` ` ` ` ` ` ` ` ` ` ` ` ` ` ` ` ` ` ` ` ` ` ` ` ` ` ` ` ` ` ` ` ` ` ` ` ` ` ` ` ` ` ` ` ` ` ` ` ` ` ` ` ` ` ` ` ` ` ` ` ` ` ` ` ` ` ` ` ` ` ` ` ` ` ` ` ` ` ` ` ) ] E U 9 8 r r t t f 8.f.C.f.f.f.f.f.C.C.f.f.g.g.f.f.C.C.C.C.C.C.f.d.8.2.h r r e e e e g 4.3.a.a.h.s.z e i 4.s.a.a.a.r.r.y.c.m.m.t.<.3 i 1.t.b.z.z.z.z.z.c.c.c.c.c.c.c.c.c.c.z.z.z.z.z.z.z.z.z.z.z.z.z.z.z.z.c.c.c.z.c.c.c.c.y.u.i.l.'.tXtXjXrXxXxXxXvXNXHXGXGXGXGXGXGXGXGXGXJXJXJXJXJXJXJXJXJXJXJXJXJXJXJXJXJXJXJXJXJXJXJXJXJXJXJXJXJXJXJXJXJXJXJXJXJXJXJXJXJXJXJXJXJXJXJXJXJXJXJXJXJXJXJXJXJXJXJXJXJXJXJXJXJXJXJXJXJXJXJXJXJXJXJXJXJXJXJXJXJXJXJXJXJXJXJXJXJXJXJXJXJXJXJXJXJXJXJXJXJXJXJXJXJXJXJXJXJXJXJXJXJXJXJXJXJXJXJXJXJXJXJXJXJXJXJXJXJXJXJXJXJXJXJXJXJXJXJXJXJXGXJXJXKXHXNXcXhXhXhX&XhXjXhX}.P.B = = * * * * * * * * * * 1 * * = * V T @.%.%.$.+.$.$.#.$.$.$.+.+.$.$.$.$.$.$.$.$.$.$.$.$.$.$.$.$.$.$.$.$.$.$.$.$.$.$.$.$.$.$.$.$.$.$.$.$.$.$.$.$.$.$.$.$.$.$.$.$.$.$.$.$.$.O.+.O.$.$.$.$.+.#.#.%.%.T I L L L L H H H K K J J J J J J J H H K J J J J J K V A { !.I.I.R.E.E.Q.Q.W.W.W.W.W.W.W.W.W.W.W.).).Q.W.W.W.W.W.).).W.W.W.W.].].OX.XrXhXhXxXjXjXhXhXxXxXxXxXxXxXxXzXzXzXzXzXzXzXzXzXzXzXzXzXzXzXhXhXhXhXzXzXzXhXzXzXxXxXzXxXxXxXzXzXzXzXzXzXzX",
"4X:.-./ / ) _ _ ` ` ` ` ` ` ` ` ` ` ` ` ` ` ` ` ` ` ` ` ` ` ` ` ` ` ` ` ` ` ` ` ` ` ` ` ` ` ` ` ` ` ` ` ` ` ` ` ` ` ` ` ` ` ` ` ` ` ` ` ` ` ` ` ` ` ` ` ` ` ` ` ` ` ` ` ` ` ` ` ` ) ]  .W 0 8 t r t t y 6.g.C.f.f.f.f.f.C.C.f.f.g.f.f.f.C.C.C.C.C.f.f.f.d.7.2.j r e e e e r g g 3.t.s.s.4.2 e g s.a.a.a.r.r.c.c.r.M.s.4.i 3 <.t.a.y.y.y.y.y.y.y.c.c.c.c.c.c.c.c.z.z.z.z.z.z.z.z.z.z.z.z.z.z.z.z.c.c.c.z.c.v.c.c.c.u.i.u.l.[.tXxXrXhXxXxXcXbXCXAXGXGXGXGXGXGXGXGXJXJXJXJXJXJXJXJXJXJXJXJXJXJXJXJXJXJXJXJXJXJXJXJXJXJXJXJXJXJXJXJXJXJXJXJXJXJXJXJXJXJXJXJXJXJXJXJXJXJXJXJXJXJXJXJXJXJXJXJXJXJXJXJXJXJXJXJXJXJXJXJXJXJXJXJXJXJXJXJXJXJXJXJXJXJXJXJXJXJXJXJXJXJXJXJXJXJXJXJXJXJXJXJXJXJXJXJXJXJXJXJXJXJXJXJXJXJXJXJXJXJXJXJXJXJXJXJXJXJXJXJXJXJXJXJXJXJXJXJXJXJXGXGXJXGXDXnXcXhXhXhXhXhXhXhX{.A B * * * * * * * * * * * * = * = * V T @.%.%.$.+.$.$.#.$.$.$.O.O.$.$.$.$.$.$.$.$.$.$.$.$.$.$.$.$.$.$.$.$.$.$.$.$.$.$.$.$.$.$.$.$.$.$.$.$.$.$.$.$.$.$.$.$.$.$.$.$.$.$.$.$.$.+.+.+.$.$.$.+.+.%.#.%.%.T I I L L H H H H K K J J J J J J J H H H J J J J J U V A { !.I.I.R.E.E.Q.W.W.W.W.W.W.W.W.W.W.W.W.).).Q.W.W.W.W.W.).).).).).].{.OXrXhXhXjXhXhXxXxXxXxXxXxXxXxXxXxXzXzXzXzXzXzXzXzXzXzXzXzXzXzXzXzXhXhXhXhXzXzXhXzXzXzXzXzXzXzXxXxXzXzXzXzXzXzXzX",
"4X;.-./ ) _ _ _ _ ` ' ` ` ` ` ` ` ` ` ` ` ` ` ` ` ` ` ` ` ` ` ` ` ` ` ` ` ` ` ` ` ` ` ` ` ` ` ` ` ` ` ` ` ` ` ` ` ` ` ` ` ` ` ` ` ` ` ` ` ` ` ` ` ` ` ` ` ` ` ` ` ` ` ` ` ` ` ` ` ` ]  .W q 8 s t t t r b d.C.f.f.f.f.f.C.C.f.f.f.g.g.f.f.C.C.C.C.f.f.f.f.d.8.2.i r e r w r e r z 2.s.s.2.e 2 g s.a.a.a.r.r.c.c.r.M.s.1.i 3 g 3.a.a.y.y.y.y.y.y.c.c.c.c.c.c.c.c.z.z.z.z.z.z.z.z.z.z.z.z.z.z.z.z.c.c.c.z.c.v.c.c.m.y.u.i.j.`.yXtXrXhXhXxXxXcXnXAXGXJXJXJXGXGXGXGXJXJXJXJXJXJXJXJXJXJXJXJXJXJXJXJXJXJXJXJXJXJXJXJXJXJXJXJXJXJXJXJXJXJXJXJXJXJXJXJXJXJXJXJXJXJXJXJXJXJXJXJXJXJXJXJXJXJXJXJXJXJXJXJXJXJXJXJXJXJXJXJXJXJXJXJXJXJXJXJXJXJXJXJXJXJXJXJXJXJXJXJXJXJXJXJXJXJXJXJXJXJXJXJXJXJXJXJXJXJXJXJXJXJXJXJXJXJXJXJXJXJXJXJXJXJXJXJXJXJXJXJXJXJXJXJXGXGXGXGXJXJXGXSXPXGXHXCXbXhXXXhX&X&XhXhXhXQ.S * * * * * * * * * * * * = * = * V T @.%.#.$.+.$.$.#.$.$.+.+.+.$.$.$.$.$.$.$.$.$.$.$.$.$.$.$.$.$.$.$.$.$.$.$.$.$.$.$.$.$.$.$.$.$.$.$.$.$.$.$.$.$.$.$.$.$.$.$.$.$.$.$.$.$.+.+.+.$.$.$.+.+.%.#.%.%.T F I L L H H H H K K J J J J J J H H H H J K J J J U V U { !.!.R.R.E.E.Q.Q.Q.W.W.W.W.W.W.W.W.W.W.).).Q.W.W.W.W.W.W.W.).).].{.OX.XhXjXxXjXhXhXxXcXxXxXxXxXxXxXxXxXxXxXzXzXzXzXzXzXzXzXzXzXzXzXzXhXhXhXhXhXhXhXzXhXzXzXzXzXzXzXxXxXzXzXzXzXzXzXzX",
"4X;.&._ _ _ _ _ ' ' ' ` ` ` ` ` ` ` ` ` ` ` ` ` ` ` ` ` ` ` ` ` ` ` ` ` ` ` ` ` ` ` ` ` ` ` ` ` ` ` ` ` ` ` ` ` ` ` ` ` ` ` ` ` ` ` ` ` ` ` ` ` ` ` ` ` ` ` ` ` ` ` ` ` ` ` ` ` _ ` ` ] E q 8 y w w r y h b g.f.g.g.f.f.C.C.C.f.f.f.f.f.f.f.f.f.f.f.f.f.f.f.f.f.5.j p w w r r e r g x 2.x g d d t.s.a.r.y.h.h.y.a.m.b.3.g 2 g 1.b.m.m.y.r.y.c.c.c.c.c.c.c.c.c.c.c.c.c.c.c.c.c.c.c.c.c.c.c.c.c.c.c.c.c.z.z.z.c.c.c.y.u.u.u.l.uXtXrXxXcXxXjXtXvXCXAXJXJXSXAXKXJXKXGXJXJXJXJXJXJXJXJXJXJXJXJXJXJXJXJXJXJXJXJXJXJXJXJXJXJXJXJXJXJXJXJXJXJXJXJXJXJXJXJXJXJXJXJXJXJXJXJXJXJXJXJXJXJXJXJXJXJXJXJXJXJXJXJXJXJXJXJXJXJXJXJXJXJXJXJXJXJXJXJXJXJXJXJXJXJXJXJXJXJXJXJXJXJXJXJXJXJXJXJXJXJXJXJXJXJXJXJXJXJXJXJXJXJXJXJXJXJXJXJXJXJXJXJXJXJXJXJXJXJXJXJXJXJXJXJXJXJXJXJXJXJXJXGXGXGXGXCXbXxXhXhXhXhXhXhXrXR.B * * = * * = * * * * * = = * : V T @.%.#.+.+.#.+.$.$.#.+.+.+.+.+.$.$.$.$.$.$.$.$.$.$.$.$.$.$.$.$.$.$.$.$.$.$.$.$.$.$.$.$.$.$.$.$.$.$.$.$.$.$.$.$.$.$.$.$.$.$.$.$.$.$.$.$.+.+.+.+.+.+.+.$.#.%.Q Q G F F L L L H H H H J J J J H H H H H H H H J J J P V V R !.R.R.E.E.Q.Q.Q.Q.W.W.W.W.W.W.W.W.W.W.).W.W.Q.Q.Q.Q.Q.E.Q.].{.OX.XrXhXjXhXxXxXxXxXxXxXxXxXxXxXxXxXxXxXxXxXzXzXhXzXzXXXoXXXcXmXxXzXzX%XXX%XzXhXhXhXhXxXxXxXxXxXxXxXxXhXzXzXzXzXzXzXzX",
"4X>.&._ _ _ _ _ ' ' ' _ ` ` ` ` ` ` ` ` ` ` ` ` ` ` ` ` ` ` ` ` ` ` ` ` ` ` ` ` ` ` ` ` ` ` ` ` ` ` ` ` ` ` ` ` ` ` ` ` ` ` ` ` ` ` ` ` ` ` ` ` ` ` ` ` ` ` ` ` ` ` ` ` ` ` ` ` _ ` ` ] E V 8 u w w w r f b d.f.g.g.f.f.C.C.N.f.f.f.f.f.f.f.f.f.f.f.f.f.f.f.f.f.9.6.j y w w r r t r h z h r e g 3.t.a.a.a.h.m.h.a.a.a.t.g 3 g 1.a.b.m.r.r.c.c.c.c.c.c.c.c.c.c.c.c.c.c.c.c.c.c.c.c.c.c.c.c.c.c.c.c.c.c.z.z.z.c.c.v.r.u.y.u.j.`.yXtXhXjXjXxXjXxXnXDXSXFXFXFXKXJXHXGXJXJXJXJXJXJXJXJXJXJXJXJXJXJXJXJXJXJXJXJXJXJXJXJXJXJXJXJXJXJXJXJXJXJXJXJXJXJXJXJXJXJXJXJXJXJXJXJXJXJXJXJXJXJXJXJXJXJXJXJXJXJXJXJXJXJXJXJXJXJXJXJXJXJXJXJXJXJXJXJXJXJXJXJXJXJXJXJXJXJXJXJXJXJXJXJXJXJXJXJXJXJXJXJXJXJXJXJXJXJXJXJXJXJXJXJXJXJXJXJXJXJXJXJXJXJXJXJXJXJXJXJXJXJXJXJXJXJXJXJXJXJXJXJXGXGXJXAXNXbXhXhXrXrXrXhXhX{.H.B * * * * * * = * * * = = * * V T @.%.#.+.+.#.+.$.$.$.+.+.+.+.+.$.$.$.$.$.$.$.$.$.$.$.$.$.$.$.$.$.$.$.$.$.$.$.$.$.$.$.$.$.$.$.$.$.$.$.$.$.$.$.$.$.$.$.$.$.$.$.$.$.$.$.$.+.+.+.+.+.+.+.$.#.#.Q Q G F F F L L H K H H J J J H K K H H H H H H J J P P K U R !.R.E.E.E.Q.Q.Q.Q.W.W.W.W.W.W.W.W.W.W.).).W.W.Q.Q.E.E.Q.].{.oX.X.XrXhXjXxXhXhXxXxXxXxXxXxXxXxXxXxXxXxXxXxXzXhX%XxXzXoX{.OXsXmXxXzXzX%XXX%XzXhXhXhXhXxXxXxXxXxXxXxXxXxXzXzXzXzXzXzXzX",
"4X=.o._ _ _ _ _ ' ' ' ' ` ` ` ` ` ` ` ` ` ` ` ` ` ` ` ` ` ` ` ` ` ` ` ` ` ` ` ` ` ` ` ` ` ` ` ` ` ` ` ` ` ` ` ` ` ` ` ` ` ` ` ` ` ` ` ` ` ` ` ` ` ` ` ` ` ` ` ` ` ` ` ` ` ` ` ` ` ` ` ] E U m u r w w r y v p.f.g.g.f.C.C.C.f.f.f.f.f.f.f.f.f.f.f.f.f.f.f.f.f.f.f.d.6.l h y r r s t e r e e e e 2.t.a.h.h.h.h.h.r.a.a.t.1.4 4 <.t.a.m.m.y.c.c.c.c.c.c.c.c.c.c.c.c.c.c.c.c.c.c.c.c.c.c.c.c.c.c.c.c.c.c.c.z.z.z.z.m.r.r.u.u.u.l.`.yXrXtXtXxXxXjXcXnXDXFXJXJXKXKXKXGXJXJXJXJXJXJXJXJXJXJXJXJXJXJXJXJXJXJXJXJXJXJXJXJXJXJXJXJXJXJXJXJXJXJXJXJXJXJXJXJXJXJXJXJXJXJXJXJXJXJXJXJXJXJXJXJXJXJXJXJXJXJXJXJXJXJXJXJXJXJXJXJXJXJXJXJXJXJXJXJXJXJXJXJXJXJXJXJXJXJXJXJXJXJXJXJXJXJXJXJXJXJXJXJXJXJXJXJXJXJXJXJXJXJXJXJXJXJXJXJXJXJXJXJXJXJXJXJXJXJXJXJXJXJXJXJXJXJXJXJXJXJXJXJXGXGXJXJXSXnXcXhXXXrXrXhXxXhX{.A B * * * * * = * * 1 * = * * V T @.#.#.+.+.$.+.$.$.$.+.O.O.+.O.$.$.$.$.$.$.$.$.$.$.$.$.$.$.$.$.$.$.$.$.$.$.$.$.$.$.$.$.$.$.$.$.$.$.$.$.$.$.$.$.$.$.$.$.$.$.$.$.$.$.$.$.$.+.+.+.$.+.+.$.#.#.#.Q G F F F L H H K H H J J J H K K H H H H H H J J P U K U R !.R.E.E.E.Q.E.Q.Q.W.W.W.W.W.W.W.W.^.^.].^.^.W.Q.Q.Q.R.{.{.|.XXhXhXrXXXxXxXxXxXxXxXhXhXxXxXxXxXxXxXxXxXxXxXzXzX%XzXXX{.!._.OXsXxXzXzXXX%X%XzXhXhXhXhXzXxXxXxXxXxXxXxXxXxXzXzXzXzXzXxX",
">X-.' _ _ _ _ _ _ ' ' _ ` ` ` ` ` ` ` ` ` ` ` ` ` ` ` ` ` ` ` ` ` ` ` ` ` ` ` ` ` ` ` ` ` ` ` ` ` ` ` ` ` ` ` ` ` ` ` ` ` ` ` ` ` ` ` ` ` ` ` ` ` ` ` ` ` ` ` ` ` ` ` ` ` ` ` ` ` ` ) ] E W n 7 r w t w r z 8.f.g.g.f.f.C.C.f.f.f.f.f.f.f.f.f.f.f.f.f.f.f.f.f.f.C.f.d.9.6.l r t t t t e e t t e 4.3.s.a.a.h.h.h.a.a.a.a.2.4 3 g 2.t.a.b.y.c.c.c.c.c.c.c.c.c.c.c.c.c.c.c.c.c.c.c.c.c.c.c.c.c.c.c.y.y.c.c.c.z.z.z.c.r.r.u.u.i.j.l.yXtXtXtXxXxXrXhXbXnXAXKXJXKXHXHXGXJXJXJXJXJXJXJXJXJXJXJXJXJXJXJXJXJXJXJXJXJXJXJXJXJXJXJXJXJXJXJXJXJXJXJXJXJXJXJXJXJXJXJXJXJXJXJXJXJXJXJXJXJXJXJXJXJXJXJXJXJXJXJXJXJXJXJXJXJXJXJXJXJXJXJXJXJXJXJXJXJXJXJXJXJXJXJXJXJXJXJXJXJXJXJXJXJXJXJXJXJXJXJXJXJXJXJXJXJXJXJXJXJXJXJXJXJXJXJXJXJXJXJXJXJXJXJXJXJXJXJXJXJXJXJXJXJXJXJXJXJXJXJXGXJXGXJXJXJXDXnXcXhXhXhXhXxXxXrXE.S = * 1 * = * * * 1 * = * * , T @.%.#.+.+.$.$.$.$.$.+.O.O.O.O.$.$.$.$.$.$.$.$.$.$.$.$.$.$.$.$.$.$.$.$.$.$.$.$.$.$.$.$.$.$.$.$.$.$.$.$.$.$.$.$.$.$.$.$.$.$.$.$.$.$.$.$.$.+.+.+.$.+.+.$.#.#.#.Q T F F F L H H K H H J J J H K K H H H H H H J J J K K U R !.R.E.E.E.Q.E.Q.Q.W.W.W.W.W.W.W.^.^.^.].^.W.W.W.W.).].OX.X%XhXhXhXrXXXxXxXxXxXhXhXhXhXxXxXxXxXxXxXxXxXxXxXzXzX%X7XoX_.A.A._.oXsXzXzX@XzX%XzXhXhXhXhXzXzXzXzXzXzXzXhXhXzXzXzXzXzXzXzX",
";.-.) _ _ _ _ ' _ ' ` ` ` ` ` ` ` ` ` ` ` ` ` ` ` ` ` ` ` ` ` ` ` ` ` ` ` ` ` ` ` ` ` ` ` ` ` ` ` ` ` ` ` ` ` ` ` ` ` ` ` ` ` ` ` ` ` ` ` ` ` ` ` ` ` ` ` ` ` ` ` ` ` ` ` ` ` ` ` ` ) ]  .R n 8 u w t t r f b d.g.g.f.C.C.C.f.f.f.f.f.f.f.f.f.f.f.f.f.f.f.f.f.f.C.C.f.f.d.8.j p r t t e e t t e g g 2.t.s.M.M.M.h.a.a.m.t.g 2 3 1.3.a.b.m.m.c.y.c.c.b.c.c.c.c.c.c.c.c.c.c.c.c.c.c.c.c.c.c.c.c.c.y.y.c.c.c.c.z.z.z.c.c.y.u.u.u.j.`.yXkXtXjXjXrXhXcXbXDXHXJXJXHXJXGXJXJXJXJXJXJXJXJXJXJXJXJXJXJXJXJXJXJXJXJXJXJXJXJXJXJXJXJXJXJXJXJXJXJXJXJXJXJXJXJXJXJXJXJXJXJXJXJXJXJXJXJXJXJXJXJXJXJXJXJXJXJXJXJXJXJXJXJXJXJXJXJXJXJXJXJXJXJXJXJXJXJXJXJXJXJXJXJXJXJXJXJXJXJXJXJXJXJXJXJXJXJXJXJXJXJXJXJXJXJXJXJXJXJXJXJXJXJXJXJXJXJXJXJXJXJXJXJXJXJXJXJXJXJXJXJXJXJXJXJXJXJXJXGXJXGXGXGXJXGXDXbXcXhXhXhXhXhXhXoXl.N * 1 * = * * * 1 * * * * , T @.%.#.+.+.$.$.$.$.$.+.O.O.O.O.$.$.$.$.$.$.$.$.$.$.$.$.$.$.$.$.$.$.$.$.$.$.$.$.$.$.$.$.$.$.$.$.$.$.$.$.$.$.$.$.$.$.$.$.$.$.$.$.$.$.$.$.$.$.$.+.$.+.+.$.#.#.#.@.T F F L H H H K H H J J J H H H H H J K H H J J J P K V R !.!.E.E.E.E.E.Q.W.W.W.W.W.W.W.W.W.^.^.].^.W.W.).].{.{..X%XhXhXhXrXXXXXxXxXxXxXxXxXhXhXhXhXxXxXhXhXhXhXzXzXzXzX7X@XOXQ.R A A.'.tXsXzXzXzXzXhXhXhXhXhXhXzXzXzXzXxXxXhXhXzXzXzXzXzXzXzX",
">.&.) _ _ _ _ _ _ ' ` ` ` ` ` ` ` ` ` ` ` ` ` ` ` ` ` ` ` ` ` ` ` ` ` ` ` ` ` ` ` ` ` ` ` ` ` ` ` ` ` ` ` ` ` ` ` ` ` ` ` ` ` ` ` ` ` ` ` ` ` ` ` ` ` ` ` ` ` ` ` ` ` ` ` ` ` ` ` ` ) ]  .E U 8 u r t t u y l 9.g.g.f.C.C.C.f.f.f.f.f.f.f.f.f.f.f.f.f.f.f.f.f.f.C.C.C.f.g.0.8.5.h r t e e e e e 2 d g x 3.s.h.h.a.a.a.M.s.g 3 2 g 2.a.b.m.m.m.y.c.c.b.b.c.c.c.c.c.c.c.c.c.c.c.c.c.c.c.c.c.c.c.c.y.y.y.c.c.c.z.z.r.c.c.y.y.u.u.u.l.`.yXtXjXjXhXhXhXcXnXAXHXHXHXJXJXJXJXJXJXJXJXJXJXJXJXJXJXJXJXJXJXJXJXJXJXJXJXJXJXJXJXJXJXJXJXJXJXJXJXJXJXJXJXJXJXJXJXJXJXJXJXJXJXJXJXJXJXJXJXJXJXJXJXJXJXJXJXJXJXJXJXJXJXJXJXJXJXJXJXJXJXJXJXJXJXJXJXJXJXJXJXJXJXJXJXJXJXJXJXJXJXJXJXJXJXJXJXJXJXJXJXJXJXJXJXJXJXJXJXJXJXJXJXJXJXJXJXJXJXJXJXJXJXJXJXJXJXJXJXJXJXJXJXJXJXJXJXJXGXJXJXGXAXGXGXGXCXbXhXrXrXrXhXhXhX].S 1 * * = * * * 1 * * * * , T @.%.#.+.+.$.$.$.$.$.+.O.O.O.O.$.$.$.$.$.$.$.$.$.$.$.$.$.$.$.$.$.$.$.$.$.$.$.$.$.$.$.$.$.$.$.$.$.$.$.$.$.$.$.$.$.$.$.$.$.$.$.$.$.$.$.$.$.$.$.+.$.$.$.$.#.#.%.%.T F F L H H H H H H J J J H H H H H J J H H J J J P K V R !.R.E.E.E.E.E.Q.W.W.W.W.W.W.W.W.W.^.^.].].].].{.{.oX.XhXhXhXhXhXXXXXhXxXhXxXhXxXxXhXhXhXhXxXxXhXhXhXhXzXzXzXzXzX@XOX!.A.A A._.'.XXcXcXzXzXzXhXhXhXhXhXzXzXzXzXxXxXhXhXzXzXzXzXzXzXzX",
"-.[ ) _ _ _ _ _ _ _ ` ` ` ` ` ` ` ` ` ` ` ` ` ` ` ` ` ` ` ` ` ` ` ` ` ` ` ` ` ` ` ` ` ` ` ` ` ` ` ` ` ` ` ` ` ` ` ` ` ` ` ` ` ` ` ` ` ` ` ` ` ` ` ` ` ` ` ` ` ` ` ` ` ` ` ` ` ` ` ` ) ]  . .W n d y u t t t h 6.g.g.C.Z.C.f.f.f.f.f.f.f.f.f.f.f.f.f.f.f.f.f.f.f.C.f.f.f.f.g.d.0.6.z h r r e e e 2 2 e g g 2.3.t.a.a.a.h.s.1.g 2 g 1.s.a.m.m.m.a.m.m.b.b.c.c.c.c.c.c.c.c.c.c.c.c.c.c.c.c.c.c.c.c.y.y.y.c.c.c.c.c.c.r.y.y.y.y.u.u.j.l.uXyXxXjXhXhXhXxXbXNXHXHXHXJXJXJXJXJXJXJXJXJXJXJXJXJXJXJXJXJXJXJXJXJXJXJXJXJXJXJXJXJXJXJXJXJXJXJXJXJXJXJXJXJXJXJXJXJXJXJXJXJXJXJXJXJXJXJXJXJXJXJXJXJXJXJXJXJXJXJXJXJXJXJXJXJXJXJXJXJXJXJXJXJXJXJXJXJXJXJXJXJXJXJXJXJXJXJXJXJXJXJXJXJXJXJXJXJXJXJXJXJXJXJXJXJXJXJXJXJXJXJXJXJXJXJXJXJXJXJXJXJXJXJXJXJXJXJXJXJXJXJXJXJXJXJXJXJXJXJXJXJXGXSXGXJXAXnXxXhXhXhXhXhXhXrXE.S D * * * * * 1 * 1 * * , T @.%.#.+.+.$.$.$.$.$.+.+.+.O.+.$.$.$.$.$.$.$.$.$.$.$.$.$.$.$.$.$.$.$.$.$.$.$.$.$.$.$.$.$.$.$.$.$.$.$.$.$.$.$.$.$.$.$.$.$.$.$.$.$.$.$.$.$.$.+.+.$.$.$.$.#.#.%.%.T F F L H H H H H H J J J H K K H H H J H H J J J P K V R !.I.Q.E.E.Q.Q.Q.Q.W.W.W.W.W.W.W.W.W.W.].].].{.}..X.XhXxXxXxXxXhXhXhXhXhXhXhXhXxXxXxXxXhXhXxXxXxXxXhXxXzXzXzXzXzXsXOX!.A.R A.A._.OXfXmXxXzXzXhXhXxXhXhXhXhXzXzXhXhXhXhXzXzXzXzXzXzXzX",
"-.' ) _ _ _ _ _ _ _ ` ` ` ` ` ` ` ` ` ` ` ` ` ` ` ` ` ` ` ` ` ` ` ` ` ` ` ` ` ` ` ` ` ` ` ` ` ` ` ` ` ` ` ` ` ` ` ` ` ` ` ` ` ` ` ` ` ` ` ` ` ` ` ` ` ` ` ` ` ` ` ` ` ` ` ` ` ` ` ` _ ] ]  .R q u y u t t t y 6.g.g.C.Z.C.f.f.C.f.f.f.f.f.f.f.f.f.f.f.f.f.f.f.f.f.g.f.f.f.f.g.d.f.7.z h r e e e t e e e 2 g g 2.s.s.s.a.s.2.g 2 i 1.s.a.m.m.m.a.m.m.b.c.c.c.c.c.c.c.c.c.c.c.c.c.c.c.c.c.c.c.c.c.y.y.y.y.c.c.c.c.c.r.r.c.c.y.y.h.j.j.`.yXvXtXhXhXhXhXvXNXHXGXGXJXJXJXJXJXJXJXJXJXJXJXJXJXJXJXJXJXJXJXJXJXJXJXJXJXJXJXJXJXJXJXJXJXJXJXJXJXJXJXJXJXJXJXJXJXJXJXJXJXJXJXJXJXJXJXJXJXJXJXJXJXJXJXJXJXJXJXJXJXJXJXJXJXJXJXJXJXJXJXJXJXJXJXJXJXJXJXJXJXJXJXJXJXJXJXJXJXJXJXJXJXJXJXJXJXJXJXJXJXJXJXJXJXJXJXJXJXJXJXJXJXJXJXJXJXJXJXJXJXJXJXJXJXJXJXJXJXJXJXJXJXJXJXJXJXJXGXJXJXJXGXGXJXGXCXbXxXxXhXhXrXrXxXOXA B * * * * * 1 * * * * , T @.%.#.+.+.$.$.$.$.$.+.+.+.+.+.$.$.$.$.$.$.$.$.$.$.$.$.$.$.$.$.$.$.$.$.$.$.$.$.$.$.$.$.$.$.$.$.$.$.$.$.$.$.$.$.$.$.$.$.$.$.$.$.$.$.$.$.+.+.+.+.$.$.$.$.#.#.%.%.T F F L H H P K H H J J J H K K H H H K H H J J J J K V R { I.Q.E.Q.Q.Q.Q.Q.W.W.W.W.W.W.W.W.W.W.W.].{.OX.X.XhXhXhXxXxXxXxXhXhXhXhXxXhXhXxXxXxXxXhXhXxXxXxXxXxXzXzXzXzXxXmXsXOX!.A.A.A.A.S.'.fXmXcXzXzXhXzXxXxXhXhXhXzXzXhXhXhXhXzXzXzXzXzXzXzX",
"&.' ) _ ` _ ) _ ` ` ` ` ` ` ` ` ` ` ` ` ` ` ` ` ` ` ` ` ` ` ` ` ` ` ` ` ` ` ` ` ` ` ` ` ` ` ` ` ` ` ` ` ` ` ` ` ` ` ` ` ` ` ` ` ` ` ` ` ` ` ` ` ` ` ` ` ` ` ` ` ` ` ` ` ` ` ` ` ` ` T ` ]  .G.Z f 8 t t t w r l 8.d.C.Z.C.f.f.f.f.f.f.f.f.f.f.f.f.f.f.f.f.f.f.f.f.f.f.f.f.f.f.f.f.g.d.8.l h r e e e e r r e e 2 g 4.3.s.s.s.4.g i 4.3.s.M.m.b.r.a.r.r.r.r.c.c.m.z.b.b.b.b.b.z.z.c.c.c.c.c.c.c.c.y.y.y.y.c.c.c.c.c.c.c.c.c.c.y.y.m.u.l.uXtXxXhXhXhXhXxXvXNXAXHXGXGXGXJXJXJXJXGXGXJXJXJXJXJXJXJXJXJXJXJXJXJXJXJXJXJXJXJXJXJXJXJXJXJXJXJXJXJXJXJXJXJXJXJXJXJXJXJXJXJXJXJXJXJXJXJXJXJXJXJXJXJXJXJXJXJXJXJXJXJXJXJXJXJXJXJXJXJXJXJXJXJXJXJXJXJXJXJXJXJXJXJXJXJXJXJXJXJXJXJXJXJXJXJXJXJXJXJXJXJXJXJXJXJXJXJXJXJXJXJXJXJXJXJXJXJXJXJXJXJXJXJXJXJXJXJXJXJXJXJXJXJXJXJXJXJXJXJXJXJXJXJXJXJXGXCXbXhXrXhXrXxXhXhX{.A D D D 1 * 1 1 D D : : T @.%.+.+.+.$.+.$.#.$.+.O.O.O.O.$.$.$.$.$.$.$.$.$.$.$.$.$.$.$.$.$.$.$.$.$.$.$.$.$.$.$.$.$.$.$.$.$.$.$.$.$.$.$.$.$.$.$.$.$.$.$.$.$.$.$.$.+.+.+.+.$.$.$.$.#.#.#.%.T F F L H K K H H H J J J H H K H H H K H H J J J U U V R P.Q.Q.E.Q.Q.Q.Q.W.W.W.W.W.Q.W.].].].].{.{.oXXXhXzXxXxXxXzXhX%X%XhXzXxXzXzXzXzXzXzXzXzXzXzXzXzXzXzXzXzXzX7XcXcXcXsXOXS.A.A.A.A.A._.fXmXmXmXzXrXrXxXxXhXhXhXhXhXhXhXhXhXzXzXzXzXzXzXzX",
"&.' ) _ _ _ _ _ ` ` ` ` ` ` ` ` ` ` ` ` ` ` ` ` ` ` ` ` ` ` ` ` ` ` ` ` ` ` ` ` ` ` ` ` ` ` ` ` ` ` ` ` ` ` ` ` ` ` ` ` ` ` ` ` ` ` ` ` ` ` ` ` ` ` ` ` ` ` ` ` ` ` ` ` _ _ ` ` ` ` T ` ]  .E U n 8 7 t t t t h 8.d.C.C.C.f.f.f.f.f.f.f.f.f.f.f.f.f.f.f.f.f.f.f.f.f.f.f.f.f.f.f.f.f.g.d.8.6.l l h p e e w e e e e g g 2.t.3.4.g i g 2.s.M.M.b.a.m.m.m.r.r.r.c.c.b.b.b.b.b.b.z.z.c.c.c.c.c.c.c.c.y.y.y.y.c.c.c.c.c.c.c.c.c.c.y.c.m.h.j.S.yXtXjXhXjXrXjXcXbXNXAXKXJXJXJXJXJXJXGXGXJXJXJXJXJXJXJXJXJXJXJXJXJXJXJXJXJXJXJXJXJXJXJXJXJXJXJXJXJXJXJXJXJXJXJXJXJXJXJXJXJXJXJXJXJXJXJXJXJXJXJXJXJXJXJXJXJXJXJXJXJXJXJXJXJXJXJXJXJXJXJXJXJXJXJXJXJXJXJXJXJXJXJXJXJXJXJXJXJXJXJXJXJXJXJXJXJXJXJXJXJXJXJXJXJXJXJXJXJXJXJXJXJXJXJXJXJXJXJXJXJXJXJXJXJXJXJXJXJXJXJXJXJXJXJXJXJXJXJXJXJXJXJXJXGXGXDXnXcXhXhXhXhXhXhXoXP.B * * 1 * 1 * * D : , T @.%.+.+.+.$.+.$.#.$.+.O.O.O.O.$.$.$.$.$.$.$.$.$.$.$.$.$.$.$.$.$.$.$.$.$.$.$.$.$.$.$.$.$.$.$.$.$.$.$.$.$.$.$.$.$.$.$.$.$.$.$.$.$.$.$.$.+.+.+.+.$.$.$.$.#.#.#.%.T G F L H K K H H H J J J H H P H H H K H H J J J U U V Y { Q.Q.Q.Q.Q.Q.Q.W.W.W.W.W.W.W.^.].{.{.OXoX.X%XhXhXxXzXxXzXhX%X%XhXzXxXzXzXzXzXzXzXzXzXzXzXzXzXzXzXzXzXzX7XzXcXxXsX'.S.A.A.A.Z.A.S.'.dXmXmXxXsXrXzXxXhXhXhXhXhXhXhXhXhXzXzXzXzXzXzXzX",
"[ ' ) _ _ _ _ ` ` ` ` ` ` ` ` ` ` ` ` ` ` ` ` ` ` ` ` ` ` ` ` ` ` ` ` ` ` ` ` ` ` ` ` ` ` ` ` ` ` ` ` ` ` ` ` ` ` ` ` ` ` ` ` ` ` ` ` ` ` ` ` ` ` ` ` ` ` ` ` ` ` ` ` ` _ _ ` ` ` ` T ) `  . .R n 0 7 7 t t s r 6.p.f.C.f.f.f.f.f.f.f.f.f.f.f.f.f.f.f.f.f.f.f.f.f.f.f.f.f.f.f.f.f.f.f.f.d.d.0.7.2.l h r t t w e 2 2 d g z z g g i g 4.s.s.n.b.a.m.m.b.a.r.r.r.r.b.b.b.b.b.b.b.b.c.c.c.c.c.c.c.c.c.c.c.c.c.c.c.c.c.c.c.c.c.c.c.c.c.m.u.j.`.yXtXtXrXrXrXhXcXnXDXGXJXJXJXJXJXGXGXJXJXJXJXJXJXJXJXJXJXJXJXJXJXJXJXJXJXJXJXJXJXJXJXJXJXJXJXJXJXJXJXJXJXJXJXJXJXJXJXJXJXJXJXJXJXJXJXJXJXJXJXJXJXJXJXJXJXJXJXJXJXJXJXJXJXJXJXJXJXJXJXJXJXJXJXJXJXJXJXJXJXJXJXJXJXJXJXJXJXJXJXJXJXJXJXJXJXJXJXJXJXJXJXJXJXJXJXJXJXJXJXJXJXJXJXJXJXJXJXJXJXJXJXJXJXJXJXJXJXJXJXJXJXJXJXJXJXJXJXJXJXJXJXJXGXGXGXDXnXcXhXhXhXrXhXhX{.A 1 * 1 * 1 * * * * : T @.%.+.+.+.$.+.$.#.#.+.+.+.O.O.$.$.$.$.$.$.$.$.$.$.$.$.$.$.$.$.$.$.$.$.$.$.$.$.$.$.$.$.$.$.$.$.$.$.$.$.$.$.$.$.$.$.$.$.$.$.$.$.$.$.$.$.$.+.+.+.$.$.$.$.#.#.%.%.Q I F L H K K K H H J J J H H H H H H K H H J J J J U V V { Q.Q.Q.Q.Q.Q.Q.Q.Q.Q.W.W.W.W.].{.OX.XXXXX%XhXhXhXzXzXxXzXhX%XhXhXxXzXzXzXzXzXzXzXzXzXzXzXzXzXzXzXzXzXzX7XzXcXsXfX'.S.A.A.A.Z.Z.A.'.fXdXmXmXxXsXhXhXhXhXhXhXhXhXhX%X%XzXzXzXzXzXzXzX",
"' ) ) _ _ _ _ ` ` ` ` ` ` ` ` ` ` ` ` ` ` ` ` ` ` ` ` ` ` ` ` ` ` ` ` ` ` ` ` ` ` ` ` ` ` ` ` ` ` ` ` ` ` ` ` ` ` ` ` ` ` ` ` ` ` ` ` ` ` ` ` ` ` ` ` ` ` ` ` ` ` ` ` _ _ _ ` ` ` ` T T ] ]  .E Z 0 7 7 t t t w l 7.g.f.f.f.f.f.f.f.f.f.f.f.f.f.f.f.f.f.f.f.f.f.f.f.f.f.f.f.f.f.f.f.f.f.f.f.g.g.d.7.6.z h r e w e e e e g d g e i g 4.3.s.M.M.b.a.a.a.r.r.r.r.r.b.b.b.b.b.b.b.b.c.c.c.c.c.c.c.c.c.c.c.c.c.c.c.c.c.c.c.c.c.c.c.c.c.c.u.u.l.uXtXtXtXrXrXrXhXvXNXHXJXJXJXJXJXGXJXJXJXJXJXJXJXJXJXJXJXJXJXJXJXJXJXJXJXJXJXJXJXJXJXJXJXJXJXJXJXJXJXJXJXJXJXJXJXJXJXJXJXJXJXJXJXJXJXJXJXJXJXJXJXJXJXJXJXJXJXJXJXJXJXJXJXJXJXJXJXJXJXJXJXJXJXJXJXJXJXJXJXJXJXJXJXJXJXJXJXJXJXJXJXJXJXJXJXJXJXJXJXJXJXJXJXJXJXJXJXJXJXJXJXJXJXJXJXJXJXJXJXJXJXJXJXJXJXJXJXJXJXJXJXJXJXJXJXJXJXJXJXJXJXJXGXSXGXGXCXbXhXrXjXrXhXjXhXE.B * * * 1 * * * * : T @.%.+.+.+.$.+.$.#.#.+.O.+.O.O.$.$.$.$.$.$.$.$.$.$.$.$.$.$.$.$.$.$.$.$.$.$.$.$.$.$.$.$.$.$.$.$.$.$.$.$.$.$.$.$.$.$.$.$.$.$.$.$.$.$.$.$.$.+.+.+.$.$.$.$.#.#.%.%.Q I F F H K H J H H J J J H H H H H H H H H J J J U U V V { Q.Q.W.W.W.Q.Q.Q.Q.Q.Q.W.^.].{.OX.XhXhXhXhXhX%XhXhXzXxXzXhX%XhXhXxXzXzXzXzXzXzXzXzXzXzXzXzXzXzXzXzXzXzX7X%XsXsXOX_.S.A.A.S.A.Z.A.S.'.fXmXmXmXsXrXrXhXhXhXhXhXhXhX%X%XzXzXzXzXzXzXzX",
") ' ) _ _ _ ` ` ` ` ` ` ` ` ` ` ` ` ` ` ` ` ` ` ` ` ` ` ` ` ` ` ` ` ` ` ` ` ` ` ` ` ` ` ` ` ` ` ` ` ` ` ` ` ` ` ` ` ` ` ` ` ` ` ` ` ` ` ` ` ` ` ` ` ` ` ` ` ` ` ` ` ` _ _ _ ` ` ` ` T ) ) ]  .E Z 0 9 7 t r w r h 6.d.g.f.f.C.C.f.f.f.f.f.f.f.f.f.f.f.f.f.f.f.f.f.f.f.f.f.f.f.f.f.f.f.f.f.f.f.f.f.g.d.7.6.l h h e t s 2 t e e i e i z 2.3.s.s.s.s.a.a.a.a.a.a.a.b.b.b.b.b.b.b.b.c.c.c.c.c.c.c.c.c.c.c.c.c.c.c.c.c.c.c.c.y.c.c.c.v.y.y.u.u.S.yXxXrXjXhXhXrXxXnXCXGXJXJXJXGXGXJXJXJXJXJXJXJXJXJXJXJXJXJXJXJXJXJXJXJXJXJXJXJXJXJXJXJXJXJXJXJXJXJXJXJXJXJXJXJXJXJXJXJXJXJXJXJXJXJXJXJXJXJXJXJXJXJXJXJXJXJXJXJXJXJXJXJXJXJXJXJXJXJXJXJXJXJXJXJXJXJXJXJXJXJXJXJXJXJXJXJXJXJXJXJXJXJXJXJXJXJXJXJXJXJXJXJXJXJXJXJXJXJXJXJXJXJXJXJXJXJXJXJXJXJXJXJXJXJXJXJXJXJXJXJXJXJXJXJXJXJXJXJXJXJXJXGXAXAXGXAXnXcXrXxXhXhXhXhXoXl.D * * 1 1 * * * : T @.%.+.+.+.#.+.$.$.#.+.+.+.+.O.$.$.$.$.$.$.$.$.$.$.$.$.$.$.$.$.$.$.$.$.$.$.$.$.$.$.$.$.$.$.$.$.$.$.$.$.$.$.$.$.$.$.$.$.$.$.$.$.$.$.$.$.O.+.+.+.$.$.$.$.#.#.%.%.@.T F L H H H H H H J J J H K H H H H H J J J J J U U U V { Q.Q.W.W.W.Q.Q.Q.Q.Q.W.W.].{.|.hXhXzXhXhX%XXXXXhXhXzXxXzXhX%X%XzXxXzXzXzXzXzXzXzXzXzXzXzXzXzXzXzXzXzXzX7XXXsXsX'.S.A.A.D.D.D.A.Z.A.'.OXsXmXmXsXrXrXhXhXhXhXhX%X%X%X%XzXzXzXzXzXzXzX",
") ' ) _ _ _ _ _ ` ` ` ` ` ` ` ` ` ` ` ` ` ` ` ` ` ` ` ` ` ` ` ` ` ` ` ` ` ` ` ` ` ` ` ` ` ` ` ` ` ` ` ` ` ` ` ` ` ` ` ` ` ` ` ` ` ` ` ` ` ` ` ` ` ` ` ` ` ` ` ` ` ` ` _ _ _ ` ` ` ` _ ) ' ]  .~.R 0 9 7 t r r r h b p.d.g.f.C.C.f.f.f.f.f.f.f.f.f.f.f.f.f.f.f.f.f.f.f.f.f.f.f.f.f.f.f.f.f.f.f.f.g.f.f.f.d.7.6.2.h r r t t e e e w i i z 2.3.s.s.s.s.n.n.b.b.a.a.b.b.m.m.m.m.m.m.c.c.c.c.c.c.c.c.c.c.c.c.c.c.c.c.c.c.c.c.c.c.c.c.M.z.c.y.i.j.`.yXtXhXxXhXXXhXvXnXDXSXJXJXJXGXJXJXJXJXJXJXJXJXJXJXJXJXJXJXJXJXJXJXJXJXJXJXJXJXJXJXJXJXJXJXJXJXJXJXJXJXJXJXJXJXJXJXJXJXJXJXJXJXJXJXJXJXJXJXJXJXJXJXJXJXJXJXJXJXJXJXJXJXJXJXJXJXJXJXJXJXJXJXJXJXJXJXJXJXJXJXJXJXJXJXJXJXJXJXJXJXJXJXJXJXJXJXJXJXJXJXJXJXJXJXJXJXJXJXJXJXJXJXJXJXJXJXJXJXJXJXJXJXJXJXJXJXJXJXJXJXJXJXJXJXJXJXJXJXJXJXJXAXAXGXGXDXbXxXhXhXxXhXhXxX).B 1 * 1 1 D D * : T @.%.+.+.+.$.+.$.#.#.+.+.+.O.O.$.$.$.$.$.$.$.$.$.$.$.$.$.$.$.$.$.$.$.$.$.$.$.$.$.$.$.$.$.$.$.$.$.$.$.$.$.$.$.$.$.$.$.$.$.$.$.$.$.$.$.$.O.+.+.+.$.$.$.$.#.#.%.%.@.T F F H H H J H H J J J H K K H H J J H J J J J J U U V R Q.Q.Q.Q.Q.Q.W.W.W.W.].{.{.oXhXzXcXzXhX%X%X%XXXhXzXxXxXxXhXhXzXzXzXzXzXzXzXzXzXzXzXzXzXzXzXzXzXzXzXzXzX7XXXsXsX'.A.A.D.D.'.D.A.A.A.S._.OXsXmXxXsXsXrXhXhXhXhX%X%X%X%XzXzXzXzXzXzXzX",
") ' ' _ _ _ ` _ ` ` ` ` ` ` ` ` ` ` ` ` ` ` ` ` ` ` ` ` ` ` ` ` ` ` ` ` ` ` ` ` ` ` ` ` ` ` ` ` ` ` ` ` ` ` ` ` ` ` ` ` ` ` ` ` ` ` ` ` ` ` ` ` ` ` ` ` ` ` ` ` ` ` ` _ _ _ ` ` o.o._ T ) ] ] ~.A.n 9 9 7 r r r r l 7.d.g.f.C.C.C.C.f.f.f.f.f.f.f.f.f.f.f.f.f.f.f.f.f.f.f.f.f.f.f.f.f.f.f.f.f.f.g.g.g.f.g.d.d.0.8.6.l h r e e e w r y i g z 4.2.s.s.s.s.b.b.m.m.b.b.m.m.m.m.m.m.c.c.c.c.c.c.c.c.c.c.c.c.c.c.c.c.c.c.c.c.y.y.y.y.m.c.c.y.i.i.l.`.yXrXhXhX%XrXxXcXCXDXGXJXJXGXJXJXJXJXJXJXJXJXJXJXJXJXJXJXJXJXJXJXJXJXJXJXJXJXJXJXJXJXJXJXJXJXJXJXJXJXJXJXJXJXJXJXJXJXJXJXJXJXJXJXJXJXJXJXJXJXJXJXJXJXJXJXJXJXJXJXJXJXJXJXJXJXJXJXJXJXJXJXJXJXJXJXJXJXJXJXJXJXJXJXJXJXJXJXJXJXJXJXJXJXJXJXJXJXJXJXJXJXJXJXJXJXJXJXJXJXJXJXJXJXJXJXJXJXJXJXJXJXJXJXJXJXJXJXJXJXJXJXJXJXJXJXJXJXJXJXJXGXAXGXJXAXNXbXrXhXxXhXrXxXoXH.B 1 1 * * D * : T @.%.+.O.+.$.+.$.$.$.+.O.O.O.O.$.$.$.$.$.$.$.$.$.$.$.$.$.$.$.$.$.$.$.$.$.$.$.$.$.$.$.$.$.$.$.$.$.$.$.$.$.$.$.$.$.$.$.$.$.$.$.$.$.$.$.$.O.O.+.+.$.$.$.$.#.#.%.%.*.T F F H H P J H H J J J H K K H H J J H H J J J J U U V R Q.Q.Q.Q.Q.Q.W.W.W.W.{.OX.XhXxXzXzXxX%X%X%X%X%XhXzXzXzXzXzX7X7XzXzXzXzXzXzXzXzXzX7X7XzXzXzXzXzXzXzXzX7XzXXXzXsX'.A.A.D.D.'.'.D.A.A.A.A.'.fXmXcXzXrXrXhXhXhXhX%X%X%X%XzXzXzXzXzXzXzX",
"' _ ' _ _ ` _ _ ` ` ` ` ` ` ` ` ` ` ` ` ` ` ` ` ` ` ` ` ` ` ` ` ` ` ` ` ` ` ` ` ` ` ` ` ` ` ` ` ` ` ` ` ` ` ` ` ` ` ` ` ` ` ` ` ` ` ` ` ` ` ` ` ` ` ` ` ` ` ` ` ` ` ` _ _ _ ` ` ` o.` T ) ) ]  .~.V 9 9 7 u w w r z 8.p.g.f.C.C.C.C.f.f.f.f.f.f.f.f.f.f.f.f.f.f.f.f.f.f.f.f.f.f.f.f.f.f.g.f.g.g.f.g.d.d.d.d.d.g.g.d.7.l h r r e w r e e e i g z 4.2.3.s.s.s.M.M.b.b.b.b.b.b.b.m.b.b.b.c.m.m.m.m.c.c.c.c.c.c.c.c.c.c.c.c.c.c.c.c.r.c.y.m.h.i.i.l.yXtXrXxXhXrXrXjXnXCXGXJXJXGXJXJXJXJXJXJXJXJXJXJXJXJXJXJXJXJXJXJXJXJXJXJXJXJXJXJXJXJXJXJXJXJXJXJXJXJXJXJXJXJXJXJXJXJXJXJXJXJXJXJXJXJXJXJXJXJXJXJXJXJXJXJXJXJXJXJXJXJXJXJXJXJXJXJXJXJXJXJXJXJXJXJXJXJXJXJXJXJXJXJXJXJXJXJXJXJXJXJXJXJXJXJXJXJXJXJXJXJXJXJXJXJXJXJXJXJXJXJXJXJXJXJXJXJXJXJXJXJXJXJXJXJXJXJXJXJXJXJXJXJXJXJXJXJXJXJXJXJXGXGXGXGXCXnXhXxXxXjXrXhX&X].B D * = * D * : Y @.%.+.+.+.#.#.$.$.#.+.O.O.O.O.$.$.$.$.$.$.$.$.$.$.$.$.$.$.$.$.$.$.$.$.$.$.$.$.$.$.$.$.$.$.$.$.$.$.$.$.$.$.$.$.$.$.$.$.$.$.$.$.$.$.$.$.O.O.+.O.$.$.$.$.$.#.$.%.*.T F F H J J J H H J J J J K K H H H H H H J J J J U U V R Q.Q.E.E.Q.Q.W.W.].].oX.XhXxXxXhXhXzXhX%X%X%XhXzXzXzXzXzXzX7X7XzXzXzXzXzXzXzXzX7X7X7XzXzXzXzXzXzXzXzXzXzX7XzXxX'.A.A.D.D.iX'.D.A.A.Z.A._.fXmXmXxXsXrXzXhXhXhX%X%X%X%XzXzXzXzXzXzXzX",
"` ` ` ` ` ` ` ` ` ` ` ` ` ` ` ` ` ` ` ` ` ` ` ` ` ` ` ` ` ` ` ` ` ` ` ` ` ` ` ` ` ` ` ` ` ` ` ` ` ` ` ` ` ` ` ` ` ` ` ` ` ` ` ` ` ` ` ` ` ` ` ` ` ` ` ` ` ` ` ` ` ` ` ` ` ` ` ` ` o.o.o.` ` ] ]  .W q 0 8 t t w t r k p.g.f.C.C.C.C.C.f.f.f.f.f.f.f.f.C.C.C.f.f.f.f.f.f.f.f.f.f.g.g.g.g.f.g.f.f.g.g.g.g.d.d.d.g.d.d.d.d.7.6.l j r r e r e e e i i d g 4.2.8.s.s.s.n.n.N.M.M.n.b.b.b.b.b.a.b.a.a.b.z.c.c.m.m.m.m.c.c.c.c.c.c.c.c.c.r.c.m.c.u.i.i.`.yXtXtXjXxXrXhXxXnXDXGXGXJXJXSXSXSXSXGXGXHXHXGXJXJXJXJXJXJXJXJXJXJXJXJXJXJXJXJXJXJXJXJXJXJXJXJXJXJXJXJXJXJXJXJXJXJXJXJXJXJXJXJXJXJXJXJXJXJXJXJXJXJXJXJXJXJXJXJXJXJXJXJXJXJXJXJXJXJXJXJXJXJXJXJXJXJXJXJXJXJXJXJXJXJXJXJXJXJXJXJXJXJXJXJXJXJXJXJXJXJXJXJXJXJXJXJXJXJXJXJXJXJXJXJXJXJXJXJXJXJXJXJXJXJXJXJXJXJXJXJXJXJXJXJXJXJXJXJXJXJXGXGXGXGXSXSXbXjXhXxXhXhXXX.XP.B = * * * : , Y @.#.$.+.#.@.#.#.#.#.+.$.O.+.+.O.$.$.$.$.$.$.$.$.$.$.$.$.$.$.$.$.$.$.$.$.$.$.$.$.$.$.$.$.$.$.$.$.$.$.$.$.$.$.$.$.$.$.$.$.$.$.$.$.$.$.$.$.$.$.$.$.$.$.$.$.$.$.#.%.T I L H J J J J J J J J J J J J J J J H H J J J J U U V R Q.Q.Q.Q.Q.Q.W.{.OXoXzXzXxXzXxXzXhXhXXX%X%X%X7X7XzXzXzXzXzXzXzXzXzXzXxXxXxXzXzXzX7X7X7XzXzXzXzXzXzXzXzXzXXXxXvX'.A.A.S.D.iXiX'.D.A.Z.A.A.'.fXmXmXsXzXrXhXhX%XzXhXhXhXzXzXzXzXzXzXzX",
"` ` ` ` ` ` ` ` ` ` ` ` ` ` ` ` ` ` ` ` ` ` ` ` ` ` ` ` ` ` ` ` ` ` ` ` ` ` ` ` ` ` ` ` ` ` ` ` ` ` ` ` ` ` ` ` ` ` ` ` ` ` ` ` ` ` ` ` ` ` ` ` ` ` ` ` ` ` ` ` ` ` ` ` ` ` ` ` ` o.o.o.` ` ` ]  .Y V q 0 7 t r t t k p.g.g.f.C.C.C.C.f.f.f.f.C.f.f.f.C.C.C.f.f.f.f.f.f.f.f.f.f.g.g.g.g.g.g.g.g.g.g.g.g.d.d.d.g.d.d.g.d.d.7.8.6.l j h r e r e e e e r d g z z z 2.3.7.s.s.s.n.M.n.s.n.b.b.b.a.a.r.r.r.r.r.r.z.z.c.c.c.c.v.v.c.z.m.m.m.m.c.r.u.i.l.uXtXtXtXjXtXtXxXbXNXAXGXGXGXSXSXSXSXSXHXHXHXHXJXJXJXJXJXJXJXJXJXJXJXJXJXJXJXJXJXJXJXJXJXJXJXJXJXJXJXJXJXJXJXJXJXJXJXJXJXJXJXJXJXJXJXJXJXJXJXJXJXJXJXJXJXJXJXJXJXJXJXJXJXJXJXJXJXJXJXJXJXJXJXJXJXJXJXJXJXJXJXJXJXJXJXJXJXJXJXJXJXJXJXJXJXJXJXJXJXJXJXJXJXJXJXJXJXJXJXJXJXJXJXJXJXJXJXJXJXJXJXJXJXJXJXJXJXJXJXJXJXJXJXJXJXJXJXJXJXJXGXGXGXGXSXSXbXxXhXjXhXhXhX.X{.S * = * * : , Y @.#.$.+.#.#.#.#.#.#.#.$.$.O.O.O.$.$.$.$.$.$.$.$.$.$.$.$.$.$.$.$.$.$.$.$.$.$.$.$.$.$.$.$.$.$.$.$.$.$.$.$.$.$.$.$.$.$.$.$.$.$.$.$.$.$.$.$.$.$.$.$.$.$.$.$.$.$.#.%.T I L H J J J J J J J J J J J J J J J H H J J J J J U U R !.Q.Q.Q.^.^.{.{.|.XXzXzXxXzXxXzXhXhXhX%X%X%X7X7XzXzXzXzXzXzXzXzXzXzXxXxXxXxXzXzX7X7X7X7XzXzXzXzXzXzXzXzXrXxXvX'.A.A.S.D.iXiX'.D.A.A.A.A.`.OXdXmXcXzXrXXXhX%XhXhXhXzXzXzXzXzXzXzXzX",
"` ` ` ` ` ` ` ` ` ` ` ` ` ` ` ` ` ` ` ` ` ` ` ` ` ` ` ` ` ` ` ` ` ` ` ` ` ` ` ` ` ` ` ` ` ` ` ` ` ` ` ` ` ` ` ` ` ` ` ` ` ` ` ` ` ` ` ` ` ` ` ` ` ` ` ` ` ` ` ` ` ` ` ` ` ` ` ` ` ` o.` ` ` ` ]  .E U q m 8 t r t r k 8.p.g.f.C.C.C.C.C.C.C.C.C.f.f.f.C.f.f.f.f.f.f.f.f.f.f.f.f.f.f.g.f.g.g.g.g.g.g.g.g.d.d.g.g.d.d.g.g.d.d.d.d.7.8.6.l h r e e e e e e e e e e g g z 4.2.s.s.s.s.s.s.a.a.a.b.a.m.m.b.m.a.a.r.r.z.z.z.z.c.c.c.c.m.m.m.m.r.y.u.u.u.`.yXtXtXrXrXtXrXxXnXCXGXGXSXSXSXSXSXSXGXGXGXGXJXJXJXJXJXJXJXJXJXJXJXJXJXJXJXJXJXJXJXJXJXJXJXJXJXJXJXJXJXJXJXJXJXJXJXJXJXJXJXJXJXJXJXJXJXJXJXJXJXJXJXJXJXJXJXJXJXJXJXJXJXJXJXJXJXJXJXJXJXJXJXJXJXJXJXJXJXJXJXJXJXJXJXJXJXJXJXJXJXJXJXJXJXJXJXJXJXJXJXJXJXJXJXJXJXJXJXJXJXJXJXJXJXJXJXJXJXJXJXJXJXJXJXJXJXJXJXJXJXJXJXJXJXJXJXJXJXJXGXGXGXGXGXGXNXbXxXhXhXhXhXXX|.P.B = * * * , Y @.#.$.+.#.#.#.#.#.#.$.$.$.O.O.O.$.$.$.$.$.$.$.$.$.$.$.$.$.$.$.$.$.$.$.$.$.$.$.$.$.$.$.$.$.$.$.$.$.$.$.$.$.$.$.$.$.$.$.$.$.$.$.$.$.$.$.$.$.$.$.$.$.$.$.$.$.$.#.%.T I L H J J J J H J J J J J J J J J J H H J J J J J U U R !.Q.Q.^.{.{.oX|.%XzXzXzXxXxXxXzXxXhXhX%X%X7X7X7X7XzXzXzXzXzXzXzXzXzXhXhXzXzXzX7X7X7X7X7XzXzXzXzXzXzXzXzXrXxXdX'.A.A.A.D.iXiXeXD.D.A.A.A.A.'.fXmXmXcXsXXX%X%XhXhXhXzX%X%XrXzXhXhXzX",
"` ` ` ` ` ` ` ` ` ` ` ` ` ` ` ` ` ` ` ` ` ` ` ` ` ` ` ` ` ` ` ` ` ` ` ` ` ` ` ` ` ` ` ` ` ` ` ` ` ` ` ` ` ` ` ` ` ` ` ` ` ` ` ` ` ` ` ` ` ` ` ` ` ` ` ` ` ` ` ` ` ` ` ` ` ` ` ` ` ` o.` ` ` ` ] ]  .R V m 8 7 r t t f b 7.g.f.C.C.C.C.C.C.C.C.C.f.f.f.f.f.f.f.f.f.f.f.f.f.f.f.f.f.f.f.f.g.g.g.g.g.g.g.g.d.d.g.g.d.d.d.d.d.d.d.d.d.d.d.7.6.l h h h d d r r e e e e e d g g 4.4.2.s.s.s.a.s.a.s.b.m.m.b.b.b.b.b.b.b.z.z.z.z.c.c.c.M.M.M.z.r.h.h.u.i.l.`.tXdXsXsXrXrXjXvXNXAXGXSXGXSXSXSXSXGXGXGXGXJXJXJXJXJXJXJXJXJXJXJXJXJXJXJXJXJXJXJXJXJXJXJXJXJXJXJXJXJXJXJXJXJXJXJXJXJXJXJXJXJXJXJXJXJXJXJXJXJXJXJXJXJXJXJXJXJXJXJXJXJXJXJXJXJXJXJXJXJXJXJXJXJXJXJXJXJXJXJXJXJXJXJXJXJXJXJXJXJXJXJXJXJXJXJXJXJXJXJXJXJXJXJXJXJXJXJXJXJXJXJXJXJXJXJXJXJXJXJXJXJXJXJXJXJXJXJXJXJXJXJXJXJXJXJXJXJXJXGXGXGXGXGXGXDXnXcXhXhXhXhXhXXX].S * * * * : Y @.#.$.+.$.#.#.$.$.$.$.$.$.O.O.O.$.$.$.$.$.$.$.$.$.$.$.$.$.$.$.$.$.$.$.$.$.$.$.$.$.$.$.$.$.$.$.$.$.$.$.$.$.$.$.$.$.$.$.$.$.$.$.$.$.$.$.$.$.$.$.$.$.$.$.$.$.$.#.%.Q I L H J J J J H J J J J J J J J J J H H J J J J J U U R !.Q.Q.{.OX|.%X7XzXzXxXxXxXxXzXzXxXzXhX%X%X%XzX7X7XzXzXzXzXzXzXzXzXzXhXhXzXzXzXzX7X7X7X7XzXzXzXzXzXzXzXzXrXxXdX'.A.A.A.D.iXiXiX'.D.S.A.A.A.S.'.fXmXmXsXsXrXXX%X%XhXhXXX%XrXrXhXzXzX",
"` ` ` ` ` ` ` ` ` ` ` ` ` ` ` ` ` ` ` ` ` ` ` ` ` ` ` ` ` ` ` ` ` ` ` ` ` ` ` ` ` ` ` ` ` ` ` ` ` ` ` ` ` ` ` ` ` ` ` ` ` ` ` ` ` ` ` ` ` ` ` ` ` ` ` ` ` ` ` ` ` ` ` ` ` ` ` ` ` ` ` ` ` ` ` ] ]  .E U q 8 8 t t t t f 6.d.f.f.C.C.C.C.C.C.C.C.f.f.f.f.f.f.f.f.f.f.f.f.f.f.f.f.f.f.g.g.g.g.g.g.g.g.g.g.d.d.d.g.d.d.d.d.d.d.d.d.d.d.g.d.d.7.6.6.z z z g h r e e e e e e e i d g 4.4.2.2.3.t.s.s.s.a.s.s.a.b.b.b.b.z.z.z.z.z.z.c.m.M.m.b.r.h.j.j.i.C l.OXdXdXdXrXrXrXcXnXDXDXSXGXSXSXSXSXGXGXGXGXJXJXJXJXJXJXJXJXJXJXJXJXJXJXJXJXJXJXJXJXJXJXJXJXJXJXJXJXJXJXJXJXJXJXJXJXJXJXJXJXJXJXJXJXJXJXJXJXJXJXJXJXJXJXJXJXJXJXJXJXJXJXJXJXJXJXJXJXJXJXJXJXJXJXJXJXJXJXJXJXJXJXJXJXJXJXJXJXJXJXJXJXJXJXJXJXJXJXJXJXJXJXJXJXJXJXJXJXJXJXJXJXJXJXJXJXJXJXJXJXJXJXJXJXJXJXJXJXJXJXJXJXJXJXJXJXJXJXJXGXGXGXGXGXGXCXbXxXhXhXhXhXXXoXP.B * * * : Y *.%.$.+.$.#.$.$.$.$.$.$.+.O.+.+.$.$.$.$.$.$.$.$.$.$.$.$.$.$.$.$.$.$.$.$.$.$.$.$.$.$.$.$.$.$.$.$.$.$.$.$.$.$.$.$.$.$.$.$.$.$.$.$.$.$.$.$.$.$.$.$.$.$.$.$.$.$.#.%.Q T F H J J J J H H H J J J H J J K K H H J J J J J U U R !.^.{.}.|.%XzXzXzXzXxXxXzXzXzXzXxXzXzX7X7XzXzXzXzXzXzXzXzXzXzXzXzXzXzXzXzXzXzXzXzXzXzXzXzXzXzXzXzXzXzXzXXXxXdX_.A.A.A.D.iXpXiX'.'.D.A.A.A.A.'.OXfXsXsXsXsXsXXXXX%X%XXXXXhXhXzXsXsX",
"` ` ` ` ` ` ` ` ` ` ` ` ` ` ` ` ` ` ` ` ` ` ` ` ` ` ` ` ` ` ` ` ` ` ` ` ` ` ` ` ` ` ` ` ` ` ` ` ` ` ` ` ` ` ` ` ` ` ` ` ` ` ` ` ` ` ` ` ` ` ` ` ` ` ` ` ` ` ` ` ` ` ` ` ` ` ` ` ` ` ` ` ` ` ` ` ] ] E R q m 8 7 7 7 t r v p.g.g.f.f.C.C.C.C.f.f.f.f.f.f.f.f.f.f.f.f.f.f.f.f.f.f.f.f.g.g.g.g.g.g.g.g.g.g.d.d.d.d.g.g.d.d.d.d.d.d.d.d.d.d.d.d.d.d.8.8.6.x k h h d e r e e e e e e e g g g g 4.4.2.t.t.s.s.s.b.m.M.a.r.b.z.b.z.c.c.m.m.m.m.h.h.j.j.u.C k.`.yXdXdXdXsXrXxXvXnXDXDXGXSXSXSXSXGXGXGXGXJXJXJXJXJXJXJXJXJXJXJXJXJXJXJXJXJXJXJXJXJXJXJXJXJXJXJXJXJXJXJXJXJXJXJXJXJXJXJXJXJXJXJXJXJXJXJXJXJXJXJXJXJXJXJXJXJXJXJXJXJXJXJXJXJXJXJXJXJXJXJXJXJXJXJXJXJXJXJXJXJXJXJXJXJXJXJXJXJXJXJXJXJXJXJXJXJXJXJXJXJXJXJXJXJXJXJXJXJXJXJXJXJXJXJXJXJXJXJXJXJXJXJXJXJXJXJXJXJXJXJXJXJXJXJXJXJXJXJXJXGXGXGXGXHXAXNXvXhXhXhXhXXXXX].S * * * : Y *.%.$.$.$.$.$.$.$.$.$.$.+.+.+.+.$.$.$.$.$.$.$.$.$.$.$.$.$.$.$.$.$.$.$.$.$.$.$.$.$.$.$.$.$.$.$.$.$.$.$.$.$.$.$.$.$.$.$.$.$.$.$.$.$.$.$.$.$.$.$.$.$.$.$.$.$.$.#.%.Q T I H J J J H H H H J J H H J J K K H H J J J J J U U R !.{.}.|.%XzXzXzXzXzXzXxXzXzXzXzXxXxXzXzXzXzXzXzXzXzXzXzXzXzXzXzXzXzXzXzXzXzXzXzXzX7XzXzXzXzXzXzXzXzXzXzXrXxXdX_.A.A.S.D.iXpXiXeX'.'.A.A.A.A.A.'.'.fXsXsXsXsXzX7XXXXXXXXXrXsXsXsXrX",
"` ` ` ` ` ` ` ` ` ` ` ` ` ` ` ` ` ` ` ` ` ` ` ` ` ` ` ` ` ` ` ` ` ` ` ` ` ` ` ` ` ` ` ` ` ` ` ` ` ` ` ` ` ` ` ` ` ` ` ` ` ` ` ` ` ` ` ` ` ` ` ` ` ` ` ` ` ` ` ` ` ` ` ` ` ` ` ` ` ` ` ` ` ` ` ` ] ]  .E U q 9 8 7 s 7 t z 8.p.p.g.f.f.C.f.f.f.f.f.f.f.f.f.f.f.f.f.f.f.f.f.f.f.f.f.f.g.g.g.g.f.g.d.d.g.g.d.d.d.d.g.g.g.g.d.d.d.d.d.d.d.d.d.d.d.g.d.s.p.7.8.2.x l h h h g h r r e e e e e d g g g 4.4.2.2.3.s.s.s.a.a.a.b.b.b.b.b.m.m.m.m.h.h.u.k.u.C C l._.yXdXvXxXsXsXxXvXnXDXSXSXSXSXSXGXJXGXGXJXJXJXJXJXJXJXJXJXJXJXJXJXJXJXJXJXJXJXJXJXJXJXJXJXJXJXJXJXJXJXJXJXJXJXJXJXJXJXJXJXJXJXJXJXJXJXJXJXJXJXJXJXJXJXJXJXJXJXJXJXJXJXJXJXJXJXJXJXJXJXJXJXJXJXJXJXJXJXJXJXJXJXJXJXJXJXJXJXJXJXJXJXJXJXJXJXJXJXJXJXJXJXJXJXJXJXJXJXJXJXJXJXJXJXJXJXJXJXJXJXJXJXJXJXJXJXJXJXJXJXJXJXJXJXJXGXGXJXJXJXJXJXJXGXJXCXbXxXhXhXhXhXhX|.P.B * * : Y *.%.$.$.$.$.$.$.$.$.$.$.$.+.+.+.$.$.$.$.$.$.$.$.$.$.$.$.$.$.$.$.$.$.$.$.$.$.$.$.$.$.$.$.$.$.$.$.$.$.$.$.$.$.$.$.$.$.$.$.$.$.$.$.$.$.$.$.$.$.$.$.$.$.$.$.$.$.#.%.Q T F H P K J H H H H H H H H K K K K L L L J U J J J U U !.}. X%XzXzXzXzXzXzXzXxXzXhXhXzXxXxXzXzXzXzXzXzXzX7X7X7X7X7XzXzX7XzXrXsXsXsXsXhXhXhXzXzXzXzXzXzXzXzX7XzXrXsXdX'.A.A.S.D.iXpXpXiXeX'.D.S.A.A.A.A._.'.fXsXsXsXzXzX@XXXrXrXrXsXsXsXsX",
"` ` ` ` ` ` ` ` ` ` ` ` ` ` ` ` ` ` ` ` ` ` ` ` ` ` ` ` ` ` ` ` ` ` ` ` ` ` ` ` ` ` ` ` ` ` ` ` ` ` ` ` ` ` ` ` ` ` ` ` ` ` ` ` ` ` ` ` ` ` ` ` ` ` ` ` ` ` ` ` ` ` ` ` ` ` ` ` ` ` ` ` ` ` ` ` T ] ] E W q 9 8 7 7 s s h 8.9.7.g.g.f.f.f.f.f.g.f.f.f.f.f.f.f.f.f.f.f.f.f.f.f.f.f.f.g.g.g.g.f.g.d.d.d.d.d.d.d.d.d.d.d.d.d.d.d.d.d.d.d.d.d.d.d.p.d.d.p.s.7.7.8.6.l l l z h h r e r e e e e e e e e i g g 4.2.2.3.s.a.a.b.b.b.b.b.m.r.a.M.h.j.u.u.i.i.C k.`.yXdXvXsXxXrXrXxXnXDXDXSXSXSXSXGXGXGXGXJXJXJXJXJXJXJXJXJXJXJXJXJXJXJXJXJXJXJXJXJXJXJXJXJXJXJXJXJXJXJXJXJXJXJXJXJXJXJXJXJXJXJXJXJXJXJXJXJXJXJXJXJXJXJXJXJXJXJXJXJXJXJXJXJXJXJXJXJXJXJXJXJXJXJXJXJXJXJXJXJXJXJXJXJXJXJXJXJXJXJXJXJXJXJXJXJXJXJXJXJXJXJXJXJXJXJXJXJXJXJXJXJXJXJXJXJXJXJXJXJXJXJXJXJXJXJXJXJXJXJXJXJXJXJXJXGXGXJXJXJXJXJXJXGXPXAXnXcXhXXXhXhXrXxX{.S * * : Y *.%.$.$.$.$.$.$.$.$.$.$.$.+.+.+.$.$.$.$.$.$.$.$.$.$.$.$.$.$.$.$.$.$.$.$.$.$.$.$.$.$.$.$.$.$.$.$.$.$.$.$.$.$.$.$.$.$.$.$.$.$.$.$.$.$.$.$.$.$.$.$.$.$.$.$.$.$.#.%.@.T F L P H J H H H H H H H H K K K K L L L L J J J J U U !.oX%X%XzXzXzXzXzXcXzXzXzXhXhXzXxXxXzXzXzXzXzXzXzX7X7X7X7X7XzXzXzXzXsXsXsXsXsXsXhXhXhXhXhXhXzXzXzXzX7XzXrXsXdX'.A.A.S.D.iXiXiXpXiXeX'.D.A.A.A.A.S.'.oXXXsXsXxXzXsXsXXXrXsXsXsXsXsX",
"` ` ` ` ` ` ` ` ` ` ` ` ` ` ` ` ` ` ` ` ` ` ` ` ` ` ` ` ` ` ` ` ` ` ` ` ` ` ` ` ` ` ` ` ` ` ` ` ` ` ` ` ` ` ` ` ` ` ` ` ` ` ` ` ` ` ` ` ` ` ` ` ` ` ` ` ` ` ` ` ` ` ` ` ` ` ` ` ` ` ` ` ` ` ` ` ] ] ] ] E V 9 9 8 u s s t j l j v v v v v b b b 6.6.6.8.8.8.9.9.7.9.9.d.d.g.f.f.g.g.g.g.g.g.g.g.g.g.g.g.d.d.d.d.d.d.d.d.d.d.d.d.d.d.d.d.d.d.d.d.d.d.p.p.7.7.7.7.8.8.8.6.b z h f d d r r e e e e e e 2 2 e e g g 2.2.3.t.t.a.b.m.a.a.a.h.h.j.k.u.u.i.C C l.`.yXvXvXvXsXtXrXmXnXUXSXSXSXSXGXGXGXGXJXJXJXJXJXJXJXJXJXJXJXJXJXJXJXJXJXJXJXJXJXJXJXJXJXJXJXJXJXJXJXJXJXJXJXJXJXJXJXJXJXJXJXJXJXJXJXJXJXJXJXJXJXJXJXJXJXJXJXJXJXJXJXJXJXJXJXJXJXJXJXJXJXJXJXJXJXJXJXJXJXJXJXJXJXJXJXJXJXJXJXJXJXJXJXJXJXJXJXJXJXJXJXJXJXJXJXJXJXJXJXJXJXJXJXJXJXJXJXJXJXJXJXJXJXJXJXJXJXJXJXJXJXJXJXJXJXJXJXJXJXJXJXJXHXGXAXCXnXxX.XhXhXhXXXzXQ.B * , Y *.%.%.$.O.$.%.$.$.$.$.$.$.O.O.+.$.$.$.$.$.$.$.$.$.$.$.$.$.$.$.$.$.$.$.$.$.$.$.$.$.$.$.$.$.$.$.$.$.$.$.$.$.$.$.$.$.$.$.$.$.$.$.$.$.$.$.$.$.$.$.$.$.$.$.$.$.$.#.#.%.T I H H I H H H H H H H H H H K H H H H H H J J J U U V ~. X X%XzXzXzXzXzXzXzXzXzXzXzXzXxXzXzXzXzXzXzXzXzXzXzXzXzXzXzXzX%XXXoXOXOXsXsXsXsXrXzXhXhXhXhXzX@XzXzXzXrXxXdX'.A.A.A.D.eXiXiXiXiXiX'.'.D.S.Z.A.A.S.'.'.fXsXsXxXsX@XsXsXsXrXsXsXtX",
"` ` ` ` ` ` ` ` ` ` ` ` ` ` ` ` ` ` ` ` ` ` ` ` ` ` ` ` ` ` ` ` ` ` ` ` ` ` ` ` ` ` ` ` ` ` ` ` ` ` ` ` ` ` ` ` ` ` ` ` ` ` ` ` ` ` ` ` ` ` ` ` ` ` ` ` ` ` ` ` ` ` ` ` ` ` ` ` ` ` ` ` ` ` ` ` ` ] ] ] E U m 9 9 7 s s s u f f u u y y y y y u f f f f h h h h j j z l l v v v 6.6.8.8.7.7.7.7.d.d.d.d.d.d.d.d.d.d.d.d.d.d.d.d.g.g.d.d.d.d.d.d.d.d.d.d.p.7.7.7.9.9.7.7.8.8.b b z z h h d e e e e e e e e e i g g g g 1.2.3.t.a.a.a.h.h.h.j.s.i.k.i.C C Z A.'.yXdXsXsXtXrXxXbXNXSXSXSXGXGXGXGXGXJXJXJXJXJXJXJXJXJXJXJXJXJXJXJXJXJXJXJXJXJXJXJXJXJXJXJXJXJXJXJXJXJXJXJXJXJXJXJXJXJXJXJXJXJXJXJXJXJXJXJXJXJXJXJXJXJXJXJXJXJXJXJXJXJXJXJXJXJXJXJXJXJXJXJXJXJXJXJXJXJXJXJXJXJXJXJXJXJXJXJXJXJXJXJXJXJXJXJXJXJXJXJXJXJXJXJXJXJXJXJXJXJXJXJXJXJXJXJXJXJXJXJXJXJXJXJXJXJXJXJXJXJXJXJXJXJXJXJXJXJXJXJXJXGXGXAXDXNXbXhXhXhXhXXXrX}.A B : Y *.%.$.$.O.%.%.$.$.$.$.$.$.O.O.+.$.$.$.$.$.$.$.$.$.$.$.$.$.$.$.$.$.$.$.$.$.$.$.$.$.$.$.$.$.$.$.$.$.$.$.$.$.$.$.$.$.$.$.$.$.$.$.$.$.$.$.$.$.$.$.$.$.$.$.$.$.$.#.#.%.T I H H I H H H H H H H H H K K H H H H H H J J J U U U ~.#X X%XzXzXzXzXzXzXzXzXzXzXzXzXxXzXzXzXzXzXzXzXzXzXzXzX7XzXzXzX%XXXOX_._.OX.XrXrXrXjXhXhXhXhXXXsXXXzXzXrXxXdX`.A.A.A.D.'.iXiXiXiXiXeX'.D.S.F.A.A.A.S.'.OXfXsXsXsXsXsXsXsXsXsXsXtX",
"` ` ` ` ` ` ` ` ` ` ` ` ` ` ` ` ` ` ` ` ` ` ` ` ` ` ` ` ` ` ` ` ` ` ` ` ` ` ` ` ` ` ` ` ` ` ` ` ` ` ` ` ` ` ` ` ` ` ` ` ` ` ` ` ` ` ` ` ` ` ` ` ` ` ` ` ` ` ` ` ` ` ` ` ` ` ` ` ` ` ` ` ` ` ` ` ` ` ] ] E Y q 9 9 8 t 7 s s u f u f h j j j h h f y u y y y y u y y y y y y y y y y y f h h h h z l l l v 6.6.6.6.8.8.7.7.p.d.d.d.d.d.d.d.d.d.d.d.d.d.d.p.9.7.7.9.p.p.p.p.p.7.7.6.6.b l z h f d r r e e e e e e e e 3 g g 4.2.2.t.t.t.s.h.j.k.u.u.k.i.C C k.S.'.vXvXxXsXsXrXxXnXDXDXGXIXJXSXGXGXJXJXJXJXJXJXJXJXJXJXJXJXJXJXJXJXJXJXJXJXJXJXJXJXJXJXJXJXJXJXJXJXJXJXJXJXJXJXJXJXJXJXJXJXJXJXJXJXJXJXJXJXJXJXJXJXJXJXJXJXJXJXJXJXJXJXJXJXJXJXJXJXJXJXJXJXJXJXJXJXJXJXJXJXJXJXJXJXJXJXJXJXJXJXJXJXJXJXJXJXJXJXJXJXJXJXJXJXJXJXJXJXJXJXJXJXJXJXJXJXJXJXJXJXJXJXJXJXJXJXJXJXJXJXJXJXJXJXJXJXJXJXJXJXPXJXHXAXDXnXcXhXhXXXXXXXzX].S : Y *.%.%.$.$.%.%.$.$.$.$.$.$.$.O.+.$.$.$.$.$.$.$.$.$.$.$.$.$.$.$.$.$.$.$.$.$.$.$.$.$.$.$.$.$.$.$.$.$.$.$.$.$.$.$.$.$.$.$.$.$.$.$.$.$.$.$.$.$.$.$.$.$.$.$.$.$.$.#.#.%.T I H H L H H H H H H H H H K P H H H H H H P J J U U U ~.#X X%XzXzXzXzXzXzXzXzXxXxXzXzXzXzXzXzXzXzXzXzXzXzXzXzXzXzXzXzX%XXXOX_.Y._.{.oXrXrXrXhXrXhXrXXX@X@XzXrXrXsXsX'.A.A.A.D.D.iXiXiXiXeXeXeX'.D.S.A.A.A.A.S.'.OXfXsXsXmXsXsXsXsXvXfXOX",
"` ` ` ` ` ` ` ` ` ` ` ` ` ` ` ` ` ` ` ` ` ` ` ` ` ` ` ` ` ` ` ` ` ` ` ` ` ` ` ` ` ` ` ` ` ` ` ` ` ` ` ` ` ` ` ` ` ` ` ` ` ` ` ` ` ` ` ` ` ` ` ` ` ` ` ` ` ` ` ` ` ` ` ` ` ` ` ` ` ` ` ` ` ` ` ` ` ` ] ] ] Y V > 9 8 u w s s y k b 6.8.9.p.p.9.9.8.8.8.6.6.6.6.b v v v v l l l z h h h f r r r r r r r r r r r r y f h h z l b 6.6.6.6.6.8.8.8.8.7.7.7.7.9.p.p.p.7.9.9.p.p.9.7.7.7.7.8.6.b l k k h h h r e e e e e e e e i g g g g <.2.i.i.s.k.k.s.k.k.C C C l.`.dXvXvXsXxXsXrXvXnXDXSXJXJXSXSXGXJXJXJXJXJXJXJXJXJXJXJXJXJXJXJXJXJXJXJXJXJXJXJXJXJXJXJXJXJXJXJXJXJXJXJXJXJXJXJXJXJXJXJXJXJXJXJXJXJXJXJXJXJXJXJXJXJXJXJXJXJXJXJXJXJXJXJXJXJXJXJXJXJXJXJXJXJXJXJXJXJXJXJXJXJXJXJXJXJXJXJXJXJXJXJXJXJXJXJXJXJXJXJXJXJXJXJXJXJXJXJXJXJXJXJXJXJXJXJXJXJXJXJXJXJXJXJXJXJXJXJXJXJXJXJXJXJXJXJXJXJXJXJXJXPXGXHXGXGXCXbXhX.XhXXXXXcXXXP.B Y *.%.%.$.$.%.#.$.$.$.$.$.$.$.O.$.$.$.$.$.$.$.$.$.$.$.$.$.$.$.$.$.$.$.$.$.$.$.$.$.$.$.$.$.$.$.$.$.$.$.$.$.$.$.$.$.$.$.$.$.$.$.$.$.$.$.$.$.$.$.$.$.$.$.$.$.$.$.$.#.%.T I F H L H H H H H H H H H K P H H H H H H J J U U U U ~.#X X%XzXzXzXzXzXzXxXzXzXzXzXzXzXzXzXzXzXzXzXzXzXzXzXzXzXzXzXzX%XXXXXY.A.A._.'.oXsXrXrXrXhXrXXX@X@X@XrXrXsXfX'.A.A.F.S.D.eXiXiXeXiXeXeXeXD.D.A.A.Z.A.A.'.'.OXfXfXmXsXsXsXdXvXyX'.",
"` ` ` ` ` ` ` ` ` ` ` ` ` ` ` ` ` ` ` ` ` ` ` ` ` ` ` ` ` ` ` ` ` ` ` ` ` ` ` ` ` ` ` ` ` ` ` ` ` ` ` ` ` ` ` ` ` ` ` ` ` ` ` ` ` ` ` ` ` ` ` ` ` ` ` ` ` ` ` ` ` ` ` ` ` ` ` ` ` ` ` ` ` ` ` ` ` ` ` ] ] E U q 9 7 t u t t f v 8.9.p.f.C.C.f.g.f.f.f.g.f.f.g.g.g.g.d.d.d.9.9.9.9.7.7.8.8.6.6.b z z z h h h h h r r r r r r y f h h h h h z z z b 6.6.6.7.7.9.9.7.7.7.p.p.7.7.7.7.7.7.7.8.8.8.8.l l z h h r e e e e e e e e e i g g g c x i.i.k.s.k.k.i.C C k.S._.yXvXsXsXsXrXxXbXnXDXGXJXSXSXGXJXJXJXJXJXJXJXJXJXJXJXJXJXJXJXJXJXJXJXJXJXJXJXJXJXJXJXJXJXJXJXJXJXJXJXJXJXJXJXJXJXJXJXJXJXJXJXJXJXJXJXJXJXJXJXJXJXJXJXJXJXJXJXJXJXJXJXJXJXJXJXJXJXJXJXJXJXJXJXJXJXJXJXJXJXJXJXJXJXJXJXJXJXJXJXJXJXJXJXJXJXJXJXJXJXJXJXJXJXJXJXJXJXJXJXJXJXJXJXJXJXJXJXJXJXJXJXJXJXJXJXJXJXJXJXJXJXJXJXJXJXJXJXJXJXGXHXJXKXAXnXhXhXhXXXXX@X@X{.A R *.*.%.$.$.%.+.$.O.$.$.$.$.$.O.$.$.$.$.$.$.$.$.$.$.$.$.$.$.$.$.$.$.$.$.$.$.$.$.$.$.$.$.$.$.$.$.$.$.$.$.$.$.$.$.$.$.$.$.$.$.$.$.$.$.$.$.$.$.$.$.$.$.$.$.$.$.$.$.%.%.Q I F H H H H L H H H H H H K P P H H L H H J J J U U U ~.#X@X%XzXzXzXzXzXzXzXzXxXxXzXzXxXzXzXzXzXzXzXzXzXzXzXzX7XzXzXzX%XXXsX`.A.A.A._.'.OXsXsXxXxXxXsX@X@XXXrXrXsXfX'.S.A.F.A.D.'.iXiXeXiXiXiXeXeXD.D.A.A.A.A.A.'.'.fXfXdXdXdXfXdXfX'.S.",
"` ` ` ` ` ` ` ` ` ` ` ` ` ` ` ` ` ` ` ` ` ` ` ` ` ` ` ` ` ` ` ` ` ` ` ` ` ` ` ` ` ` ` ` ` ` ` ` ` ` ` ` ` ` ` ` ` ` ` ` ` ` ` ` ` ` ` ` ` ` ` ` ` ` ` ` ` ` ` ` ` ` ` ` ` ` ` ` ` ` ` ` ` ` ` ` ` ` ` ] ] ] Y V 9 9 7 u w s u v 8.9.g.f.C.C.g.g.g.g.g.g.f.f.f.f.C.C.C.f.f.g.g.g.f.g.g.g.g.d.d.d.d.d.p.7.8.8.6.6.6.b l l z z h h f f h h h h h h h z z l b 6.8.8.8.7.7.p.p.p.p.7.7.7.7.7.7.p.p.p.8.6.6.6.l z h h i i i i i e e e i d d d d c x x s.s.k.i.C C Z l.l.{.vXvXsXrXsXxXxXbXCXSXSXSXGXGXJXJXJXJXJXJXJXJXJXJXJXJXJXJXJXJXJXJXJXJXJXJXJXJXJXJXJXJXJXJXJXJXJXJXJXJXJXJXJXJXJXJXJXJXJXJXJXJXJXJXJXJXJXJXJXJXJXJXJXJXJXJXJXJXJXJXJXJXJXJXJXJXJXJXJXJXJXJXJXJXJXJXJXJXJXJXJXJXJXJXJXJXJXJXJXJXJXJXJXJXJXJXJXJXJXJXJXJXJXJXJXJXJXJXJXJXJXJXJXJXJXJXJXJXJXJXJXJXJXJXJXJXJXJXJXJXJXJXJXJXJXJXJXJXGXGXGXGXGXHXCXbXjXjXXXXX X@XXX!.{  .*.%.%.$.%.+.$.O.$.$.$.$.$.O.$.$.$.$.$.$.$.$.$.$.$.$.$.$.$.$.$.$.$.$.$.$.$.$.$.$.$.$.$.$.$.$.$.$.$.$.$.$.$.$.$.$.$.$.$.$.$.$.$.$.$.$.$.$.$.$.$.$.$.$.$.$.$.$.#.%.Q I F H H H L L H H H H H H K P H H H L H H J J U J U U E OX@X%XzXzXzXzXzXzXzXzXzXzXzXzXzXzXzXzXzXzXzXzXzXzXzXzX7XzXzXzX%XsXfXS.A A.A.A.S._.fXsXdXvXxXsXsX@X@XrXsXsXfX'.S.A.Z.F.D.D.iXiXeXiXiXpXpXeX'.D.D.S.A.A.A.S.'.'.fXfXdXdXdXfXeX`.A.",
"` ` ` ` ` ` ` ` ` ` ` ` ` ` ` ` ` ` ` ` ` ` ` ` ` ` ` ` ` ` ` ` ` ` ` ` ` ` ` ` ` ` ` ` ` ` ` ` ` ` ` ` ` ` ` ` ` ` ` ` ` ` ` ` ` ` ` ` ` ` ` ` ` ` ` ` ` ` ` ` ` ` ` ` ` ` ` ` ` ` ` ` ` ` ` ` ` ` ` ` ] ] E W m 9 7 u w 7 7 f 6.9.d.C.C.C.g.d.g.g.g.g.g.g.g.g.f.f.f.f.f.f.g.g.g.g.g.g.g.g.d.d.f.f.g.g.d.d.d.d.g.g.d.d.7.8.8.8.b b l l z z z h h h h j j j j k b b b b 8.7.7.7.7.7.7.7.7.p.p.p.7.7.7.8.8.6.6.6.l z z g i i i i e e e e d d d d x 2.i.i.x C Z Z Z Y.tXvXsXsXrXsXzXcXnXDXSXGXSXSXJXJXJXJXJXJXJXJXJXJXJXJXJXJXJXJXJXJXJXJXJXJXJXJXJXJXJXJXJXJXJXJXJXJXJXJXJXJXJXJXJXJXJXJXJXJXJXJXJXJXJXJXJXJXJXJXJXJXJXJXJXJXJXJXJXJXJXJXJXJXJXJXJXJXJXJXJXJXJXJXJXJXJXJXJXJXJXJXJXJXJXJXJXJXJXJXJXJXJXJXJXJXJXJXJXJXJXJXJXJXJXJXJXJXJXJXJXJXJXJXJXJXJXJXJXJXJXJXJXJXJXJXJXJXJXJXJXJXJXJXJXJXJXJXGXGXGXJXGXGXDXnXcXjX7X@X X@XzX}.~.*.@.%.#.$.%.$.$.O.$.$.$.$.$.O.$.$.$.$.$.$.$.$.$.$.$.$.$.$.$.$.$.$.$.$.$.$.$.$.$.$.$.$.$.$.$.$.$.$.$.$.$.$.$.$.$.$.$.$.$.$.$.$.$.$.$.$.$.$.$.$.$.$.$.$.$.$.$.$.#.%.@.T F H H H L L H H H H H H H P H H H L H H P J J J K U R (.@X%XzXzXzXzXzXzXzXzXzXzXzXzXzXzXzXzXzXzXzXzXzXzXzXzX7XzXzXzX%XsXfX`.A.A.A.A.A.A.'.'.tXsXsXsXsXsX@XzXsXsXfX'.S.A.Z.F.S.D.iXiXiXiXpXpXpXiXeX'.D.D.A.A.A.A.S.'.'.fXfXdXdXyX'.S.Z.",
"` ` ` ` ` ` ` ` ` ` ` ` ` ` ` ` ` ` ` ` ` ` ` ` ` ` ` ` ` ` ` ` ` ` ` ` ` ` ` ` ` ` ` ` ` ` ` ` ` ` ` ` ` ` ` ` ` ` ` ` ` ` ` ` ` ` ` ` ` ` ` ` ` ` ` ` ` ` ` ` ` ` ` ` ` ` ` ` ` ` ` ` ` ` ` ` ` ` ` ` T ] E R q 9 7 t u 7 7 u v 6.9.g.C.C.g.d.C.C.C.C.C.C.C.C.g.g.g.g.f.f.f.f.f.f.f.f.g.g.g.d.d.d.d.g.d.d.d.d.g.g.g.d.d.d.d.p.p.p.7.8.6.b b l h h f f y y r t f f k v b b b 8.7.7.7.7.7.7.7.7.7.7.7.p.d.7.7.7.8.6.l j h i i r e t t t t t t t d f z x x Z C c 0 A '.sXxXsXsXXXrXzXbXCXAXJXGXGXJXJXJXJXJXJXJXJXJXJXJXJXJXJXJXJXJXJXJXJXJXJXJXJXJXJXJXJXJXJXJXJXJXJXJXJXJXJXJXJXJXJXJXJXJXJXJXJXJXJXJXJXJXJXJXJXJXJXJXJXJXJXJXJXJXJXJXJXJXJXJXJXJXJXJXJXJXJXJXJXJXJXJXJXJXJXJXJXJXJXJXJXJXJXJXJXJXJXJXJXJXJXJXJXJXJXJXJXJXJXJXJXJXJXJXJXJXJXJXJXJXJXJXJXJXJXJXJXJXJXJXJXJXJXJXJXJXJXJXJXJXJXJXJXGXGXJXJXAXGXJXCXcXhXzX@XXXzXXX@X(.*.*.%.$.O.%.%.$.$.$.$.$.$.$.$.$.$.$.$.$.$.$.$.$.$.$.$.$.$.$.$.$.$.$.$.$.$.$.$.$.$.$.$.$.$.$.$.$.$.$.$.$.$.$.$.$.$.$.$.$.$.$.$.$.$.$.$.$.$.$.$.$.$.$.$.$.$.$.$.#.%.@.T F H H H H H H H H H H H H H H H H H H H P J U K K U R (.@X7XzXzXzXzXzXzXzXzXzXzXzXzXzXzXzXzXzXzXzXzXzXzXzXzX7XzXzXzX%XrXdX`.A.A.A.Z.Z.A.A.`.'.tXsXsXsXsXsXsXsXdXdXeX`.A.Z.Z.A.D.iXiXeXiXpXpXpXpXeXeXD.D.D.A.A.A.A.S.'.'.fXdXfXeX`.A.A.",
"` ` ` ` ` ` ` ` ` ` ` ` ` ` ` ` ` ` ` ` ` ` ` ` ` ` ` ` ` ` ` ` ` ` ` ` ` ` ` ` ` ` ` ` ` ` ` ` ` ` ` ` ` ` ` ` ` ` ` ` ` ` ` ` ` ` ` ` ` ` ` ` ` ` ` ` ` ` ` ` ` ` ` ` ` ` ` ` ` ` ` ` ` ` ` ` ` ` ` ` ] ] E E U m 8 8 t t u 7 y j 7.d.f.C.C.C.f.f.f.f.f.f.f.f.f.f.f.f.f.f.f.f.g.g.g.g.g.g.g.g.g.g.d.d.d.g.d.p.d.d.d.d.d.p.d.d.d.d.p.p.p.p.p.p.6.b b l z h f f f f f f f z k x 6.6.8.7.7.p.p.7.7.7.7.7.7.7.7.7.7.8.8.6.6.l h h e t t t t 7 7 7 t d d d f c c c 0 0 A OXcXsXsXsXsXzXcXnXCXHXHXGXJXSXSXSXSXGXGXGXGXGXJXJXJXJXJXJXJXJXJXJXJXJXJXJXJXJXJXJXJXJXJXJXJXJXJXJXJXJXJXJXJXJXJXJXJXJXJXJXJXJXJXJXJXJXJXJXJXJXJXJXJXJXJXJXJXJXJXJXJXJXJXJXJXJXJXJXJXJXJXJXJXJXJXJXJXJXJXJXJXJXJXJXJXJXJXJXJXJXJXJXJXJXJXJXJXJXJXJXJXJXJXJXJXJXJXJXJXJXJXJXJXJXJXJXJXJXJXJXJXJXJXJXJXJXJXJXJXJXJXJXJXJXJXJXGXGXGXGXGXGXGXGXnXcXhXXXrXhXhXzX#X+X*.@.#.+.#.%.%.%.$.$.$.$.$.$.$.$.$.$.$.$.$.$.$.$.$.$.$.$.$.$.$.$.$.$.$.$.$.$.$.$.$.$.$.$.$.$.$.$.$.$.$.$.$.$.$.$.$.$.$.$.$.$.$.$.$.$.$.$.$.$.$.$.$.$.$.$.$.$.$.%.@.T F F L H K K H H H H H H H H H H H H L L I J J J K U W (.@X7XzXzX7XzX7X7XzXzXzXzXzXzXzXzXzXzXzXzXzXzXzXzXzXzXzXzXzX7X7XzXsX'.A.A.A.A.A.A.A.A.S._.'.fXfXdXdXdXdXdXdXyX'.S.Z.Z.A.D.eXiXiXiXpXpXpXpXpXiXeX'.D.D.A.A.A.A.D.D.eXfXfXeXS.A.A.",
"` ` ` ` ` ` ` ` ` ` ` ` ` ` ` ` ` ` ` ` ` ` ` ` ` ` ` ` ` ` ` ` ` ` ` ` ` ` ` ` ` ` ` ` ` ` ` ` ` ` ` ` ` ` ` ` ` ` ` ` ` ` ` ` ` ` ` ` ` ` ` ` ` ` ` ` ` ` ` ` ` ` ` ` ` ` ` ` ` ` ` ` ` ` ` ` ' ' ` ` ` ] T E W q 9 8 u t t s y h 6.9.g.C.f.f.f.f.f.f.f.f.f.f.f.f.f.f.f.f.f.f.g.g.g.g.g.g.g.g.g.g.d.d.d.d.p.p.p.p.d.d.p.p.p.p.d.d.p.p.p.p.p.p.7.7.8.6.6.b l l z h h f f f h h z l b 6.8.7.7.7.7.7.7.7.7.7.7.7.7.7.8.8.6.6.b l f f f d t t 7 7 7 7 7 7 d d 7 7 9 * C !.@XsXsX@XsXzXxXbXNXDXHXHXGXSXGXGXGXJXGXJXGXGXJXJXJXJXJXJXJXJXJXJXJXJXJXJXJXJXJXJXJXJXJXJXJXJXJXJXJXJXJXJXJXJXJXJXJXJXJXJXJXJXJXJXJXJXJXJXJXJXJXJXJXJXJXJXJXJXJXJXJXJXJXJXJXJXJXJXJXJXJXJXJXJXJXJXJXJXJXJXJXJXJXJXJXJXJXJXJXJXJXJXJXJXJXJXJXJXJXJXJXJXJXJXJXJXJXJXJXJXJXJXJXJXJXJXJXJXJXJXJXJXJXJXJXJXJXJXJXJXJXJXJXJXJXJXGXGXGXGXGXGXGXGXCXbXxXhXhXhXxXzX@X+X*.@.#.+.#.%.%.%.$.$.$.$.$.$.$.$.$.$.$.$.$.$.$.$.$.$.$.$.$.$.$.$.$.$.$.$.$.$.$.$.$.$.$.$.$.$.$.$.$.$.$.$.$.$.$.$.$.$.$.$.$.$.$.$.$.$.$.$.$.$.$.$.$.$.$.$.$.$.$.#.@.T F F H J K P K H H H H J J J H H K H L L I K J K K U W (.@X7XzXzXzXzX7X7XzXzXzXzXzXzXzXzXzXzXzXzXzXzXzXzXzXzXzXzXzX7X7XzXsX'.A.A.A.A.D.D.A.A.A.S.'.'.fXfXdXdXdXdXdXyX'.S.Z.Z.A.D.eXiXpXpXpXpXpXpXpXpXiXeX'.D.D.A.A.A.S.D.'.eXpX'.S.S.S.",
"` ` ` ` ` ` ` ` ` ` ` ` ` ` ` ` ` ` ` ` ` ` ` ` ` ` ` ` ` ` ` ` ` ` ` ` ` ` ` ` ` ` ` ` ` ` ` ` ` ` ` ` ` ` ` ` ` ` ` ` ` ` ` ` ` ` ` ` ` ` ` ` ` ` ` ` ` ` ` ` ` ` ` ` ` ` ` ` ` ` ` ` ` ` ` ` ` ` ` ` ` ] T E E V 9 9 7 u t t w y j 6.d.C.C.g.f.f.f.f.f.f.f.f.f.f.f.f.f.f.f.f.g.g.g.g.g.g.g.g.g.g.d.d.g.g.p.p.p.p.p.p.p.p.p.p.d.d.p.p.p.p.p.p.d.d.p.p.7.7.8.8.b b l l z h f f f f h z l b 6.8.8.7.7.7.7.7.7.8.8.8.7.7.8.8.8.6.x x k f f d t t 7 7 7 7 7 7 < < < - : Z _.sXmXsXxXsXrXxXbXCXHXHXGXGXGXJXJXJXJXJXJXJXJXJXJXJXJXJXJXJXJXJXJXJXJXJXJXJXJXJXJXJXJXJXJXJXJXJXJXJXJXJXJXJXJXJXJXJXJXJXJXJXJXJXJXJXJXJXJXJXJXJXJXJXJXJXJXJXJXJXJXJXJXJXJXJXJXJXJXJXJXJXJXJXJXJXJXJXJXJXJXJXJXJXJXJXJXJXJXJXJXJXJXJXJXJXJXJXJXJXJXJXJXJXJXJXJXJXJXJXJXJXJXJXJXJXJXJXJXJXJXJXJXJXJXJXJXJXJXJXJXJXJXJXJXJXGXGXGXGXGXGXGXGXAXNXbXhXrXhXxXzX7X+X$X*.@.#.$.$.%.%.$.$.$.$.$.$.$.$.$.$.$.$.$.$.$.$.$.$.$.$.$.$.$.$.$.$.$.$.$.$.$.$.$.$.$.$.$.$.$.$.$.$.$.$.$.$.$.$.$.$.$.$.$.$.$.$.$.$.$.$.$.$.$.$.$.$.$.$.$.$.$.%.@.T I F L J K K P H H H H H J J H H K H L L I K J K P U W ~.@X7XzXzXzXzX7X7XzXzXzXzXzXzXzXzXzXzXzXzXzXzXzXzXzXzXzXzXzXzXzXzXcXOX`.A.A.D.D.D.D.A.A.A.S.'.'.eXfXdXdXdXfXyX'.S.A.A.A.D.eXiXpXpXpXpXpXpXpXpXpXpXeX'.D.D.A.A.A.A.S.D.D.S.A.S.D.",
"` ` ` ` ` ` ` ` ` ` ` ` ` ` ` ` ` ` ` ` ` ` ` ` ` ` ` ` ` ` ` ` ` ` ` ` ` ` ` ` ` ` ` ` ` ` ` ` ` ` ` ` ` ` ` ` ` ` ` ` ` ` ` ` ` ` ` ` ` ` ` ` ` ` ` ` ` ` ` ` ` ` ` ` ` ` ` ` ` ` ` ` ` ` ` ` ` ` ` ` ` ` ] E E W q 9 7 u w w w w y v 9.C.C.g.f.f.f.f.f.f.f.f.f.f.f.f.f.f.f.f.g.g.g.g.g.g.g.g.g.g.d.d.g.g.p.p.p.p.p.p.p.p.p.p.d.d.p.p.p.p.p.p.d.d.p.p.p.p.p.p.7.7.8.8.b l z z f f f f h z z l 6.8.8.7.7.7.8.8.8.8.8.7.7.8.8.8.8.6.b x k z f f d d d d 7 7 < < < < * 0 l.OXdXsXdXsXrXrXvXNXAXHXJXJXJXGXGXGXJXJXJXJXKXKXJXJXJXJXJXJXJXJXJXJXJXJXJXJXJXJXJXJXJXJXJXJXJXJXJXJXJXJXJXJXJXJXJXJXJXJXJXJXJXJXJXJXJXJXJXJXJXJXJXJXJXJXJXJXJXJXJXJXJXJXJXJXJXJXJXJXJXJXJXJXJXJXJXJXJXJXJXJXJXJXJXJXJXJXGXGXGXGXGXGXGXGXJXJXJXJXJXJXJXJXJXJXJXJXJXJXJXJXJXJXJXJXJXJXJXJXJXJXJXJXJXJXJXJXJXJXJXJXJXJXJXJXGXGXGXGXGXGXGXGXGXDXnXxXrXhXxXzX7X#X+X*.@.#.%.$.$.$.$.$.$.$.$.$.$.$.$.$.$.$.$.$.$.$.$.$.$.$.$.$.$.$.$.$.$.$.$.$.$.$.$.$.$.$.$.$.$.$.$.$.$.$.$.$.$.$.$.$.$.$.$.$.$.$.$.$.$.$.$.$.$.$.$.$.$.$.$.$.$.%.%.T I F L J K P P H H H H H J J H H H H L L I H J K P U U ~.@X@XzXzX7XzXzX7XzXzXzXzXzXzXzXzXzXzXzXzXzXzXzXzXzXzXzXzXzXzXzXzXmX@X'.A.A.D.'.'.D.D.S.A.A.S.D.'.pXfXdXfXfXfX'.'.S.A.A.S.D.iXpXaXaXpXiXpXpXpXpXpXiXeX'.D.D.A.A.Z.Z.A.S.A.A.S.D.",
"` ` ` ` ` ` ` ` ` ` ` ` ` ` ` ` ` ` ` ` ` ` ` ` ` ` ` ` ` ` ` ` ` ` ` ` ` ` ` ` ` ` ` ` ` ` ` ` ` ` ` ` ` ` ` ` ` ` ` ` ` ` ` ` ` ` ` ` ` ` ` ` ` ` ` ` ` ` ` ` ` ` ` ` ` ` ` ` ` ` ` ` ` ` ` ` ` ` ` ` ` ` ] ]  .E U m 9 u y w y w w j 8.g.C.C.f.f.f.f.f.f.f.f.f.f.f.f.f.f.f.f.g.g.g.g.g.g.g.g.g.g.g.g.g.g.d.d.d.d.d.p.p.p.p.p.d.d.p.p.p.p.p.p.p.p.p.p.p.p.p.p.p.p.p.7.7.8.b b l k z h f f f h z l l 6.6.8.7.7.8.8.8.7.7.7.8.8.8.8.6.b b x k k f f d d t 7 7 7 < < < 1 c A.`.'.yXfXfXsXxXvXNXAXJXJXJXSXAXAXHXGXJXJXJXJXJXJXJXJXJXJXJXJXJXJXJXJXJXJXJXJXJXJXJXJXJXJXJXJXJXJXJXJXJXJXJXJXJXJXJXJXJXJXJXJXJXJXJXJXJXJXJXJXJXJXJXJXJXJXJXJXJXJXJXJXJXJXJXJXJXJXJXJXJXJXJXJXJXJXJXJXJXJXJXJXJXJXJXJXGXGXGXGXGXGXGXGXJXJXJXJXJXJXJXJXJXJXJXJXJXJXJXJXJXJXJXJXJXJXJXJXJXJXJXJXJXJXJXJXJXJXJXJXJXJXGXJXGXGXGXGXGXGXGXGXJXSXNXbXhXhXhX%X7X7X#X$X*.%.%.$.$.$.+.+.$.$.#.#.$.$.$.$.$.$.$.$.$.$.$.$.$.$.$.$.$.$.$.$.$.$.$.$.$.$.$.$.$.$.$.$.$.$.$.$.$.$.$.$.$.$.$.$.$.$.$.$.$.$.$.$.$.$.$.$.$.$.$.$.$.$.$.$.+.#.%.T I F H I H H H H H H H H J J H H K H H L J J J K U U U ~.@X@XzXzX7XzXzX7XzXzXzXzXzXzXzXzXzXzXzXzXzXzXzXzXzXzXzXzXzXzXzXzXmXfX'.A.A.D.'.iX'.'.D.S.A.A.A.S.'.'.pXpXfXfXeX'.D.A.F.A.D.'.pXaXaXpXpXiXpXpXpXpXpXpXiX'.D.D.A.A.F.A.F.A.A.D.'.",
"` ` ` ` ` ` ` ` ` ` ` ` ` ` ` ` ` ` ` ` ` ` ` ` ` ` ` ` ` ` ` ` ` ` ` ` ` ` ` ` ` ` ` ` ` ` ` ` ` ` ` ` ` ` ` ` ` ` ` ` ` ` ` ` ` ` ` ` ` ` ` ` ` ` ` ` ` ` ` ` ` ` ` ` ` ` ` ` ` ` ` ` ` ` ` ` ` ` ` ` ` ` ` ] ]  .R q 9 8 p a y w w y v 9.g.C.f.f.f.f.f.f.f.f.f.f.f.f.f.f.f.f.g.g.g.g.g.g.g.g.g.g.g.g.g.g.d.d.d.d.d.d.p.p.p.p.d.d.p.p.p.p.p.p.p.p.p.p.p.p.p.p.7.7.7.7.7.7.8.8.6.6.b l z h f f r h h z l 6.8.7.8.8.8.7.7.7.8.8.8.8.8.6.b b b b k k f d t 7 7 7 < < < < 7 0 C l.`.yXdXdXdXvXNXAXGXGXGXSXDXDXAXHXJXJXJXJXJXJXJXJXJXJXJXJXJXJXJXJXJXJXJXJXJXJXJXJXJXJXJXJXJXJXJXJXJXJXJXJXJXJXJXJXJXJXJXJXJXJXJXJXJXJXJXJXJXJXJXJXJXJXJXJXJXJXJXJXJXJXJXJXJXJXJXJXJXJXJXJXJXJXJXJXJXJXJXJXJXJXJXJXGXGXGXGXGXGXGXGXJXJXJXJXJXJXJXJXJXJXJXJXJXJXJXJXJXJXJXJXJXJXJXJXJXJXJXJXJXJXJXJXJXJXJXJXJXJXGXJXGXGXGXGXGXGXGXGXGXGXDXnXcXhXhX%X%X7X#X+X=.*.%.$.O.O.O.+.$.$.#.#.$.$.$.$.$.$.$.$.$.$.$.$.$.$.$.$.$.$.$.$.$.$.$.$.$.$.$.$.$.$.$.$.$.$.$.$.$.$.$.$.$.$.$.$.$.$.$.$.$.$.$.$.$.$.$.$.$.$.$.$.$.$.$.$.$.#.%.Q I F H I H H H H H H H H J J H H H K H H P J K P U P K { @X@X7XzX7XzXzXzXzXzXzXzXzXzXzXzXzXzXzXzXzXzXzXzXzXzXzXzXzXzXzXzXmXfX'.A.A.D.'.iXiX'.'.D.D.S.A.A.A.D.'.'.eXaXaXpXD.S.F.A.D.D.iXaXaXpXpXiXpXpXpXiXpXpXpXiX'.D.D.S.A.A.F.Z.S.D.'.",
"` ` ` ` ` ` ` ` ` ` ` ` ` ` ` ` ` ` ` ` ` ` ` ` ` ` ` ` ` ` ` ` ` ` ` ` ` ` ` ` ` ` ` ` ` ` ` ` ` ` ` ` ` ` ` ` ` ` ` ` ` ` ` ` ` ` ` ` ` ` ` ` ` ` ` ` ` ` ` ` ` ` ` ` ` ` ` ` ` ` ` ` ` ` ` ` ` ` ` ` ` ` ` ` ] ] E W q 8 p a y w w y j 6.9.f.C.f.f.f.f.f.f.f.f.f.f.f.f.f.f.f.g.g.g.g.g.g.g.g.g.g.g.g.d.p.p.p.d.d.d.d.p.p.p.p.p.p.p.p.p.p.p.p.p.p.p.p.p.p.p.p.7.7.7.7.7.7.7.7.7.8.8.6.b l z z h h h h h z l 5.6.6.6.8.8.8.8.8.8.8.6.6.6.6.6.6.b x k z f d t t 7 < < < < < 7 c k.A.'.yXdXdXnXUXCXDXSXSXAXDXDXAXJXJXJXJXJXJXJXKXJXJXJXJXJXJXJXJXJXJXJXJXJXJXJXJXJXJXJXJXJXJXJXJXJXJXJXJXJXJXJXJXJXJXJXJXJXJXJXJXJXJXJXJXJXJXJXJXJXJXJXJXJXJXJXJXJXJXJXJXJXJXJXJXJXJXJXJXJXJXJXJXJXJXJXJXJXJXJXJXGXGXGXGXGXGXGXGXJXJXJXJXJXJXJXJXJXJXJXJXJXJXJXJXJXJXJXJXJXJXJXJXJXJXJXJXJXJXJXJXJXJXJXJXJXJXJXJXGXGXGXGXGXGXGXGXGXGXAXCXbXxXhXhX%X%X7X#X+X*.%.#.+.O.O.+.$.$.O.O.$.$.$.$.$.$.$.$.$.$.$.$.$.$.$.$.$.$.$.$.$.$.$.$.$.$.$.$.$.$.$.$.$.$.$.$.$.$.$.$.$.$.$.$.$.$.$.$.$.$.$.$.$.$.$.$.$.$.$.$.$.$.$.$.$.#.%.Q T I H L H H H H H H H H J J H H H H H H P K K P U K V E #X@X7X7X7XzXzX7XzXzXzXzXzXzXzXzXzXzXzXzXzXzXzXzXzXzXzXzXzXzXzXzXmXfX'.S.A.A.D.iXiXiXiX'.D.D.S.A.A.A.S.D.'.iXpXpXD.D.F.Z.A.D.iXaXaXpXiXiXpXpXiXiXpXpXpXpXpX'.D.D.D.A.Z.Z.S.D.iX",
"` ` ` ` ` ` ` ` ` ` ` ` ` ` ` ` ` ` ` ` ` ` ` ` ` ` ` ` ` ` ` ` ` ` ` ` ` ` ` ` ` ` ` ` ` ` ` ` ` ` ` ` ` ` ` ` ` ` ` ` ` ` ` ` ` ` ` ` ` ` ` ` ` ` ` ` ` ` ` ` ` ` ` ` ` ` ` ` ` ` ` ` ` ` ` ` ` ` ` ` ` ` ` ` ) ]  .E q 8 u y u w w w y l 9.g.C.C.f.f.f.f.f.f.f.f.f.f.f.f.f.f.g.g.g.g.g.g.g.g.g.g.g.g.g.p.p.p.d.d.d.d.p.p.p.p.d.p.p.p.p.p.p.p.p.p.p.p.p.p.7.7.p.7.7.7.7.7.7.7.7.7.7.7.8.6.b b l z h p r r p h l l b 6.6.6.6.6.8.8.6.6.6.6.6.6.b b b b x k f d t t < < d d d 7 7 c l.'.fXdXvXmXNXCXAXHXAXDXDXDXJXJXJXJXJXJXKXKXJXJXJXJXJXJXJXJXJXJXJXJXJXJXJXJXJXJXJXJXJXJXJXJXJXJXJXJXJXJXJXJXJXJXJXJXJXJXJXJXJXJXJXJXJXJXJXJXJXJXJXJXJXJXJXJXJXJXJXJXJXJXJXJXJXJXJXJXJXJXJXJXJXJXJXJXJXJXJXJXGXGXGXGXGXGXGXGXJXJXJXJXJXJXJXJXJXJXJXJXJXJXJXJXJXJXJXJXJXJXJXJXJXJXJXJXJXJXJXJXJXJXJXJXJXJXJXJXGXGXGXGXGXGXGXGXGXGXGXDXnXcXhXxX%X%X7X8X+X*.*.%.$.O.O.O.$.$.O.O.$.$.$.$.$.$.$.$.$.$.$.$.$.$.$.$.$.$.$.$.$.$.$.$.$.$.$.$.$.$.$.$.$.$.$.$.$.$.$.$.$.$.$.$.$.$.$.$.$.$.$.$.$.$.$.$.$.$.$.$.$.$.$.$.$.#.%.Q T F L L H K H H H H H H J J H K K H H H P K K P J K V E #X@X7X7X7XzXzXzXzXzXzXzXzXzXzXzXzXzXzXzXzXzXzXzXzXzXzXzXzXzXzXzXmXfX'.D.A.A.D.iXaXaXpXiX'.D.D.S.A.A.A.A.D.'.iXiX'.D.F.Z.A.D.eXpXpXpXiXiXpXpXiXeXiXpXpXaXaXiX'.'.D.S.Z.Z.S.'.pX",
"` ` ` ` ` ` ` ` ` ` ` ` ` ` ` ` ` ` ` ` ` ` ` ` ` ` ` ` ` ` ` ` ` ` ` ` ` ` ` ` ` ` ` ` ` ` ` ` ` ` ` ` ` ` ` ` ` ` ` ` ` ` ` ` ` ` ` ` ` ` ` ` ` ` ` ` ` ` ` ` ` ` ` ` ` ` ` ` ` ` ` ` ` ` ` ` ` ` ` ` ` ` _ _ ' ` ] E W q 8 u w w t y y y v 9.f.f.f.f.f.f.f.g.f.f.f.f.f.f.f.f.g.g.g.g.g.g.g.g.g.g.p.p.g.g.d.d.p.p.p.p.p.p.p.p.p.p.p.p.p.p.p.p.p.p.p.p.p.p.p.p.7.7.7.7.7.7.7.7.7.7.7.7.8.8.8.8.6.6.6.l z h r w r r h l 6.6.6.6.8.8.8.6.6.6.6.b 6.6.6.6.6.x k k h d t t t t d d 7 < 7 C A.'.fXdXvXNXDXHXGXGXIXAXIXJXJXJXJXJXJXGXJXJXJXJXJXJXGXGXJXJXJXJXJXJXJXJXJXJXJXJXJXJXJXJXJXJXJXJXJXJXJXJXJXJXJXJXJXJXJXJXJXJXJXJXJXJXJXJXJXJXJXJXJXJXJXJXJXJXJXJXJXJXJXJXJXJXJXJXJXJXJXJXJXJXJXJXJXJXJXJXJXJXJXJXJXGXGXGXGXGXGXJXJXJXJXJXJXJXGXGXGXGXGXJXGXGXGXGXGXGXGXJXJXJXJXJXGXGXGXGXJXJXJXGXGXGXSXSXGXGXGXGXGXGXGXGXGXGXGXAXCXnXcXhXhX%X@X@X#X+X*.@.%.+.O.O.+.$.$.$.$.$.$.$.$.$.$.$.$.$.$.$.$.$.$.$.$.$.$.$.$.$.$.$.$.$.$.$.$.$.$.$.$.$.$.$.$.$.$.$.$.$.$.$.$.$.$.$.$.$.$.$.$.$.$.$.$.$.$.$.$.$.$.$.$.#.%.@.T F I I K H H H H H H H J J H H K K H H J J K J U K P R OX7X7XzX7X7X@XzXzXzXzXzXzXzXzXzXzXzXzXzXzXzXzXzXzXzXzXzXzXzXzXzXmXfXfX'.A.A.D.iXpXaXaXpXpXiXeXD.D.A.A.A.A.D.D.D.D.D.A.F.F.D.D.pXpXpXpXiXiXiXpXpXpXpXiXpXaXaXpXiX'.S.Z.F.D.'.pX",
"` ` ` ` ` ` ` ` ` ` ` ` ` ` ` ` ` ` ` ` ` ` ` ` ` ` ` ` ` ` ` ` ` ` ` ` ` ` ` ` ` ` ` ` ` ` ` ` ` ` ` ` ` ` ` ` ` ` ` ` ` ` ` ` ` ` ` ` ` ` ` ` ` ` ` ` ` ` ` ` ` ` ` ` ` ` ` ` ` ` ` ` ` ` ` ` ` ` ` ` ` ` _ _ _ ` ] E R q 8 8 u w w w y y j 8.d.g.f.C.f.f.f.f.f.f.f.f.f.f.f.f.g.g.g.g.g.g.g.g.g.g.p.p.g.g.d.d.p.p.p.p.p.p.p.p.p.p.p.p.p.p.p.p.p.p.p.p.p.p.p.p.p.p.p.p.7.7.7.7.7.7.7.7.8.8.8.8.8.8.8.6.6.l h h r r r f h z l b 6.6.8.8.6.6.b b 6.6.6.6.6.6.2.x z h h r r d d d d 7 < 7 c k.S.'.yXdXNXGXIXGXAXIXJXJXJXKXJXJXJXGXJXJXJXJXJXJXGXGXJXJXJXJXJXJXJXJXJXJXJXJXJXJXJXJXJXJXJXJXJXJXJXJXJXJXJXJXJXJXJXJXJXJXJXJXJXJXJXJXJXJXJXJXJXJXJXJXJXJXJXJXJXJXJXJXJXJXJXJXJXJXJXJXJXJXJXJXJXJXJXJXJXJXJXJXJXGXGXGXGXGXGXGXJXJXJXJXJXJXJXJXJXGXGXGXJXJXGXGXGXGXJXJXSXSXAXAXAXAXDXDXDXDXCXCXCXCXNXCXCXCXCXCXNXNXNXCXDXDXDXCXNXnXcXxXhXhXXX@X#X#X$X*.%.#.$.O.+.$.+.+.$.$.$.$.$.$.$.$.$.$.$.$.$.$.$.$.$.$.$.$.$.$.$.$.$.$.$.$.$.$.$.$.$.$.$.$.$.$.$.$.$.$.$.$.$.$.$.$.$.$.$.$.$.$.$.$.$.$.$.$.$.$.$.$.+.$.%.@.T F I I K H H H H H H H J J H K K K H H J J K J U K K R OXzX7XzXzX7X7XzXzXzXzXzXzXzXzXzXzXzXzXzXzXzXzXzXzXzXzXzXzXzXzXzXcXxXfX'.S.A.D.'.pXaXaXpXiXiXeX'.D.D.S.A.A.S.D.D.D.D.A.F.F.S.D.iXpXpXpXiXiXiXpXpXpXpXiXpXpXpXpXpXiXD.F.A.D.eXpX",
"` ` ` ` ` ` ` ` ` ` ` ` ` ` ` ` ` ` ` ` ` ` ` ` ` ` ` ` ` ` ` ` ` ` ` ` ` ` ` ` ` ` ` ` ` ` ` ` ` ` ` ` ` ` ` ` ` ` ` ` ` ` ` ` ` ` ` ` ` ` ` ` ` ` ` ` ` ` ` ` ` ` ` ` ` ` ` ` ` ` ` ` ` ` ` ` ` ` ` ` ` ` _ _ _ ' ) ] E U m 8 7 w w t u r h v 7.d.f.C.f.f.f.f.f.f.f.f.f.f.f.f.g.g.g.g.g.g.g.g.g.g.d.d.g.g.p.p.p.p.p.p.p.p.p.p.p.p.p.p.p.p.p.p.p.p.p.p.p.7.7.7.p.p.p.p.p.p.7.7.7.7.7.7.7.8.8.8.7.7.7.7.8.6.6.6.h h r r r r h z b b b 6.6.6.6.6.6.6.6.6.6.6.6.6.x l z h h g d d t t < < < 7 C l.'.yXnXDXIXIXIXIXJXJXPXPXPXJXJXGXGXGXGXGXJXJXJXJXJXJXJXJXJXJXJXJXJXJXJXJXJXJXJXJXJXJXJXJXJXJXJXJXJXJXJXJXJXJXJXJXJXJXJXJXJXJXJXJXJXJXJXJXJXJXJXJXJXJXJXJXJXJXJXJXJXJXJXJXJXJXJXJXJXJXJXJXJXJXJXJXJXJXJXJXJXJXGXGXGXGXGXGXJXJXJXJXJXJXJXJXGXGXGXGXJXJXJXGXGXGXGXGXDXDXCXNXnXnXnXbXbXbXbXbXbXbXbXbXbXbXbXbXbXbXbXbXbXbXnXnXnXbXcXxXhXhXhX7X7X#X+X*.*.%.#.$.$.$.+.O.$.$.$.$.$.$.$.$.$.$.$.$.$.$.$.$.$.$.$.$.$.$.$.$.$.$.$.$.$.$.$.$.$.$.$.$.$.$.$.$.$.$.$.$.$.$.$.$.$.$.$.$.$.$.$.$.$.$.$.$.$.$.$.$.+.$.%.@.T I I I H H H H H H H H J J H K K K H H K K K J U K K R (.7XzXzX7X7X@XzXzXzXzXzXzXzXzXzXzXzXzXzXzXzXzXzXzXzXzXzXzXzXzXzXcXxXsX'.D.A.A.D.iXpXaXpXpXiXiXiXiX'.D.D.A.A.A.A.D.S.A.A.A.S.D.D.iXiXpXpXiXiXiXiXpXpXpXiXiXpXpXaXpXD.A.D.D.eXpX",
"` ` ` ` ` ` ` ` ` ` ` ` ` ` ` ` ` ` ` ` ` ` ` ` ` ` ` ` ` ` ` ` ` ` ` ` ` ` ` ` ` ` ` ` ` ` ` ` ` ` ` ` ` ` ` ` ` ` ` ` ` ` ` ` ` ` ` ` ` ` ` ` ` ` ` ` ` ` ` ` ` ` ` ` ` ` ` ` ` ` ` ` ` ` ` ` ` ` ` ` ` ` ` _ ` _ _ ] ] Y q m 7 w w s t u y f 6.7.g.C.f.f.f.f.f.f.f.f.f.f.f.f.g.g.g.g.g.g.g.g.g.g.d.d.g.g.p.p.p.p.p.p.p.p.p.p.p.p.p.p.p.p.p.p.7.7.7.7.7.7.7.7.p.p.p.p.7.7.7.7.7.7.7.7.7.7.8.8.7.7.7.7.7.7.8.8.6.b z h r r r f h h z x 6.6.6.6.6.6.6.8.8.6.6.6.2.2.l l k z z f d d d < < < < 0 k.`.dXDXDXDXAXGXIXIXPXPXPXPXJXGXGXGXGXGXGXJXJXJXJXJXJXJXJXJXJXJXJXJXJXJXJXJXJXJXJXJXJXJXJXJXJXJXJXJXJXJXJXJXJXJXJXJXJXJXJXJXJXJXJXJXJXJXJXJXJXJXJXJXJXJXJXJXJXJXJXJXJXJXJXJXJXJXJXJXJXJXJXJXJXJXJXJXJXJXJXJXJXJXGXGXGXGXJXJXJXJXGXGXGXGXGXGXGXSXJXJXJXJXGXDXCXNXnXnXbXbXcXcXxXxXxXxXxXxXxXxXxXxXxXxXzXhXhXhXxXxXhXxXxXcXcXcXxXhXhXhXhXzX7X@X#X+X*.*.%.$.$.$.$.O.$.$.$.$.$.$.$.$.$.$.$.$.$.$.$.$.$.$.$.$.$.$.$.$.$.$.$.$.$.$.$.$.$.$.$.$.$.$.$.$.$.$.$.$.$.$.$.$.$.$.$.$.$.$.$.$.$.$.$.$.$.$.$.$.+.$.%.@.T I L I H H H H H H H H J J H K P P H H K K J P U K K W (.@XzXzX7X7X7XzXzXzXzXzXzXzXzXhXzXzXzXzXzXzXzXzXzXzXzXzXzXzXzXzXzXcXsX@X'.A.A.A.D.iXpXaXpXpXpXiXpXiX'.D.D.S.A.F.A.A.A.A.A.S.D.D.eXiXpXpXpXiXiXiXiXpXpXpXiXiXpXaXpXD.S.D.'.iXpX",
"` ` ` ` ` ` ` ` ` ` ` ` ` ` ` ` ` ` ` ` ` ` ` ` ` ` ` ` ` ` ` ` ` ` ` ` ` ` ` ` ` ` ` ` ` ` ` ` ` ` ` ` ` ` ` ` ` ` ` ` ` ` ` ` ` ` ` ` ` ` ` ` ` ` ` ` ` ` ` ` ` ` ` ` ` ` ` ` ` ` ` ` ` ` ` ` ` ` ` _ ` ` ` ` _ / _ ) T E U m 8 w s s s w y y z 6.d.f.f.f.f.f.f.f.f.f.f.f.f.f.g.g.g.g.g.g.g.g.g.g.p.d.g.g.p.p.p.p.p.p.p.p.p.p.p.p.p.p.p.p.p.p.p.p.p.p.p.p.7.7.p.p.p.p.p.p.p.p.7.7.7.7.7.7.7.7.8.7.7.7.7.7.7.7.8.6.6.b z h f r r r f h z v 6.6.6.6.6.6.8.6.6.6.6.2.2.6.x x k z f d d 7 < < < < < c A.yXUXDXDXIXPXIXPXPXPXJXJXGXGXGXGXGXGXGXJXJXJXJXJXJXJXJXJXJXJXJXJXJXJXJXJXJXJXJXJXJXJXJXJXJXJXJXJXJXJXJXJXJXJXJXJXJXJXJXJXJXJXJXJXJXJXJXJXJXJXJXJXJXJXJXJXJXJXJXJXJXJXJXJXJXJXJXJXJXJXJXJXJXJXJXJXJXJXJXJXJXGXGXGXGXGXJXJXJXGXJXJXJXJXGXGXSXAXAXDXDXNXnXbXbXxXxXxXxXxXxXxXxXhXhXhXhXhXhXhXhXrXrXrXrXhXhXhXhX.XrXrXhXhXhXhXhXhXhXzXzXzXzX@X#X$X*.%.#.$.$.$.$.$.$.$.$.$.$.$.$.$.$.$.$.$.$.$.$.$.$.$.$.$.$.$.$.$.$.$.$.$.$.$.$.$.$.$.$.$.$.$.$.$.$.$.$.$.$.$.$.$.$.$.$.$.$.$.$.$.$.$.$.$.$.$.$.O.#.%.@.T I I L H H H F H H H H J P H K P P H H K K J P J K K U ~.@XzXzX7X7X7XzXzXzXzXzXzXzXzXhXzXzXzXzXzXzXzXzXzXzXzXzXzXzXzXzXzXzXsXfX'.S.A.A.D.'.pXaXaXaXpXiXpXpXiXiXeXD.D.D.A.A.A.A.A.A.D.D.D.eXiXpXpXpXiXiXiXiXpXpXpXiXpXpXpXD.S.D.'.iXpX",
"` ` ` ` ` ` ` ` ` ` ` ` ` ` ` ` ` ` ` ` ` ` ` ` ` ` ` ` ` ` ` ` ` ` ` ` ` ` ` ` ` ` ` ` ` ` ` ` ` ` ` ` ` ` ` ` ` ` ` ` ` ` ` ` ` ` ` ` ` ` ` ` ` ` ` ` ` ` ` ` ` ` ` ` ` ` ` ` ` ` ` ` ` ` ` ` ` ` ` _ _ ` ` ` ` T _ _ T E Y q 8 w s s s w y r f l 7.d.f.f.f.f.f.f.f.f.f.f.f.f.g.g.g.g.g.g.g.g.g.g.p.p.g.g.p.p.p.p.p.p.p.p.p.p.p.p.p.p.p.p.p.p.d.d.d.p.p.p.p.p.p.p.p.p.p.p.p.p.7.7.7.7.7.7.7.7.8.8.8.8.8.8.8.8.6.6.8.6.6.l z h r r r r h h l 6.6.6.6.6.8.6.6.6.2.x 2.6.b b x k k f d t t t 2 2 < < < Z '.UXIXIXIXIXPXPXPXJXGXGXGXGXGXGXGXGXJXJXJXJXJXJXJXJXJXJXJXJXJXJXJXJXJXJXJXJXJXJXJXJXJXJXJXJXJXJXJXJXJXJXJXJXJXJXJXJXJXJXJXJXJXJXJXJXJXJXJXJXJXJXJXJXJXJXJXJXJXJXJXJXJXJXJXJXJXJXJXJXJXJXGXGXJXJXJXJXJXJXGXGXGXGXGXGXJXJXJXJXJXJXGXSXDXDXNXnXnXbXcXxXxXhXhXhXhXhXhXhXxXxXhXhXhXhXhXhXhXhXhXhXhXhXhXhXhXhXrXrXrXhXhXhXhXhXhXhXhXhXzXxXsX@X+X$X*.%.$.$.$.$.$.$.$.$.$.$.$.$.$.$.$.$.$.$.$.$.$.$.$.$.$.$.$.$.$.$.$.$.$.$.$.$.$.$.$.$.$.$.$.$.$.$.$.$.$.$.$.$.$.$.$.$.$.$.$.$.$.$.$.$.$.$.$.+.O.$.%.@.T I I H H H H F H H H H J J H K P P H H K K J P J J K U ~.@XzXzX7X7X7XzXzXzXzXzXzXzXhXhXzXzXzXzXzXzXzXzXzXzXzXzXzXzXzXzXhXzXsXfX'.D.A.A.S.D.iXaXaXaXaXpXiXiXpXpXpXiXD.D.D.D.S.A.A.A.S.D.D.D.iXpXpXpXiXiXiXiXpXpXpXpXpXpXiXD.S.D.'.iXpX",
"` ` ` ` ` ` ` ` ` ` ` ` ` ` ` ` ` ` ` ` ` ` ` ` ` ` ` ` ` ` ` ` ` ` ` ` ` ` ` ` ` ` ` ` ` ` ` ` ` ` ` ` ` ` ` ` ` ` ` ` ` ` ` ` ` ` ` ` ` ` ` ` ` ` ` ` ` ` ` ` ` ` ` ` ` ` ` ` ` ` ` ` ` ` ` ` ` ` _ _ _ ` ` ` ` _ _ _ ) ] E W n y s t s t r r r h 6.9.d.f.f.f.f.f.f.f.f.f.f.f.g.g.g.g.g.g.g.g.g.g.g.p.g.g.p.d.p.p.p.p.p.p.p.p.p.p.p.p.p.p.p.p.p.p.p.p.p.p.p.p.p.p.p.p.p.7.p.7.7.7.7.7.7.7.7.7.7.7.7.8.8.8.8.8.6.6.8.8.6.6.b l z h y r r y h z 5.2.6.6.6.6.6.6.v l l b b b x x k k f d e t t 2 2 < < < c `.vXIXIXIXPXPXPXJXGXSXSXSXGXGXGXGXJXJXJXJXJXJXJXJXJXJXJXJXJXJXJXJXJXJXJXJXJXJXJXJXJXJXJXJXJXJXJXJXJXJXJXJXJXJXJXJXJXJXJXJXJXJXJXJXJXJXJXJXJXJXJXJXJXJXJXJXJXJXJXJXJXJXJXJXJXJXJXJXJXJXGXGXGXJXJXJXJXJXGXGXGXGXGXGXJXJXGXGXGXAXDXCXnXnXbXcXxXxXhXhXhXhXxXxXxXhXhXhXhXrXhXhXhXhXhXhXhXhXhXhXhXhXhXhXhXhXhXhXhXhXhXhXhXhXhXhXhXhXhXxXsXsX#X$X*.%.+.$.$.$.$.$.$.$.$.$.$.$.$.$.$.$.$.$.$.$.$.$.$.$.$.$.$.$.$.$.$.$.$.$.$.$.$.$.$.$.$.$.$.$.$.$.$.$.$.$.$.$.$.$.$.$.$.$.$.$.$.$.$.$.$.$.$.+.O.$.%.@.Q I L H H H H F H H L L J J H K P P P K K K J J J J K V ~.@XzX7X7X7X7XzXzXzXzXzXzXzXhXhXzXzXzXzXzXzXzXzXzXzXzXzXzXzXzXzX%X%XsXfXoX'.S.A.A.D.'.pXaXaXaXpXiXiXiXpXpXpXiXiXD.D.D.D.S.A.A.S.D.D.eXpXaXpXpXiXiXiXiXiXpXpXpXiXiXD.S.D.'.iXpX",
"` ` ` ` ` ` ` ` ` ` ` ` ` ` ` ` ` ` ` ` ` ` ` ` ` ` ` ` ` ` ` ` ` ` ` ` ` ` ` ` ` ` ` ` ` ` ` ` ` ` ` ` ` ` ` ` ` ` ` ` ` ` ` ` ` ` ` ` ` ` ` ` ` ` ` ` ` ` ` ` ` ` ` ` ` ` ` ` ` ` ` ` ` ` ` ` ` ` _ _ ` ` ` ` ` o._ _ ` T T R n u t w s s t w r f l 7.d.f.f.f.f.f.f.f.f.f.f.f.g.g.g.g.g.g.g.g.g.g.g.p.g.g.p.d.p.p.p.p.p.p.p.d.p.p.p.p.p.p.p.p.7.p.7.7.7.7.7.7.7.7.8.8.8.8.8.8.7.7.7.7.7.7.7.7.0.0.7.7.8.8.8.8.7.8.8.8.6.6.6.b b k h r t r r h l l 2.6.6.6.6.6.6.v l x x x x x b x k f f d e 2 t d 2 < < c S.dXIXIXPXPXPXJXGXAXSXAXGXGXGXGXJXJXJXJXJXJXJXJXJXJXJXJXJXJXJXJXJXJXJXJXJXJXJXJXJXJXJXJXJXJXJXJXJXJXJXJXJXJXJXJXJXJXJXJXJXJXJXJXJXJXJXJXJXJXJXJXJXJXJXJXJXJXJXJXJXJXJXJXJXJXJXJXJXJXGXGXGXJXJXJXJXJXSXGXGXGXGXGXJXJXAXAXDXCXnXbXcXxXhXhXhXhXxXxXxXxXhXhXhXhXhXhXrXrXhXhXhXhXhXhXhXhXhXhXhXhXhXhXhXhXrXrXrXrXrXrXhXhXhXhXhXhXhXxXrXrX@X+X*.*.#.%.$.%.$.+.$.$.$.$.$.$.$.$.$.+.$.$.$.$.$.$.$.$.$.$.$.$.$.$.$.$.$.$.$.$.$.$.$.$.$.$.$.$.$.$.$.$.$.$.$.$.$.$.$.$.$.$.$.$.$.$.$.$.$.$.$.$.O.#.#.%.Q T I H H H H H H H H H J J H K P J K K K K P J J J K V ~.@X7X7X7XzXzXzXzXzXzXzXzXzXhXhXzXzXzXzXzXzXzXzXzXzXzXzXzXzXzXzXhX%XsXsX@X'.S.A.A.D.'.pXaXaXaXpXiXiXiXpXpXpXpXpXiXeXD.D.D.S.A.A.D.D.eXiXaXaXpXpXpXiXiXiXiXpXpXpXiXD.S.D.'.iXpX",
"` ` ` ` ` ` ` ` ` ` ` ` ` ` ` ` ` ` ` ` ` ` ` ` ` ` ` ` ` ` ` ` ` ` ` ` ` ` ` ` ` ` ` ` ` ` ` ` ` ` ` ` ` ` ` ` ` ` ` ` ` ` ` ` ` ` ` ` ` ` ` ` ` ` ` ` ` ` ` ` ` ` ` ` ` ` ` ` ` ` ` ` ` ` ` ` ` ` ` ` ` ` ` ` ` ` ` ` ` ` `  .R b u t s t t t t w i 5.0.g.g.g.f.g.g.g.f.f.f.g.g.g.g.g.g.g.g.p.g.g.d.d.d.p.p.p.p.d.d.d.g.g.g.d.d.9.7.7.7.7.7.7.6.8.6.6.6.6.6.2.2.l l k z z z z b 6.6.8.8.7.8.7.7.7.8.8.8.8.8.8.8.8.8.8.8.8.8.8.b b x k z f r t f h z l 6.6.6.6.6.6.2.2.x x x x x x x x k h e t t t t < < < c l.'.nXPXLXPXJXIXJXAXAXJXPXGXGXJXJXKXKXJXJXJXJXJXJXJXJXJXJXJXJXJXJXJXJXJXJXJXJXJXJXJXJXJXJXJXJXJXJXJXJXJXJXJXJXJXJXJXJXJXJXJXJXJXJXJXJXJXJXJXJXJXJXJXJXJXJXJXJXJXJXJXJXJXJXJXJXJXJXJXJXJXJXJXJXJXJXSXGXGXJXJXGXGXSXGXDXnXbXcXcXcXxXhXhXxXxXxXxXhXhXhXhXhXhXhXhXhXhXhXhXhXhXhXxXxXxXhXhXhXhXhXhXhXhXhXrXrXrXhXhXhXhXhXhXhXhXzXzXzX7X7X#X+X=.*.@.%.%.+.O.$.%.#.#.%.%.#.$.+.+.+.+.+.+.$.$.$.$.$.$.$.$.$.$.$.$.$.$.$.$.$.$.$.$.$.$.$.$.$.$.$.$.$.$.$.$.$.$.$.$.$.$.$.$.$.$.$.$.$.$.$.$.O.$.%.%.@.T F I H H H H H H H H J P P P K P P J J J J J J P P K R #X7X7XzXzXzX7XzXzXzXzXzXzXhXhXzXzXzXzXzXzXzXzXzXzXzXzXzXzXzXzXzXzXsXsXfXfX'.A.A.A.D.'.aXaXaXpXpXiXiXiXiXiXpXpXpXiXiX'.'.D.D.D.D.D.'.iXiXiXiXiXpXpXiXiXiXiXpXpXpXD.S.D.eXpXpX",
"` ` ` ` ` ` ` ` ` ` ` ` ` ` ` ` ` ` ` ` ` ` ` ` ` ` ` ` ` ` ` ` ` ` ` ` ` ` ` ` ` ` ` ` ` ` ` ` ` ` ` ` ` ` ` ` ` ` ` ` ` ` ` ` ` ` ` ` ` ` ` ` ` ` ` ` ` ` ` ` ` ` ` ` ` ` ` ` ` ` ` ` ` ` ` ` ` ` ` ` ` ` ` ` ` ` ` ` ` ` ` ] A.p.f 7 t r t 7 t w p 5.8.d.g.g.C.f.g.g.f.f.f.f.g.g.g.g.g.g.p.p.g.d.d.d.d.p.p.p.p.p.d.d.d.d.d.d.7.8.6.b 6.b x x k z h h h h h h h h h h g h h h l l v b b b b 6.6.8.8.8.8.8.8.8.8.8.8.8.8.8.8.8.b b b x k z f d e r h h z 2.6.6.6.b 6.6.6.2.x x x x x x k z d t d t d d 7 < 7 0 Z `.mXIXLXPXIXJXAXDXSXJXJXKXKXHXKXKXJXJXJXJXJXJXJXJXJXJXJXJXJXJXJXJXJXJXJXJXJXJXJXJXJXJXJXJXJXJXJXJXJXJXJXJXJXJXJXJXJXJXJXJXJXJXJXJXJXJXJXJXJXJXJXJXJXJXJXJXJXJXJXJXJXJXJXJXJXJXJXJXJXJXJXJXJXJXSXGXJXJXJXGXAXDXNXnXbXxXhXhXhXhXhXhXxXhXhXhXhXhXhXhXhXhXhXhXhXhXxXcXcXcXcXcXcXcXbXbXbXbXbXbXbXbXcXcXcXcXcXxXhXhXhXhXhXhXrXhXhX7X@X@X#X+X+X*.*.@.#.O.$.#.#.#.%.%.#.$.+.+.+.+.+.+.$.$.$.$.$.$.$.$.$.$.$.$.$.$.$.$.$.$.$.$.$.$.$.$.$.$.$.$.$.$.$.$.$.$.$.$.$.$.$.$.$.$.$.$.$.$.$.$.O.$.$.%.@.T F I H H H H K K K K P P P P K K J J J J J J J J J K R #X7X7XzXzXzX7XzXzXzXzXzXzXhX%XzXzXzXzXzXzXzXzXhXzXzX7X7XzXzXxXzXsXsXsXfXfX'.S.A.A.S.'.iXpXpXpXpXpXiXiXiXiXiXpXpXpXiXiXeX'.D.D.D.D.'.iXiXiXiXiXpXpXiXiXiXiXpXpXiXD.D.D.eXpXpX",
"` ` ` ` ` ` ` ` ` ` ` ` ` ` ` ` ` ` ` ` ` ` ` ` ` ` ` ` ` ` ` ` ` ` ` ` ` ` ` ` ` ` ` ` ` ` ` ` ` ` ` ` ` ` ` ` ` ` ` ` ` ` ` ` ` ` ` ` ` ` ` ` ` ` ` ` ` ` ` ` ` ` ` ` ` ` ` ` ` ` ` ` ` ` ` ` ` ` ` ` ` ` ` ` ` ` ` ` ` ` ` ] G.A.Z 8 w r w s t t r h v 8.d.f.C.C.f.g.f.f.f.f.g.g.g.g.g.g.g.g.g.g.d.d.p.p.p.p.p.p.p.d.d.d.9.7.6.6.l z h h g h d d e t t t e e t t t e e d d h h h h h h h j j z 6.8.7.7.8.8.8.8.8.8.8.8.8.8.8.8.b b b b k z z e r r r h j l 2.x x 2.6.b b x x k k x x k z f d f t d f d 7 < < < C `.dXIXLXLXPXJXJXGXSXGXPXPXHXJXJXJXJXJXJXJXJXJXJXJXJXJXJXJXJXJXJXJXJXJXJXJXJXJXJXJXJXJXJXJXJXJXJXJXJXJXJXJXJXJXJXJXJXJXJXJXJXJXJXJXJXJXJXJXJXJXJXJXJXJXJXJXJXJXJXJXJXJXJXJXJXJXJXJXJXJXJXJXJXGXGXJXJXSXDXNXnXbXcXxXhXrXrXrXrXhXhXhXhXhXhXhXhXrXhXxXcXbXbXbXbXnXnXnXnXNXNXNXNXCXCXCXCXCXCXCXCXNXNXNXnXnXbXbXcXhXhXhXhXrXhXzXzXXX7X7X8X#X+X$X*.@.%.#.#.$.$.$.$.$.$.+.+.$.O.O.O.$.$.$.$.$.$.$.$.$.$.$.$.$.$.$.$.$.$.$.$.$.$.$.$.$.$.$.$.$.$.$.$.$.$.$.$.$.$.$.$.$.$.$.$.$.$.$.$.O.$.$.%.@.T F I H H H H H H K K P P P P K K J J J J J J P P J K R OX7X7XzXzXzX7XzXzXzXzXzXzX7X7XzXzXzXzXzXzXzXzXhXhX7X7X7X7XzXxXhXXXXXsXmXfX'.'.A.A.A.D.'.iXiXpXpXpXiXiXiXiXiXpXpXpXpXiXiXiXeX'.'.'.eXiXiXiXiXiXpXpXiXiXpXpXpXpXiXD.D.D.eXiXpX",
"` ` ` ` ` ` ` ` ` ` ` ` ` ` ` ` ` ` ` ` ` ` ` ` ` ` ` ` ` ` ` ` ` ` ` ` ` ` ` ` ` ` ` ` ` ` ` ` ` ` ` ` ` ` ` ` ` ` ` ` ` ` ` ` ` ` ` ` ` ` ` ` ` ` ` ` ` ` ` ` ` ` ` ` ` ` ` ` ` ` ` ` ` ` ` ` ` ` ` ` ` ` ` ` ` ` ` ` ` ` ` ]  .G.Z.f t w i w w t u y h v 7.g.C.C.g.g.g.f.f.f.g.g.g.g.g.g.g.g.d.g.d.p.p.p.p.p.p.p.p.p.p.7.7.8.v k h d d d d g d d d d e d d d r e e e e d d g d d r r t t t r h l 6.8.8.8.8.7.8.8.8.8.8.6.6.6.6.6.b b b b l l h h r r r h h z k x x 6.b x x x k k x k k k z z z t t t d 7 7 < 0 0 C A.fXIXLXLXIXIXIXGXGXJXKXJXJXJXJXJXJXJXJXJXJXJXJXJXJXJXJXJXJXJXJXJXJXJXJXJXJXJXJXJXJXJXJXJXJXJXJXJXJXJXJXJXJXJXJXJXJXJXJXJXJXJXJXJXJXJXJXJXJXJXJXJXJXJXJXJXJXJXJXJXJXJXJXJXJXJXJXJXJXJXJXJXGXGXGXSXDXnXbXbXxXxXhXhXrXhXhXhXhXhXhXhXhXxXcXcXbXbXnXNXCXDXDXDXSXSXSXGXGXGXGXGXGXGXGXGXGXGXGXGXGXGXGXAXDXCXnXnXcXcXxXxXzXzXxXzX%X7X7X7X7X#X+X+X*.*.%.#.$.$.$.O.$.$.$.$.$.$.$.O.$.$.$.$.$.$.$.$.$.$.$.$.$.$.$.$.$.$.$.$.$.$.$.$.$.$.$.$.$.$.$.$.$.$.$.$.$.$.$.$.$.$.$.$.$.$.$.$.O.#.$.%.@.T F F H H H H H H K K P P P P K K J J J J J J P P J K R (.7X7XzX7XzXzXzXzXzXzXzXzX7X7XzXzXzXzXzXzX7X7X%XhX7X7X7X7XzXzX%XXXXXsXmXdXfX'.A.A.A.A.D.'.eXiXiXiXiXiXiXiXiXiXiXiXiXiXiXiXiXiXiXiXiXiXiXiXiXpXpXiXiXiXpXpXpXpXeX'.D.'.eXiXpX",
"` ` ` ` ` ` ` ` ` ` ` ` ` ` ` ` ` ` ` ` ` ` ` ` ` ` ` ` ` ` ` ` ` ` ` ` ` ` ` ` ` ` ` ` ` ` ` ` ` ` ` ` ` ` ` ` ` ` ` ` ` ` ` ` ` ` ` ` ` ` ` ` ` ` ` ` ` ` ` ` ` ` ` ` ` ` ` ` ` ` ` ` ` ` ` ` ` ` ` ` ` ` ` ` ` ` ` ` ` ` ` ]  .~.A.Z u w i w w t t t u z 8.d.f.f.f.g.g.g.f.f.g.g.g.g.g.g.g.g.p.p.p.p.p.p.d.d.d.d.p.p.7.8.6.6.z h h r e d g g x x 2.2.2.2.2.2.2.x k k z z z z h h e t t s s s e h z l l 2.6.8.6.6.6.6.6.6.6.6.b b b b b b x x l z h h h h h z k k k x x x x x k k k k k k k k z f t t t d d d 7 0 0 0 l.OXUXPXIXSXSXIXPXJXAXAXJXJXJXJXJXJXJXKXJXJXJXJXJXJXJXJXJXJXJXJXJXJXJXJXJXJXJXJXJXJXJXJXJXJXJXJXJXJXJXJXJXJXJXJXJXJXJXJXJXJXJXJXJXJXJXJXJXJXJXJXJXJXJXJXJXJXJXJXJXJXJXJXGXGXGXGXGXGXGXGXJXGXAXDXnXbXcXxXhXhXhXhXhXhXhXhXhXhXxXcXcXbXnXnXDXDXAXGXGXGXSXAXGXGXGXGXGXGXGXJXGXGXGXGXGXGXGXGXGXJXJXJXJXSXDXDXnXnXbXmXcXxXhXhX%X%X%X%X7X7X@X#X+X*.*.@.#.$.$.$.$.$.#.#.#.$.$.$.$.$.$.$.$.$.$.$.$.$.$.$.$.$.$.$.$.$.$.$.$.$.$.$.$.$.$.$.$.$.$.$.$.$.$.$.$.$.$.$.$.$.$.$.$.$.$.$.O.#.#.#.%.T F F H H P H H H H H P P J J K K J J J J J P P P P K R (.@X7X7X%XzXzXzXzXzXzXzXzX7X7XzXzX7X7XzX7X7X7X%X7X7X7X7XzXzXzX%XXXXXsXmXmXfX'.S.A.Z.A.S.D.'.eXiXiXiXiXiXiXiXiXiXiXiXiXiXiXiXiXiXiXiXiXiXiXpXpXpXiXiXiXiXpXiXiXeX'.'.'.eXeXiX",
"` ` ` ` ` ` ` ` ` ` ` ` ` ` ` ` ` ` ` ` ` ` ` ` ` ` ` ` ` ` ` ` ` ` ` ` ` ` ` ` ` ` ` ` ` ` ` ` ` ` ` ` ` ` ` ` ` ` ` ` ` ` ` ` ` ` ` ` ` ` ` ` ` ` ` ` ` ` ` ` ` ` ` ` ` ` ` ` ` ` ` ` ` ` ` ` ` ` ` ` ` ` ` ` ` ` ` ` ` ` ` ` ]  .G.A.n t w s w t t 7 t f v 8.d.g.g.g.g.g.f.f.g.g.g.g.g.g.g.g.p.p.p.p.p.p.d.d.d.d.p.7.8.b k z d d d d g z 4.2.t.t.s.s.s.s.s.s.s.s.s.8.6.2.2.2.z z z g d e t t t e e r r h z 2.b 6.6.6.6.6.6.6.b b b b b b x x x l z z z z k l z z z k k k x x x x x x k k k k z z f f t 7 7 d 7 d 0 < 0 Z '.UXPXIXIXGXJXJXSXAXJXJXJXJXJXJXJXJXJXJXJXJXJXJXJXJXJXJXJXJXJXJXJXJXJXJXJXJXJXJXJXJXJXJXJXJXJXJXJXJXJXJXJXJXJXJXJXJXJXJXJXJXJXJXJXJXJXJXJXJXJXJXJXJXJXJXJXJXJXJXJXJXGXGXGXGXGXGXGXGXGXAXCXnXbXcXhXhXrXhXhXhXrXhXhXxXcXcXbXbXnXNXDXDXGXGXJXJXJXJXGXGXGXGXGXGXGXGXGXGXGXGXGXGXGXGXGXGXAXSXGXGXGXGXSXAXSXDXDXnXbXcXxXhXhXhXhXhXhXhX7X7X#X+X*.*.%.#.$.$.$.$.#.#.#.$.$.$.$.$.$.$.$.$.$.$.$.$.$.$.$.$.$.$.$.$.$.$.$.$.$.$.$.$.$.$.$.$.$.$.$.$.$.$.$.$.$.$.$.$.$.$.$.$.$.$.O.$.#.#.%.T I F H H H H H H H H P P J J K K J J J J J P P P P K W ~.@X7X7X%XzXzXzXzXzXzXzXzX7X7X7X7X7X7X7X7X7X7X%X%X7X7X%X7XzXzXzXXXXXsXxXmXsXOX_.A.A.A.A.S.D.'.'.eXiXiXiXiXiXiXpXpXpXiXiXiXiXiXpXpXiXiXiXiXpXpXpXiXeXeXiXiXiXiXeXeXeXeXeXiXiX",
"` ` ` ` ` ` ` ` ` ` ` ` ` ` ` ` ` ` ` ` ` ` ` ` ` ` ` ` ` ` ` ` ` ` ` ` ` ` ` ` ` ` ` ` ` ` ` ` ` ` ` ` ` ` ` ` ` ` ` ` ` ` ` ` ` ` ` ` ` ` ` ` ` ` ` ` ` ` ` ` ` ` ` ` ` ` ` ` ` ` ` ` ` ` ` ` ` ` ` ` ` ` ` ` ` ` ` ` ` ` ` ` ] ]  .G.R k t t w t t t t y j l 9.9.d.g.g.g.g.f.g.g.g.g.g.g.g.g.p.p.p.p.d.d.d.p.p.p.7.6.x z d e e d z x 2.2.t.s.s.s.s.h.M.h.s.s.s.s.s.s.s.s.s.s.8.2.2.2.k z d d e e t t t e h h k l l x b 6.6.6.b b b b b b x x l l l l l l l l z h h h z z x x x x x x k k k k k k k f f d t 7 7 d 7 9 < 9 Z '.UXIXIXIXGXJXJXJXJXJXJXJXJXJXGXGXJXJXJXJXJXJXJXJXJXJXJXJXJXJXJXJXJXJXJXJXJXJXJXJXJXJXJXJXJXJXJXJXJXJXJXJXJXJXJXJXJXJXJXJXJXJXJXJXJXJXJXJXJXJXJXJXJXJXJXJXJXJXJXJXGXGXGXGXGXGXGXGXDXCXnXcXxXhXhXxXrXhXhXhXhXhXxXcXnXnXnXCXDXAXGXGXGXGXGXJXJXJXJXJXJXJXJXJXJXJXJXJXGXGXGXGXGXGXGXGXAXSXGXGXGXGXGXGXJXJXSXDXDXnXbXbXhXhXhXhXhXhXhX7X7X#X+X$X*.*.%.%.$.$.#.#.#.#.$.$.$.$.$.$.$.$.$.$.$.$.$.$.$.$.$.$.$.$.$.$.$.$.$.$.$.$.$.$.$.$.$.$.$.$.$.$.$.$.$.$.$.$.$.$.$.$.$.$.+.$.#.#.%.Q I F L H H H H H H H P P P J H H J J J J J J J J P K U ~.@X7X%X%X7XzXzXzXzXzXzXzX7X7XzXzX7X7X7X7XzX%X%X%X%X7X7X7X7XzX7XzXzXzXxXmXsXsX'._.A.A.A.A.D.D.'.'.eXeXiXiXiXiXpXpXpXiXiXiXiXiXiXiXpXpXpXpXpXiXpXiX'.'.'.iXiXiXeXeXiXiXiXiXiX",
"` ` ` ` ` ` ` ` ` ` ` ` ` ` ` ` ` ` ` ` ` ` ` ` ` ` ` ` ` ` ` ` ` ` ` ` ` ` ` ` ` ` ` ` ` ` ` ` ` ` ` ` ` ` ` ` ` ` ` ` ` ` ` ` ` ` ` ` ` ` ` ` ` ` ` ` ` ` ` ` ` ` ` ` ` ` ` ` ` ` ` ` ` ` ` ` ` ` ` ` ` ` ` ` ` ` ` ` ` ` ` ` ` ] ]  .G.Z 7 u t t t t r y h h 8.9.d.g.g.g.g.g.g.g.g.g.g.g.g.g.p.p.p.p.d.d.p.p.p.7.8.6.z d t t e g 4.8.s.s.a.a.a.a.a.a.a.a.a.a.a.a.s.s.s.s.s.s.s.s.s.t.2.x z g d e t t t e r r z z k l b 6.6.6.b b b b b b b x l x x x x l z z z h h d h z k x x x x x k k k k k k k f f f f d y 7 7 8 9 < 0 Z eXUXPXIXSXJXJXJXJXJXJXJXJXJXGXGXJXJXJXJXJXJXJXJXJXJXJXJXJXJXJXJXJXJXJXJXJXJXJXJXJXJXJXJXJXJXJXJXJXJXJXJXJXJXJXJXJXJXJXJXJXJXJXJXJXJXJXJXJXJXJXJXJXJXJXJXJXJXJXJXGXGXGXGXGXGXGXGXCXnXbXxXrXhXxXcXhXhXhXhXhXxXcXbXCXCXDXAXGXGXJXJXJXJXGXGXGXGXGXGXJXJXJXJXJXJXJXJXGXGXGXGXGXGXGXGXJXJXGXGXGXJXJXJXAXSXSXSXSXDXNXnXcXcXhXhXrXrXjXhX%X7X#X+X=.*.*.%.#.#.#.#.#.#.#.$.$.$.$.$.$.$.$.$.$.$.$.$.$.$.$.$.$.$.$.$.$.$.$.$.$.$.$.$.$.$.$.$.$.$.$.$.$.$.$.$.$.$.$.$.$.$.$.$.O.$.#.#.%.Q I F L L H H H H H H P P P P H H J J J J J J J J J P U ~.@X7X7X%X7X7XzXzXzXzXzXzX7X7XzX7X7X7X7XhX%X%X%X%X%X%X7X7X7X7XzXzXcXcXcXvXdXsXOX'.S.A.A.A.A.D.'.'.'.eXeXiXiXiXpXiXiXiXiXiXiXiXiXiXpXpXpXpXiXiXpXeX'.'.'.iXiXiXiXiXiXiXiXpXiX",
"` ` ` ` ` ` ` ` ` ` ` ` ` ` ` ` ` ` ` ` ` ` ` ` ` ` ` ` ` ` ` ` ` ` ` ` ` ` ` ` ` ` ` ` ` ` ` ` ` ` ` ` ` ` ` ` ` ` ` ` ` ` ` ` ` ` ` ` ` ` ` ` ` ` ` ` ` ` ` ` ` ` ` ` ` ` ` ` ` ` ` ` ` ` ` ` ` ` ` ` ` ` ` ` ` ` ` ` ` ` ` ` ` ] ]  . .R Z 7 u e w s t r f y j b 9.g.g.g.g.g.g.g.g.g.g.g.p.p.g.d.p.p.p.d.d.d.9.6.z h r e e t g 2.s.s.s.s.a.a.a.a.a.a.a.a.a.a.a.a.a.a.s.s.s.s.s.s.s.s.s.t.t.2.4.z g d e t t e e d h z z l 6.8.b b b b x l l b k k l l l l l l z h d r t f z k k k k k k k k k f f k k z h h h y t 7 7 8 9 9 9 Z '.IXLXJXSXSXJXGXGXJXJXJXJXGXGXJXJXJXJXJXJXJXJXJXJXJXJXJXJXJXJXJXJXJXJXJXJXJXJXJXJXJXJXJXJXJXJXJXJXJXJXJXJXJXJXGXGXGXGXGXGXGXGXGXGXGXGXGXGXGXGXJXJXJXJXJXJXGXGXJXGXGXJXJXJXAXCXbXcXhXrXhXxXhXhXhXhXxXcXcXbXnXCXSXSXGXGXGXGXJXJXJXJXJXJXJXJXJXJXJXJXJXJXJXJXJXJXGXGXGXGXGXGXGXGXGXGXGXGXGXGXGXGXGXGXGXGXSXSXSXSXDXnXcXhXhXhXjXhXhX%X7X7X#X+X*.@.@.#.#.O.+.$.$.$.$.$.$.$.$.$.$.$.$.$.$.$.$.$.$.$.$.$.$.$.$.$.$.$.$.$.$.$.$.$.$.$.$.$.$.$.$.$.$.$.$.$.$.$.$.$.$.$.+.$.#.#.%.Q T F L L H H H H H H H K H H P P J J J J J J J J J P V ~.@X@XXX%X@X@XzXzXxXzXzXzX7X%X%XhX7X7X%X%X%X%XzXzXzXzXzX7X%X%XzXzXcXmXmXvXxXvXsXoX'.S.A.A.A.A.D.D.D.D.'.iXiXiXiXiXiXiXiXiXpXpXpXpXpXpXiXiXiXiXpXeXD.D.D.iXiXiXiXiXiXiXiXiXiX",
"` ` ` ` ` ` ` ` ` ` ` ` ` ` ` ` ` ` ` ` ` ` ` ` ` ` ` ` ` ` ` ` ` ` ` ` ` ` ` ` ` ` ` ` ` ` ` ` ` ` ` ` ` ` ` ` ` ` ` ` ` ` ` ` ` ` ` ` ` ` ` ` ` ` ` ` ` ` ` ` ` ` ` ` ` ` ` ` ` ` ` ` ` ` ` ` ` ` ` ` ` ` ` ` ` ` ` ` ` ` ` ` ` ` ` ]  .E W q 8 t w w w t u u h v 8.p.g.g.g.f.g.g.g.g.g.g.p.p.g.d.p.p.p.p.d.d.7.6.h e e e e e g t.s.s.s.a.a.a.a.h.r.r.a.a.a.a.a.a.a.a.a.s.h.h.s.s.s.s.s.s.s.t.8.2.x z d e t t e e d h h z b 6.b b 6.b x l x x l k l l l l l l z z f d t d f z k k k k k k k k f k k k z h h h f f u 7 8 9 9 9 9 Z '.DXIXIXGXGXGXGXJXJXJXJXGXGXJXJXJXJXJXJXJXJXJXJXJXJXJXJXJXJXJXJXJXJXJXJXJXJXJXJXJXJXJXJXJXJXGXGXGXGXGXGXGXGXGXGXGXGXGXGXGXGXGXGXGXGXGXGXGXGXGXGXGXGXGXJXJXJXGXGXSXJXJXSXCXnXcXxXhXhXhXhXhXhXhXxXcXbXnXNXDXAXSXSXGXGXGXGXJXJXJXJXJXJXJXJXJXJXJXJXJXJXJXJXJXJXGXGXGXGXGXGXGXGXGXGXGXGXGXGXGXGXGXGXGXGXSXSXSXSXDXnXbXbXxXxXhXhXhXhXhX7X@X#X+X*.*.@.#.+.$.$.$.$.$.$.$.$.$.$.$.$.$.$.$.$.$.$.$.$.$.$.$.$.$.$.$.$.$.$.$.$.$.$.$.$.$.$.$.$.$.$.$.$.$.$.$.$.$.$.$.$.+.$.$.#.%.Q T F L L H H H H H H H K H K K P P J J J J J J J J P U ~.@X@XXX%X@X@XzXzXxXzXzXzX7X%X%XhX7X7X%X%X%X%XXXXXXXXXXX%X7XzXzXzXxXcXcXxXxXsXsXtX'.'.S.A.A.A.A.S.D.D.D.D.'.eXiXiXpXpXiXiXiXpXpXpXpXpXiXpXiXiXpX'.D.D.'.iXiXpXiXiXiXiXiXiXiX",
"` ` ` ` ` ` ` ` ` ` ` ` ` ` ` ` ` ` ` ` ` ` ` ` ` ` ` ` ` ` ` ` ` ` ` ` ` ` ` ` ` ` ` ` ` ` ` ` ` ` ` ` ` ` ` ` ` ` ` ` ` ` ` ` ` ` ` ` ` ` ` ` ` ` ` ` ` ` ` ` ` ` ` ` ` ` ` ` ` ` ` ` ` ` ` ` ` ` ` ` ` ` ` ` ` ` ` ` ` ` ` ` ` ` _ ) ]  .E U 9 7 t e w s 7 t u j b 9.g.f.f.f.g.g.g.g.g.g.p.p.g.d.p.p.d.d.9.9.b z r e t e g g 2.s.s.a.a.a.h.r.a.r.r.r.y.y.h.a.a.a.a.a.a.h.h.h.h.h.h.h.j.s.s.s.s.s.7.2.z g e t t t e e r h z l b b 6.b b l x x l l k k k k k k k k f d r t d f f k k k k k k k k k k k z k j h f f f u 7 8 9 9 < 9 Z fXAXIXIXGXJXGXGXJXJXJXJXJXJXJXJXJXJXJXJXJXJXJXJXJXJXJXJXJXJXJXJXJXJXJXJXJXJXJXJXJXJXJXJXJXJXJXJXJXGXGXGXGXJXJXJXJXJXJXJXJXJXJXJXJXJXJXJXJXGXJXJXJXJXJXJXJXGXSXGXGXGXCXbXxXxXhXhXhXhXhXhXhXxXbXnXCXDXAXGXGXSXGXGXGXGXGXGXJXJXJXJXJXJXJXJXJXJXJXJXJXJXJXJXJXGXGXGXGXGXGXGXGXGXGXGXGXGXGXGXGXGXGXSXSXSXSXSXSXDXDXDXnXbXcXhXrXhXhXhXxX7X@X#X+X*.*.@.#.#.$.$.$.$.$.$.$.$.$.$.$.$.$.$.$.$.$.$.$.$.$.$.$.$.$.$.$.$.$.$.$.$.$.$.$.$.$.$.$.$.$.$.$.$.$.$.$.$.$.$.$.O.$.$.#.%.Q T L L L H H H H H H H H K K K K J J J J J J J J J P U ~.#X@XXX%X@XXXzXzXxXzXzXzX7X%XhXhX%X7X%X%X%X%X%X%X%XXX%X%XzXzXzXzXxXcXcXcXxXxXsXsXfX'.'.`.A.A.A.A.A.A.S.D.D.D.'.iXiXpXiXiXiXiXiXiXpXpXpXpXpXpXiX'.D.D.'.iXiXpXiXiXiXiXiXiXiX",
"` ` ` ` ` ` ` ` ` ` ` ` ` ` ` ` ` ` ` ` ` ` ` ` ` ` ` ` ` ` ` ` ` ` ` ` ` ` ` ` ` ` ` ` ` ` ` ` ` ` ` ` ` ` ` ` ` ` ` ` ` ` ` ` ` ` ` ` ` ` ` ` ` ` ` ` ` ` ` ` ` ` ` ` ` ` ` ` ` ` ` ` ` ` ` ` ` ` ` ` ` ` ` ` ` ` ` ` ` ` ` ` ` ` _ T ` @. .E q 0 7 t w s 7 t u y j 6.p.f.f.f.g.g.g.g.g.g.p.g.g.g.d.d.d.d.9.7.z h r t e h z 2.s.a.a.a.a.a.h.y.r.r.r.r.y.y.h.a.h.h.a.a.h.h.h.h.s.s.h.h.j.j.s.s.s.s.s.s.8.4.z d t t t t t r f h x b b b b x x b x l x k k k k k x k z f d r t r f f f k k k k k k k k k z k j j f u y f 8 7 8 8 9 9 9 Z.fXAXIXJXJXJXGXJXJXJXJXJXJXJXJXJXJXJXJXJXJXJXJXJXJXJXJXJXJXJXJXJXJXJXJXJXJXJXJXJXJXJXJXJXJXJXJXJXJXJXJXJXJXJXJXJXJXJXJXJXJXJXJXJXJXJXJXJXGXGXGXGXGXJXJXJXGXGXGXAXCXnXcXhXhXhXhXrXrXhXxXcXnXNXDXGXGXGXGXSXGXGXGXGXGXGXGXGXJXJXJXJXJXJXJXJXJXJXJXJXJXJXJXJXGXGXGXGXGXGXGXGXGXGXGXGXGXGXGXGXGXGXGXSXSXSXSXSXSXSXAXDXCXbXcXhXzXhXhXhXhX7X7X#X+X=.*.@.#.#.#.$.$.$.$.$.$.$.$.$.$.$.$.$.$.$.$.$.$.$.$.$.$.$.$.$.$.$.$.$.$.$.$.$.$.$.$.$.$.$.$.$.$.$.$.$.$.$.$.$.O.$.$.#.%.Q T I L L H H H H H H H H K K K K J J J J J J J J J P U ~.#X@XXX%X7X@XzXhXzXzXzXzX7X7XhXhX%X7X%X%X%X%XzXzX7X7X7X7X7XzXzXxXcXcXcXxXxXsXsXsXfXfXeX'.S.A.A.A.F.A.A.S.D.D.'.'.iXiXiXiXiXiXiXpXiXpXpXpXpXpXiX'.D.D.D.eXiXpXiXiXiXiXiXiXiX",
"` ` ` ` ` ` ` ` ` ` ` ` ` ` ` ` ` ` ` ` ` ` ` ` ` ` ` ` ` ` ` ` ` ` ` ` ` ` ` ` ` ` ` ` ` ` ` ` ` ` ` ` ` ` ` ` ` ` ` ` ` ` ` ` ` ` ` ` ` ` ` ` ` ` ` ` ` ` ` ` ` ` ` ` ` ` ` ` ` ` ` ` ` ` ` ` ` ` ` ` ` ` ` ` ` ` ` ` ` ` ` ` o.` _ ` ` ] ]  .W q 9 7 t t 7 t t r y v 8.p.g.g.g.g.g.g.g.g.p.g.g.g.g.g.g.9.7.6.h r r t e z 2.s.s.a.h.a.a.m.m.y.r.r.r.r.c.z.b.a.h.a.a.a.a.s.s.s.s.s.s.s.s.s.s.s.t.s.s.s.s.7.2.x d e t s t t r d k k x b x x x b x x k k k k k k b x k h f d t t t d f f f k k k k k z z z z k k f t f f u t d f 8 9 < 0 A.vXIXPXJXIXGXGXJXJXJXJXJXJXJXJXJXJXJXJXJXJXJXJXJXJXJXJXJXJXJXJXJXJXJXJXJXJXJXJXJXJXJXJXGXGXGXGXGXGXGXGXGXGXGXGXGXGXGXGXGXGXGXGXGXGXGXGXGXGXGXGXGXGXGXGXGXJXGXDXnXcXxXhXhXhXhXrXrXxXbXbXCXDXGXJXJXGXGXGXGXGXGXGXGXGXGXGXJXJXJXJXJXJXJXJXJXJXJXJXJXJXJXJXGXGXGXGXGXGXGXGXGXGXGXGXGXGXGXGXJXJXJXJXGXSXSXSXGXSXSXSXAXCXbXcXzXzXrXrXhXhX7X7X#X+X*.*.@.#.%.$.$.$.$.$.$.$.$.$.$.$.$.$.$.$.$.$.$.$.$.$.$.$.$.$.$.$.$.$.$.$.$.$.$.$.$.$.$.$.$.$.$.$.$.$.$.$.$.$.$.$.$.%.%.@.T I L H H H H H H H H H H H K K J J J J J J J J P P U E #X@X@X%X7X7XzXhXzXxXxXzXzX7X7X7X7X7X7X7X7X7XXX%X7X7X7X7X7XsXsXsXxXxXxXsXsXsXsXfXdXdXfXpX'.'.S.A.A.A.A.A.S.D.D.D.'.iXiXiXiXiXiXiXpXpXpXpXpXpXiXiX'.D.D.'.iXiXiXiXiXiXiXiXiX",
"` ` ` ` ` ` ` ` ` ` ` ` ` ` ` ` ` ` ` ` ` ` ` ` ` ` ` ` ` ` ` ` ` ` ` ` ` ` ` ` ` ` ` ` ` ` ` ` ` ` ` ` ` ` ` ` ` ` ` ` ` ` ` ` ` ` ` ` ` ` ` ` ` ` ` ` ` ` ` ` ` ` ` ` ` ` ` ` ` ` ` ` ` ` ` ` ` ` ` ` ` ` ` ` ` ` ` ` ` ` ` ` o.` ` ` ` ) ] ] E U q 9 7 t t u w w r h b 9.p.g.g.g.g.g.g.g.g.g.g.g.g.d.d.7.6.l p r r e r z 7.s.a.h.a.a.h.y.y.r.r.r.r.r.c.c.b.b.b.a.s.s.t.3.2.2.4.4.x x z x 4.4.x 2.2.k.s.s.7.8.k z e t s t t t f z k x x x x b x x k k k k k k b x l k z f f d t t d f f f k k k k k z z z k k f k k f u u f u 7 8 7 < n '.IXPXJXGXGXGXJXJXJXJXJXJXJXJXJXJXJXJXJXJXJXJXJXJXJXJXJXJXJXJXJXJXJXJXJXJXJXJXJXJXJXJXJXJXJXJXJXJXJXJXGXGXGXGXGXGXGXGXGXGXGXGXGXGXGXGXJXJXJXJXJXJXJXJXJXGXDXnXcXxXhXxXhXhXhXhXxXcXnXCXDXAXGXGXGXGXGXJXGXGXGXGXGXGXGXGXJXJXJXJXJXJXJXJXJXJXJXJXJXJXJXJXGXGXGXGXGXGXGXGXGXGXGXGXGXGXGXSXFXFXFXJXJXJXGXGXGXSXSXGXJXAXCXnXmXcXzXrXrXhXhX%X7X#X+X*.*.@.%.#.$.$.$.$.$.$.$.$.$.$.$.$.$.$.$.$.$.$.$.$.$.$.$.$.$.$.$.$.$.$.$.$.$.$.$.$.$.$.$.$.$.$.$.$.$.$.$.$.$.$.$.%.%.@.T I L H H H H H H H H H H H J J J J J J J J J J P P U R #X@X@X%XzX%XzXhXzXxXxXxXzX%X7X7X7XzX7X7X%X%XXX%X7XzXzXzXzXzXsXsXxXmXmXdXsXfXfXdXfXdXdXfXfX'.D.S.A.A.A.A.S.S.D.D.'.eXiXiXiXpXiXiXpXpXpXpXpXpXiXiX'.D.D.D.'.iXiXiXiXiXiXiXiX",
"` ` ` ` ` ` ` ` ` ` ` ` ` ` ` ` ` ` ` ` ` ` ` ` ` ` ` ` ` ` ` ` ` ` ` ` ` ` ` ` ` ` ` ` ` ` ` ` ` ` ` ` ` ` ` ` ` ` ` ` ` ` ` ` ` ` ` ` ` ` ` ` ` ` ` ` ` ` ` ` ` ` ` ` ` ` ` ` ` ` ` ` ` ` ` ` ` ` ` ` ` ` ` ` ` ` ` ` ` ` ` ` ` o.o.` ` ) ` ]  .Y V 0 7 7 t u r w u u l 6.p.g.g.g.g.g.g.g.p.p.g.d.d.d.9.6.j y r r r e h x s.s.a.a.a.a.m.c.r.r.r.r.r.r.b.b.b.b.s.s.s.3.2.<.g g g g g g e d g g g g g z x 2.7.p.8.x h e t t t t e f z k l x b b x x x k k k x k x x x x k k f f d t t d d f f f k k k z z k k k k x k f f f t t t 7 8 9 0 l.yXDXJXGXGXGXJXJXJXJXJXJXJXJXJXJXJXJXJXJXJXJXJXJXJXJXJXJXJXJXJXJXJXJXJXJXJXJXJXJXJXJXJXJXGXGXAXAXDXDXDXDXDXDXDXDXDXDXDXCXDXDXDXDXDXDXCXDXDXDXAXAXAXSXGXDXnXbXxXhXhXhXhXhXhXxXbXnXCXAXAXGXGXGXGXGXGXJXGXGXGXGXGXGXGXGXJXJXJXJXJXJXJXJXJXJXJXJXJXJXJXJXGXGXGXGXGXGXGXGXGXGXGXGXGXGXGXSXFXFXFXJXJXJXGXGXGXGXSXGXGXSXDXDXnXbXcXhXhXhXhXhX%X7X#X+X=.*.%.+.$.$.$.$.$.$.$.$.$.$.$.$.$.$.$.$.$.$.$.$.$.$.$.$.$.$.$.$.$.$.$.$.$.$.$.$.$.$.$.$.$.$.$.$.$.$.$.$.$.O.$.#.%.@.T I L H H H H H H H H H H H J J J J J J J J J J P P U R OX@X@X%X7X%XzXhXzXxXxXxXhX%X7X7XzXzX%X%X%X%XzX7XXXXXXXXX7XzXsXsXsXsXfXfXfXfXfXfXfXfXfXfX'.'.D.A.A.A.A.A.S.S.D.D.D.'.eXiXiXpXpXpXpXpXiXiXiXpXpXiXiXD.D.D.D.'.iXiXiXiXiXiXiX",
"` ` ` ` ` ` ` ` ` ` ` ` ` ` ` ` ` ` ` ` ` ` ` ` ` ` ` ` ` ` ` ` ` ` ` ` ` ` ` ` ` ` ` ` ` ` ` ` ` ` ` ` ` ` ` ` ` ` ` ` ` ` ` ` ` ` ` ` ` ` ` ` ` ` ` ` ` ` ` ` ` ` ` ` ` ` ` ` ` ` ` ` ` ` ` ` ` ` ` ` ` ` ` ` ` ` ` ` ` ` ` ` _ ` o.] ` ` ` ` ] ] Y q 9 9 t r r u u u h b 9.g.g.g.g.g.g.g.p.p.p.d.d.9.8.v y w r r r r h x s.s.a.r.r.a.m.c.r.r.r.r.r.r.b.b.b.b.s.s.3.2.4.g g 2 3 e 2 2 2 2 e e e e e d g x 2.s.s.6.z e e t t t t d f k l x b b x x x x k k k x x x b b x k k z f f t t t d f f k k k z z k k k x k z h j d t y y t u d 7 0 A.gXIXJXJXGXGXFXJXJXJXJXJXJXJXJXJXJXJXJXJXJXJXJXJXJXJXJXJXJXJXJXJXJXJXJXJXJXJXJXJXJXAXDXDXCXCXNXnXnXbXbXbXbXbXbXbXbXbXbXbXbXbXbXbXbXbXbXbXnXnXnXNXNXAXNXbXxXhXhXhXhXhXhXxXcXbXNXDXGXGXJXJXGXGXAXGXGXGXGXGXGXGXGXGXGXJXJXJXJXJXJXJXJXJXJXJXJXJXJXJXJXGXGXGXGXGXGXGXGXGXGXGXGXGXGXGXSXFXFXFXJXJXJXGXGXSXSXHXHXSXSXSXSXDXnXbXxXhXhXhXhXrXzX7X#X+X*.*.@.%.$.$.$.$.$.$.$.$.$.$.$.$.$.$.$.$.$.$.$.$.$.$.$.$.$.$.$.$.$.$.$.$.$.$.$.$.$.$.$.$.$.$.$.$.$.$.+.O.O.$.%.%.%.T I F L L H H H H H H H H H J J J J J J J J J J J P U R (.@X@XXXzX%X7X%XzXzXxXxXzXzX7X7XhXhX%X%X%X%XzXXXoX}.{.}.oXoXoXXXfXfXfXfXpX@X'.'.'.'.'.'.D.S.A.A.A.A.A.A.S.D.D.D.D.'.eXiXiXiXpXpXpXpXiXiXiXpXpXpXiXD.D.S.D.'.iXiXiXiXiXiXpX",
"` ` ` ` ` ` ` ` ` ` ` ` ` ` ` ` ` ` ` ` ` ` ` ` ` ` ` ` ` ` ` ` ` ` ` ` ` ` ` ` ` ` ` ` ` ` ` ` ` ` ` ` ` ` ` ` ` ` ` ` ` ` ` ` ` ` ` ` ` ` ` ` ` ` ` ` ` ` ` ` ` ` ` ` ` ` ` ` ` ` ` ` ` ` ` ` ` ` ` ` ` ` ` ` ` ` ` ` ` ` ` ` ` ` ` ` ` ` ` _ ' ` ] Y q 9 7 r w r u t u f b g.p.g.g.g.g.g.p.p.g.g.9.6.l h y y y r r r g x t.s.a.a.b.m.m.m.m.m.r.r.m.a.r.m.M.s.2.2.g g e e 2 e e e e e e e e e e e e 2 e g 3.s.s.s.2.z r t t t 7 t r f k k x x x x l l l l k k x x x x x k k k k f d t t t d d k k k f f z k k k k k k z h f d e t d d 7 < c `.DXIXIXIXGXSXJXAXJXJXJXJXJXJXJXJXGXGXGXGXGXJXJXJXSXSXSXGXGXGXGXGXJXJXSXAXDXDXNXnXbXbXbXbXcXxXhXhXhXhXhXhXhXhXzXhXhXhXhXhXhXhXhXhXxXhXhXhXzXxXcXbXbXcXxXxXxXxXhXhXhXxXbXnXDXAXGXJXGXGXGXGXGXGXGXGXGXGXGXGXGXGXGXGXJXJXJXJXJXJXJXJXJXJXJXJXJXJXJXJXGXGXGXGXGXGXGXGXGXGXGXGXGXGXGXGXSXSXSXGXGXGXGXGXGXGXGXGXGXGXGXGXAXDXCXnXcXhXhXhXhXXXXX@X#X#X$X*.@.$.$.$.+.+.+.$.$.$.$.$.$.$.$.$.$.$.$.$.$.$.$.$.+.+.O.O.O.O.O.O.$.$.$.$.$.$.$.$.$.$.$.$.$.$.$.O.O.O.+.#.%.%.Q T F L H H H H K H H J J J J J J J J J J J J J J P U W (.@X@X%XzXzXzXzXzXzXzXzXzXzX7X7XzXzXzX7X7X7XzXzXXXW.P.R P.!._._._.'.'.'.'.'.D.D.S.A.A.A.A.A.F.A.A.S.D.D.D.D.D.'.'.eXeXiXpXpXpXiXiXiXpXpXpXiXiXpXiX'.D.D.D.D.'.'.iXpXpXpXpX",
"` ` ` ` ` ` ` ` ` ` ` ` ` ` ` ` ` ` ` ` ` ` ` ` ` ` ` ` ` ` ` ` ` ` ` ` ` ` ` ` ` ` ` ` ` ` ` ` ` ` ` ` ` ` ` ` ` ` ` ` ` ` ` ` ` ` ` ` ` ` ` ` ` ` ` ` ` ` ` ` ` ` ` ` ` ` ` ` ` ` ` ` ` ` ` ` ` ` ` ` ` ` ` ` ` ` ` ` ` ` ` ` ` ` ` ` ` ` ` _ _ _ ` T K > 9 u t y u t u u k 7.p.d.g.g.d.p.d.d.p.p.7.v j y y y y r r r g x t.s.a.b.b.m.m.m.b.b.a.r.m.b.a.a.s.3.4.z g e e e e e e e r e r e e e e e e 3 g <.t.s.s.s.t.4.g r t t t t t f k k l x x x l l x l k k x x x x x k k k k z f d t t d d z z f f f k k k k k k z z z f d h e d t 7 < 7 l.dXIXPXIXGXSXJXGXJXJXJXJXJXJXJXJXJXJXGXGXGXGXGXJXGXGXGXJXGXGXAXAXDXCXnXnXbXbXbXcXxXxXxXxXxXhXhXhXhXhXhXhXhXhXhXhXhXhXhXhXhXhXhXhXhXhXhXhXzXxXxXxXcXxXhXhXxXhXhXhXhXcXnXCXAXGXGXGXGXGXGXGXGXGXGXGXGXGXGXGXGXGXGXGXJXJXJXJXJXJXJXJXJXJXJXJXJXJXJXJXGXGXGXGXGXGXGXGXGXGXGXGXGXGXGXGXGXGXGXGXGXGXGXGXGXGXGXGXGXGXGXGXHXAXAXNXnXvXjXhXhX%X%X7X@X#X#X$X*.#.%.$.O.+.+.+.$.$.$.$.$.$.O.$.$.$.$.$.$.$.$.$.+.+.O.O.O.O.O.O.$.$.$.$.$.$.$.$.$.$.$.$.$.$.$.O.+.O.+.#.%.%.Q T F L H H H H K H H J J J J J J J J J J J J J J J K W ~.@X@X%XzXxXzXzX7XzXzXzXzXzX7X7XzXzXzX7X7X7XzXzXXX{.Y.A A A.A.A.A.A.A.A.A.A.A.A.A.A.A.A.A.F.A.S.D.D.D.D.D.D.eXeXeXeXiXiXiXiXiXiXiXiXpXpXpXiXiXiXiX'.D.D.D.D.D.'.'.iXpXpXpX",
"` ` ` ` ` ` ` ` ` ` ` ` ` ` ` ` ` ` ` ` ` ` ` ` ` ` ` ` ` ` ` ` ` ` ` ` ` ` ` ` ` ` ` ` ` ` ` ` ` ` ` ` ` ` ` ` ` ` ` ` ` ` ` ` ` ` ` ` ` ` ` ` ` ` ` ` ` ` ` ` ` ` ` ` ` ` ` ` ` ` ` ` ` ` ` ` ` ` ` ` ` ` ` ` ` ` ` ` ` ` ` ` ` ` ` ` ` ` ` ` _ _ ` ] Y V 0 9 7 u t t t t f v 9.p.g.g.d.p.d.g.p.9.6.l y r r r r r r e h z 2.s.s.a.a.a.h.c.h.h.r.a.m.b.a.t.3.4.g i e e e w e e r r r r r r r e e 2 e g g 2.s.s.s.s.s.8.x g e t t t t f h k k x x x l l x x k k x x x x k k k k k z f f d d d d f f f f z k z z k k z z z h f f h e t t 7 < < c `.UXLXIXGXSXSXJXJXJXJXJXJXJXJXJXJXJXGXGXGXGXGXGXJXJXJXGXAXDXCXnXnXbXcXxXhXhXhXrXhXhXhXhXhXhXhXhXhXhXhXhXhXhXhXhXhXhXhXhXhXhXhXhXhXhXhXhXzXzXzXzXzXhXrXhXhXhXhXxXcXbXCXAXGXGXGXGXGXGXGXGXGXGXGXGXGXGXGXGXGXGXGXGXJXJXJXJXJXJXJXJXJXJXJXJXJXJXJXJXGXGXGXGXGXGXGXGXGXGXGXGXGXGXGXGXGXGXGXGXGXGXGXGXGXGXGXGXGXGXGXGXGXGXGXAXCXnXcXhXhXhX%X7X7X@X#X+X*.*.%.+.O.O.O.+.O.$.%.%.$.$.O.O.$.$.$.$.$.$.$.$.+.+.+.+.O.O.O.O.$.$.$.$.$.$.$.$.$.$.$.$.$.$.$.+.+.O.+.#.#.%.Q T F L H H H H H K H J J J J J J J J J J J J J J J P U ~.@X@X%XzXzXzXzX7X7XzXzXzXzX7X7X7XzX%X%X7X7XXXXXXXoX_.A A A A A.A.A.A.A.Z.Z.Z.Z.A.A.S.S.S.S.D.D.D.D.D.iXiXiXiXiXiXiXiXiXiXiXiXiXiXiXpXpXiXiXiXiXiXeX'.D.D.D.D.D.D.eXiXpXpX",
"` ` ` ` ` ` ` ` ` ` ` ` ` ` ` ` ` ` ` ` ` ` ` ` ` ` ` ` ` ` ` ` ` ` ` ` ` ` ` ` ` ` ` ` ` ` ` ` ` ` ` ` ` ` ` ` ` ` ` ` ` ` ` ` ` ` ` ` ` ` ` ` ` ` ` ` ` ` ` ` ` ` ` ` ` ` ` ` ` ` ` ` ` ` ` ` ` ` ` ` ` ` ` ` ` ` ` ` ` ` ` ` _ _ ` ` ` ` ` ` ` ` ` @.] Y V > 9 8 8 8 t u y f b 7.d.g.d.p.g.g.g.7.v h r u u r r r r e d g 2.s.s.a.a.h.h.y.h.h.r.a.m.m.r.3.1.g 2 e e e e w w w w w w r w r r r e 2 e g 2.s.a.s.s.s.s.s.2.z d t s t t d f k k x x x x x x x k k x x x k k k k k k k z z f d t t t d f f z k k k z k z z z h f f d e t 7 7 7 7 0 Z fXPXPXIXSXSXSXJXJXJXJXJXJXJXJXJXGXSXGXGXJXJXJXJXJXGXDXNXnXbXcXcXxXhXrXrXhXhXhXhXhXhXhXhXhXhXhXhXhXhXhXhXhXhXhXhXhXhXhXhXhXhXhXhXhXhXhXhXhXrXrXxXhXhXxXxXhXxXcXbXNXAXJXJXGXGXJXGXGXGXGXGXGXGXGXGXGXGXGXGXGXGXGXJXJXJXJXJXJXJXJXJXJXJXJXJXJXJXJXJXJXGXGXGXGXGXGXGXGXGXGXGXGXGXGXGXGXGXGXGXGXGXGXGXGXGXGXGXGXGXGXGXGXGXGXHXCXnXcXxXzXhXzX7X7X@X#X+X*.%.#.+.O.O.+.O.$.%.#.$.$.$.O.$.$.$.$.$.$.$.$.+.+.+.+.O.O.O.O.$.$.$.$.$.$.$.$.$.$.$.$.$.$.$.+.+.O.+.$.#.%.Q T I L H H H P H K H J J J J J J J J J J J J J J J K U ~.#X@X%XzXzXzX7X7X7XzXzXzXzX7X7XzXzX%X7X7X7XXXXXsXzXoXQ.A.A A.A.A.A.A.A.A.A.A.A.S.D.D.D.D.D.'.'.'.iXiXiXpXpXpXpXpXpXiXiXiXiXiXiXiXiXpXpXiXiXiXiXiXiXeXD.D.D.D.D.D.D.eXiXiX",
"` ` ` ` ` ` ` ` ` ` ` ` ` ` ` ` ` ` ` ` ` ` ` ` ` ` ` ` ` ` ` ` ` ` ` ` ` ` ` ` ` ` ` ` ` ` ` ` ` ` ` ` ` ` ` ` ` ` ` ` ` ` ` ` ` ` ` ` ` ` ` ` ` ` ` ` ` ` ` ` ` ` ` ` ` ` ` ` ` ` ` ` ` ` ` ` ` ` ` ` ` ` ` ` ` ` ` ` ` ` ` ` _ _ _ ` ` ` ] ] ` ` ` ` ] T P , > 9 9 8 t u y f k b 9.d.g.g.d.d.g.8.l y r u r r r r r e e g 2.t.s.b.b.m.m.m.h.h.r.a.b.m.a.2.g 2 e e w e w w w w w w w w w w w r e e g 4.t.s.h.h.a.a.s.s.t.2.g t t t t t f h k l x x x l x x k k x x k k k k k k k k k k f d d t t t d f f z z z z z z z z h h f r d t 7 < 7 7 < 0 `.DXPXIXIXSXSXJXJXJXJXJXJXJXJXGXSXAXGXJXJXJXGXAXDXNXnXbXxXhXhXrXhXhXhXhXhXhXhXhXhXhXhXxXxXxXxXhXhXhXhXhXhXhXhXxXxXxXjXxXxXxXxXxXxXxXhXhXrXrXrXxXxXxXxXhXhXxXbXCXDXGXJXGXGXGXJXGXGXGXGXGXGXGXGXGXGXGXGXGXGXGXGXJXJXJXJXJXJXJXJXJXJXJXJXJXJXJXJXJXJXJXGXGXGXGXGXGXGXGXGXGXGXGXGXGXGXGXGXGXGXGXGXJXGXGXGXGXGXGXGXSXSXSXGXGXDXCXnXcXxXzX%XzX7X7X@X#X+X*.@.#.O.O.O.O.$.%.%.#.$.$.$.$.$.$.$.$.$.$.$.$.$.O.O.O.O.O.O.$.$.$.$.$.$.$.$.$.$.$.$.$.$.$.+.+.+.+.$.#.Q Q T I I L H H P H K H J J J J J J J J J J J J J J P P U ~.#X@X7XzXzXzX7X7X7XzXzXxXzXzX7XzXzX%XhXhXhX%XXXsXzXsXOXQ.Y.A.A.A.A.S.'.'.'.D.D.D.D.'.'.eXiXiXiXiXpXpXpXpXpXpXpXpXpXpXpXpXpXiXiXiXiXpXpXpXiXiXiXiXiXiX'.D.D.D.D.D.D.D.D.'.",
"` ` ` ` ` ` ` ` ` ` ` ` ` ` ` ` ` ` ` ` ` ` ` ` ` ` ` ` ` ` ` ` ` ` ` ` ` ` ` ` ` ` ` ` ` ` ` ` ` ` ` ` ` ` ` ` ` ` ` ` ` ` ` ` ` ` ` ` ` ` ` ` ` ` ` ` ` ` ` ` ` ` ` ` ` ` ` ` ` ` ` ` ` ` ` ` ` ` ` ` ` ` ` ` ` ` ` ` ` ` ` ` _ _ _ ` ` ` ] ] o.` _ ` ] ] T F q 9 9 8 7 u y y y k b p.d.g.d.g.g.8.z y u r r r r r r e e g x 3.s.b.b.m.m.m.m.m.r.b.b.m.a.2.g 2 i e e w r r w w w w w w w w w r e g z 2.s.s.h.h.a.s.s.s.s.2.g e t t t t t f z l x x l l x x k k k k k k k k k k k k k k z f d t t t t d f f z z f z z z z h f f d d t 7 < 7 7 < < l.dXPXPXIXFXJXJXJXJXJXJXJXJXJXGXSXAXGXGXGXDXCXnXbXbXxXhXhXhXhXXXrXhXhXhXrXhXhXhXhXxXxXcXcXcXbXbXbXbXbXbXbXbXbXnXnXnXnXnXnXnXnXnXbXbXcXxXzXzXhXxXxXxXhXhXhXcXbXAXAXGXGXSXSXJXPXJXJXJXJXJXJXJXJXJXJXJXJXJXJXJXJXJXJXJXJXJXJXJXJXJXJXJXJXJXJXJXJXJXJXJXJXGXGXGXGXGXGXGXGXGXGXGXGXGXGXGXGXGXGXGXGXJXJXGXGXGXGXGXSXSXSXSXSXSXSXAXDXnXbXzXhXhX%X%XXX7X#X$X*.%.$.O.O.O.$.%.%.%.#.$.$.#.$.$.$.$.$.$.$.$.$.O.O.O.O.O.O.$.$.$.$.$.$.$.$.$.$.$.$.$.$.$.+.+.+.$.$.#.Q Q T I I L H H P H K J J J J J J J J J J J J J J J P P V !.#X@X7X7XzXzXzX7X7XzXzXxXzXzX7XzXzXhXhXhXhXzXzXzX@XzXsXOXQ.A.A.A.A.S.'.'.iXiXiXiXiXiXiXiXpXpXpXpXpXpXpXiXiXpXpXpXpXpXpXpXpXiXiXiXiXpXpXpXpXiXiXiXpXpXeX'.D.D.D.D.D.D.D.D.",
"` ` ` ` ` ` ` ` ` ` ` ` ` ` ` ` ` ` ` ` ` ` ` ` ` ` ` ` ` ` ` ` ` ` ` ` ` ` ` ` ` ` ` ` ` ` ` ` ` ` ` ` ` ` ` ` ` ` ` ` ` ` ` ` ` ` ` ` ` ` ` ` ` ` ` ` ` ` ` ` ` ` ` ` ` ` ` ` ` ` ` ` ` ` ` ` ` ` ` ` ` ` ` ` ` ` ` ` ` ` ` ` ` ` _ _ ` ` ` ] o.` ` _ ` o.) T V q m 9 7 w r w r f v b p.g.g.g.g.6.j r r r r t r r r e t d z 2.s.b.b.m.m.m.c.c.r.m.m.m.a.2.g 2 i e w w r r r r w w w w w w w r e g 2.s.s.h.h.h.h.a.s.s.s.t.x g t t 7 t t f k k x x l l x x k k k k k k k k k k k k k k k f f d t t t t d f f f f f h z h h g g d f t 7 7 7 7 < 0 c _.DXJXSXFXJXJXJXJXJXJXJXJXJXJXGXSXSXAXCXnXbXxXxXhXhXhXhXhXhXrXhXhXhXhXhXxXcXcXbXbXbXnXnXNXNXDXDXDXDXDXDXDXDXDXDXDXDXDXDXDXDXDXCXNXnXbXcXzXrXhXhXhXhXhXxXbXCXGXGXGXSXSXGXGXJXJXJXJXJXJXJXJXJXJXJXJXJXJXJXJXJXJXJXJXJXJXJXJXJXJXJXJXJXJXJXJXJXJXJXJXJXJXGXGXGXGXGXGXGXGXGXGXGXGXGXGXGXGXGXGXGXJXJXJXGXGXGXGXSXSXSXFXFXSXSXSXSXDXnXcXzXhXhXhX%XzX@X#X+X*.%.#.+.$.$.%.%.%.%.%.%.#.#.#.$.$.$.$.$.$.$.$.$.+.+.+.+.$.$.$.$.$.$.$.$.$.$.$.$.$.$.$.+.+.+.+.$.#.%.%.T I I L H H H H H J J J J J J J J J J J J J J J P K V { #X@X7XzXzXzXzXzXzXzXzXzXzXzX7X7X7X7X7XhX7XzXzX@X@XzXzXXX{._.S.A.A.A.S.'.'.iXiXiXiXpXpXpXpXpXpXpXpXpXpXpXpXiXpXpXpXpXpXpXpXpXpXiXiXpXpXpXpXpXiXiXpXpXiXeX'.D.D.D.D.D.D.D.",
"` ` ` ` ` ` ` ` ` ` ` ` ` ` ` ` ` ` ` ` ` ` ` ` ` ` ` ` ` ` ` ` ` ` ` ` ` ` ` ` ` ` ` ` ` ` ` ` ` ` ` ` ` ` ` ` ` ` ` ` ` ` ` ` ` ` ` ` ` ` ` ` ` ` ` ` ` ` ` ` ` ` ` ` ` ` ` ` ` ` ` ` ` ` ` ` ` ` ` ` ` ` ` ` ` ` ` ` ` ` ` ` ` ` ` _ _ ` ` ] o.o.` ` o.o._ ` F , > 9 7 7 u t w y f b 8.d.f.f.d.6.h r t r t t r r r e t d z 2.s.b.b.m.m.m.c.c.a.m.m.m.b.2.g i i e w w r r r r w w w w w w w r e g 2.s.s.h.h.h.h.a.s.s.s.t.2.g t t 7 7 t f k l x x l l x x k k k k k k k k k k k k k k k z f f t t t t d d f f f f h h h h g g g g s t d 7 7 < 0 9 A.NXAXDXSXJXJXJXJXJXJXJXJXJXJXJXGXAXDXnXcXhXhXhXhXhXhXhXhXhXhXxXxXxXxXcXbXnXnXNXCXCXDXAXSXGXJXJXJXJXJXJXJXJXHXHXGXGXGXGXGXGXJXGXAXDXnXbXxXrXxXxXxXxXxXbXNXJXGXGXSXSXGXGXGXGXJXJXJXJXJXJXJXJXJXJXJXJXJXJXJXJXJXJXJXJXJXJXJXJXJXJXJXJXJXJXJXJXJXJXJXJXJXGXGXGXGXGXGXGXGXGXGXGXGXGXGXGXGXGXGXGXJXJXJXJXGXGXGXGXAXSXJXJXJXSXJXJXDXNXbXxXhXhXhXhXrXzX7X#X$X*.@.#.$.$.$.%.#.#.#.#.%.#.$.$.$.$.$.$.$.$.$.$.+.+.+.+.$.$.$.$.$.$.$.$.$.$.$.$.$.$.$.$.+.$.+.$.#.%.%.T I I L H H H H J J J J J J J J J J J J J J J J P P V R OX@X7XzXzXzXzXzXzXzXzXxXzXzX7X7X7X7X7X7X7X@X@X@XsXzXcXsXoX_._.A.A.A A.A.'.'.'.iXpXpXpXpXpXpXpXpXpXpXpXpXpXiXpXpXiXiXiXiXiXpXpXpXiXpXpXpXpXpXiXiXiXiXiXiXeX'.'.'.D.'.'.'.",
"` ` ` ` ` ` ` ` ` ` ` ` ` ` ` ` ` ` ` ` ` ` ` ` ` ` ` ` ` ` ` ` ` ` ` ` ` ` ` ` ` ` ` ` ` ` ` ` ` ` ` ` ` ` ` ` ` ` ` ` ` ` ` ` ` ` ` ` ` ` ` ` ` ` ` ` ` ` ` ` ` ` ` ` ` ` ` ` ` ` ` ` ` ` ` ` ` ` ` ` ` ` ` ` ` ` ` ` ` ` ` ` ` ` ` _ _ _ ` ` ` ` ` ` o.` _ ` T I , > 9 8 t w w y u j b 7.g.f.f.6.y t r r t t w r r e e e g 2.s.n.a.h.m.m.c.c.r.r.b.a.a.3.<.i i r r r r r w w w w w r r r r e e 4.s.s.s.h.h.a.h.a.s.s.s.s.2.z t t 7 t t d z k x x x x l l k k k k x x k k k k k k k k k k z z f d t 7 t t d f f f h f f f f f g d d d d t 7 7 7 0 C sXAXDXFXFXSXGXJXJXGXGXJXPXJXGXDXNXbXcXhXrXrXhXhXhXhXhXhXxXcXcXbXnXNXCXDXDXGXGXGXGXGXGXGXGXJXJXJXJXJXGXGXGXGXGXGXGXGXGXGXGXGXGXGXDXnXxXrXxXrXxXxXhXcXCXGXJXGXGXGXGXGXGXGXJXJXJXJXJXJXJXJXJXJXJXJXJXJXJXJXJXJXJXJXJXJXJXJXJXJXJXJXJXJXJXJXJXGXGXGXGXGXGXGXGXGXJXJXGXGXJXJXGXJXJXGXGXGXGXGXGXGXGXGXGXGXGXGXGXGXFXJXJXJXFXAXAXAXDXDXnXcXhXhXjXtXxXzX@X+X$X*.@.%.$.$.%.%.%.%.%.#.#.#.#.$.$.$.$.%.%.$.$.$.$.#.#.$.$.$.$.$.$.$.$.$.$.$.$.$.$.$.$.+.+.$.$.%.%.Q Q I L F L J H J H J J J J J J J J J J J J J J J J P V R (.@X@XzXzX7X7X7X%XhXzXzXzXzX7X7XzXzXzXzXhXzXzXzXzXzXzXzXcXOX'._.A.A.A A.A.'.'.'.iXiXiXiXiXiXiXiXpXpXpXpXpXpXpXpXpXiXiXiXpXiXiXiXpXpXpXpXpXpXpXpXpXiXiXiXiXiXiXiXiXiXiXiX",
"` ` ` ` ` ` ` ` ` ` ` ` ` ` ` ` ` ` ` ` ` ` ` ` ` ` ` ` ` ` ` ` ` ` ` ` ` ` ` ` ` ` ` ` ` ` ` ` ` ` ` ` ` ` ` ` ` ` ` ` ` ` ` ` ` ` ` ` ` ` ` ` ` ` ` ` ` ` ` ` ` ` ` ` ` ` ` ` ` ` ` ` ` ` ` ` ` ` ` ` ` ` ` ` ` ` ` ` ` ` ` ` ` ] ` _ _ _ ` ` ` ` ` ` o.o.o.` ) T F q m 9 8 u u y u h v b p.g.g.b y t r t t t w r r e e e g 4.s.a.a.h.m.m.y.c.r.r.b.a.a.3.4.i i e r e e r w w w w w r r r r e e 4.s.s.s.h.h.a.h.h.s.s.s.s.2.z t t 7 7 t f z k b b x x l l k k k k x x k k k k k k k k k k z z f f t t t t d d f f g g f f f f g d d d d t 7 7 7 7 C sXAXDXSXFXSXGXGXGXGXJXJXJXGXDXnXbXcXxXxXxXxXxXxXxXhXxXcXcXnXnXCXDXAXSXGXGXGXGXGXGXGXGXGXGXJXJXJXJXJXJXJXJXJXJXJXKXJXJXJXJXGXGXSXCXbXxXzXxXhXhXhXxXbXDXGXGXGXGXGXGXGXGXGXGXJXJXJXJXJXJXJXJXJXJXJXJXJXJXJXJXJXJXJXJXJXJXJXJXJXJXJXJXJXJXJXJXGXGXGXGXGXGXGXGXGXJXJXGXGXJXGXGXGXGXGXGXGXGXJXJXGXGXGXGXGXGXGXGXGXFXJXJXFXFXFXFXSXAXDXNXbXxXhXrXjXxXzX@X#X+X*.*.%.%.$.$.%.%.%.#.#.#.#.#.$.$.$.$.%.%.$.$.$.$.$.#.$.$.$.$.$.$.$.$.$.$.$.$.$.$.$.$.+.+.$.%.%.%.Q Q T F F H H H J H J J J J J J J J J J J J J J J J P V R (.@X7XzXzX7X7X7X%XhXzXzXzXzX7XzXzXzXzXzXhXzXzXzXzXzXzXzXxXXXoXOX_.A.A.A.A.S.D.'.'.'.'.iXiXiXiXiXiXpXpXpXiXpXpXpXpXpXpXpXpXpXpXpXpXpXpXpXpXpXpXpXpXpXpXpXpXiXiXpXiXpXpXpX",
"` ` ` ` ` ` ` ` ` ` ` ` ` ` ` ` ` ` ` ` ` ` ` ` ` ` ` ` ` ` ` ` ` ` ` ` ` ` ` ` ` ` ` ` ` ` ` ` ` ` ` ` ` ` ` ` ` ` ` ` ` ` ` ` ` ` ` ` ` ` ` ` ` ` ` ` ` ` ` ` ` ` ` ` ` ` ` ` ` ` ` ` ` ` ` ` ` ` ` ` ` ` ` ` ` ` ` ` ` ` ` ` ] ] ` _ _ _ _ ` ` ` ` ` o.o.o.o.o.` T P q m 9 8 u w y u f v b p.g.b r t r r t t r r r e e e d z t.s.b.a.m.m.y.y.r.r.a.a.s.3.4.i i e r e e w w w w r r r r r r e e 2.s.s.s.h.h.a.h.h.s.s.s.s.2.z t t t t t f z k x b x l l l k k k k k x k k k k k k k k k k k z z f d t t t t d f f f f f f f f g d d d d t t 7 7 7 C sXAXDXSXFXJXGXSXGXJXJXGXAXCXnXcXhXrXhXxXxXxXxXcXcXcXbXnXnXDXDXAXGXGXJXJXJXGXGXGXGXJXJXJXJXGXGXGXJXJXJXJXJXJXJXJXJXJXJXJXJXJXJXDXnXcXzXzXzXhXrXrXcXNXGXJXSXGXGXGXGXGXGXGXGXJXJXJXJXJXJXJXJXJXJXJXJXJXJXJXJXJXJXJXJXJXJXJXJXJXJXJXJXJXJXJXJXGXGXGXGXGXGXGXGXSXAXSXGXGXSXAXAXAXAXGXGXGXJXJXJXGXGXGXGXGXGXGXGXJXJXJXJXFXFXFXFXJXSXAXDXNXbXxXrXxXrXrX%X@X#X+X$X*.%.#.+.%.%.#.#.#.%.#.#.%.%.$.$.$.$.$.$.$.$.$.$.$.$.$.$.$.$.$.$.$.$.$.$.$.$.$.$.+.O.$.$.#.%.Q Q T F F L H H J H J J J J J J J J J J J J J J J J K V R (.@X7XzXzX7X7X7X%XhXzXzXzXzX7XzXzXzXzX%X%XzXzXzXzXzXzXzXxXsXsXrXOX_.Y.A.l.A.A.S.D.D.'.'.'.eXeXiXiXiXiXiXiXiXiXpXpXpXpXiXiXaXaXpXpXpXpXpXpXpXpXpXpXpXpXpXpXpXpXpXpXpXpXpX",
"` ` ` ` ` ` ` ` ` ` ` ` ` ` ` ` ` ` ` ` ` ` ` ` ` ` ` ` ` ` ` ` ` ` ` ` ` ` ` ` ` ` ` ` ` ` ` ` ` ` ` ` ` ` ` ` ` ` ` ` ` ` ` ` ` ` ` ` ` ` ` ` ` ` ` ` ` ` ` ` ` ` ` ` ` ` ` ` ` ` ` ` ` ` ` ` ` ` ` ` ` ` ` ` ` ` ` ` ` ` ` ` ] ` ` _ _ _ _ ` ` ` ` ` ` o.o.o.o.@.] T K q m 9 8 u w u u f b b p.v r t e e t r r r r r e t r g 2.s.b.a.m.m.y.r.r.r.a.a.s.3.4.i i e r e e w w w r r r r e e r r g 2.s.s.s.a.h.a.h.h.s.s.s.s.2.z t t t t t f z x x x x l l l k k k k k x k k k k k k k k k k k k k z f d t t t t d d f f f f f f g d d d d t t 7 7 9 C tXAXDXSXFXJXGXSXGXJXGXDXnXbXcXhXrXrXrXrXrXxXcXbXbXnXNXDXAXAXAXGXGXGXJXGXGXGXGXJXJXJXJXJXJXGXGXGXGXJXJXJXJXJXJXJXJXJXJXJXJXJXGXCXbXxXzXzXrXxXrXhXbXDXJXJXGXJXGXGXGXGXGXGXGXJXJXJXJXJXJXJXJXJXJXJXJXJXJXJXJXJXJXJXJXJXJXJXJXJXJXJXJXJXJXJXJXJXJXGXGXGXGXGXGXGXAXAXGXGXDXCXCXDXAXGXJXJXJXJXJXGXGXGXGXGXGXGXGXJXJXGXSXFXFXFXFXJXSXGXSXAXNXbXjXzXrXrXhX%X7X#X+X$X*.%.#.%.%.%.#.%.%.#.#.#.%.$.$.$.$.$.$.$.$.$.$.$.$.$.$.$.$.$.$.$.$.$.$.$.$.$.$.+.O.$.$.#.#.@.Q T F F H H J J H J J J J J J J J J J J J J J J J K U R ~.@X7XzXzX7X7X7X%XhXhXzXzX7X7XzXzXzXhXhX%XzXzXzXzXzXzXzXcXxXsXsXsXXX{._.A.A.A.A.S.D.D.D.D.D.D.'.'.eXiXiXiXiXiXiXiXiXiXiXiXpXpXpXpXpXpXpXaXpXpXpXpXpXpXpXpXpXpXpXpXpXpXpX",
"` ` ` ` ` ` ` ` ` ` ` ` ` ` ` ` ` ` ` ` ` ` ` ` ` ` ` ` ` ` ` ` ` ` ` ` ` ` ` ` ` ` ` ` ` ` ` ` ` ` ` ` ` ` ` ` ` ` ` ` ` ` ` ` ` ` ` ` ` ` ` ` ` ` ` ` ` ` ` ` ` ` ` ` ` ` ` ` ` ` ` ` ` ` ` ` ` ` ` ` ` ` ` ` ` ` ` ` ` ` ` ` ` ` _ _ _ _ ` ` ` ` ` ` ` ` o.` o.o.] T Y P q > 9 8 u r y y f v 8.l u t r e e d h r r r e e e g 1.s.b.b.c.m.y.r.r.a.a.b.s.s.4.i i e e e e w w w w w r r r r r r z 8.s.s.s.s.h.a.h.h.s.s.s.s.2.k t t t t t f k x x b l l x x k k k k k k k k k k k k k k k k k k k k f d d t t t d d d d f f g g g d d d d t t 7 d 7 C sXAXSXJXFXJXGXGXGXGXDXnXcXhXhXxXhXhXrXXXXXcXbXnXNXCXDXGXJXSXGXGXJXJXJXJXJXGXGXGXJXJXJXJXJXJXJXJXJXGXGXGXGXJXJXJXJXJXJXJXJXJXAXnXcXzXzXzXrXhXhXcXNXAXGXGXJXJXJXJXGXGXGXGXGXJXJXJXJXJXJXJXJXJXJXJXJXJXJXJXJXJXJXJXJXJXJXJXJXJXJXJXJXJXJXJXJXJXJXJXGXGXGXGXGXJXSXSXJXGXDXNXnXCXDXGXJXJXJXJXJXGXGXGXGXGXGXGXGXJXGXGXGXFXHXJXJXFXSXSXJXGXDXnXbXhXhXhXhXhX%X7X#X#X+X=.*.%.%.%.%.%.%.%.%.%.%.%.#.#.#.$.$.$.$.$.$.$.$.$.$.$.$.$.$.$.$.$.$.$.$.$.$.O.O.$.$.$.%.%.@.T I F H L L J H J J J J J J J J J J J J J J J J J U U ~.@X7XzX7XzXzXzXhXhXhXzXzXzX7XzXzXhXhX%X%XhXzXzXzXzXzXcXcXzXsXsXxXsXsX{._.A.A.A.A.A.A.A.A.D.D.D.D.D.D.'.'.eXeXeXeXiXiXiXiXiXiXpXpXaXaXpXpXpXpXpXpXpXpXpXpXpXpXpXpXpXpXpX",
"` ` ` ` ` ` ` ` ` ` ` ` ` ` ` ` ` ` ` ` ` ` ` ` ` ` ` ` ` ` ` ` ` ` ` ` ` ` ` ` ` ` ` ` ` ` ` ` ` ` ` ` ` ` ` ` ` ` ` ` ` ` ` ` ` ` ` ` ` ` ` ` ` ` ` ` ` ` ` ` ` ` ` ` ` ` ` ` ` ` ` ` ` ` ` ` ` ` ` ` ` ` ` ` ` ` ` ` ` ` ` ` ` ` _ _ _ _ ` ` ` ` ` ` ` ` ` ` ` ` ` ` ] T P q 0 8 u r y y u f b h u t r r d z z h r r e t e e g t.m.b.y.c.y.r.r.a.a.b.s.s.4.i y e e e e w w w w w r r r r r d 4.s.f.s.s.s.h.h.h.s.s.s.s.s.2.z t t t t t f k b x x l l x x k k k k k k k k k k k k k k k k z k k k z f d d t t e d d d d f g g g d d d d d t 7 7 7 C fXIXSXJXSXSXGXGXAXDXnXcXhXhXhXxXxXhXhXxXcXnXNXDXDXAXAXSXGXSXGXGXJXJXJXGXGXGXGXGXGXGXGXGXGXJXJXJXGXGXGXGXGXGXGXGXGXGXGXGXGXGXDXbXxXhXzXzXrXhXcXnXDXGXGXGXJXJXJXJXGXGXGXGXGXJXJXJXJXJXJXJXJXJXJXJXJXJXJXJXJXJXJXJXJXJXJXJXJXJXJXJXJXJXJXJXJXJXJXJXJXGXGXGXGXJXGXGXJXGXDXnXbXnXCXAXGXJXGXGXJXGXGXGXGXGXGXGXGXGXGXHXGXJXJXJXJXFXSXSXGXJXHXCXnXcXxXhXhX&X%X%X7X@X#X#X+X*.*.@.@.%.%.%.%.#.#.#.#.#.#.$.$.$.$.$.$.$.$.$.$.$.$.$.$.$.$.$.$.$.$.$.$.O.O.$.$.$.%.%.@.T I F L L J J H J J J J J J J J J J J J J J J J J U U !. X7X7X7XzXzXzXhXhXhXzXzXzX7XzXzXhXhX%X%XzXzXzXzXzXzXcXcXzXsXsXsXxXsXrXOX_._.A.A.A.A.A.A.S.S.D.D.D.D.D.D.D.D.D.D.D.D.D.D.D.D.'.iXpXpXpXpXpXpXpXpXpXpXpXpXpXpXpXpXpXpXpX",
"` ` ` ` ` ` ` ` ` ` ` ` ` ` ` ` ` ` ` ` ` ` ` ` ` ` ` ` ` ` ` ` ` ` ` ` ` ` ` ` ` ` ` ` ` ` ` ` ` ` ` ` ` ` ` ` ` ` ` ` ` ` ` ` ` ` ` ` ` ` ` ` ` ` ` ` ` ` ` ` ` ` ` ` ` ` ` ` ` ` ` ` ` ` ` ` ` ` ` ` ` ` ` ` ` ` ` ` ` ` ` ` _ _ _ _ _ _ ` ` ` ` ` ` ` ` ` ` T ` ` ` &.] Y K q m t r y u u h j y u t r e g l 2.h r r e e e e g t.m.a.c.c.y.r.r.r.a.b.n.s.2.i i e e e r w w w w w r r r r r r 2.s.N.h.a.a.h.h.h.a.s.s.s.p.2.z t t t t t f k b b x x x x x k k k k k k k k k k k k k k k k k k z z z f f d d t t t d d d f h g g d d d d e t t 7 < C sXIXSXFXDXDXGXSXDXnXcXxXhXxXxXxXhXxXcXbXnXDXDXAXSXGXSXSXSXAXSXGXGXGXSXAXAXSXSXGXGXGXGXGXGXGXGXGXGXGXGXGXGXGXGXGXGXGXGXGXGXGXNXcXhXzXzXhXhXhXbXNXAXGXAXGXKXJXJXJXGXGXGXGXGXJXJXJXJXJXJXJXJXJXJXJXJXJXJXJXJXJXJXJXJXJXJXJXJXJXJXJXJXJXJXJXJXJXJXJXJXJXGXGXGXGXJXJXGXGXDXnXbXbXnXCXAXSXGXGXJXGXGXGXGXGXGXGXGXGXGXGXJXJXJXFXFXJXSXSXSXGXGXAXDXnXmXzXrXhXhXhXhXzX7X7X#X+X$X*.*.%.%.%.%.#.#.#.#.#.#.#.#.$.$.$.$.$.$.$.$.$.$.$.$.$.$.$.$.$.$.$.$.$.$.$.+.$.%.%.%.T I F H L J J H J J J J J J J J J J J J J J J J J U V !. X@X7X7X7X7XzX%XhXhXzXzX7X7X7XzXhX%X%X%XzXzXzXzXzXcXcXcXzXzXsXsXsXsXsXsXtXOX'.`.S.A.A.A.A.A.S.S.S.S.A.A.A.A.A.A.A.A.A.A.D.D.D.'.'.iXiXiXpXpXpXpXiXiXiXiXpXpXpXpXpXpXpX",
"` ` ` ` ` ` ` ` ` ` ` ` ` ` ` ` ` ` ` ` ` ` ` ` ` ` ` ` ` ` ` ` ` ` ` ` ` ` ` ` ` ` ` ` ` ` ` ` ` ` ` ` ` ` ` ` ` ` ` ` ` ` ` ` ` ` ` ` ` ` ` ` ` ` ` ` ` ` ` ` ` ` ` ` ` ` ` ` ` ` ` ` ` ` ` ` ` ` ` ` ` ` ` ` ` ` ` ` ` ` ` ` _ _ _ _ _ ` ` ` ` ` ` ` ` ` ` ` ` ` ` o.&.&.] Y V q 8 t r w u u f u u r r e h 2.6.z h r e e e e g t.n.a.r.y.y.r.y.r.a.a.n.s.2.i e e e r r w w w w w r r r r r d 2.s.N.h.s.s.h.h.s.s.s.s.s.s.2.h t t t t d f x b b b x x x x k k x k k k k k k k k k k k k k k k f f f f f f d d t t t d d f h h g d d d e e r t 7 < C fXPXGXGXDXAXAXAXNXbXhXhXxXxXxXhXhXcXbXNXDXAXAXGXGXGXGXGXJXGXGXJXGXGXGXAXAXAXAXSXSXSXGXGXGXGXGXGXGXGXJXJXJXJXJXJXJXJXJXJXJXSXnXcXhXzXhXhXhXxXbXCXAXSXSXJXJXJXJXJXGXGXGXGXGXJXJXJXJXJXJXJXJXJXJXJXJXJXJXJXJXJXJXJXJXJXJXJXJXJXJXJXJXJXJXJXJXJXJXJXJXJXGXGXGXGXJXJXGXGXAXnXbXhXbXnXDXAXAXGXJXGXGXGXGXGXGXGXGXHXGXGXJXJXJXJXFXPXJXSXAXAXGXHXGXNXbXxXrXhXjXjXhXhXrXXX@X#X#X+X$X*.%.%.%.#.%.#.#.#.+.#.#.$.#.%.%.$.$.$.$.$.$.$.$.$.$.$.$.$.$.$.$.$.$.$.$.$.%.%.%.T I F L L I J H J J J J J J J J J J J J J J J J U K V !. X7X7X7X7X7X7X%XhXzXzXzX7X7XzXzXhXhX%X%XzXzXzXzXzXzXcXcX7X@X@XXXXXsXxXvXsXsXoX'.'._.A.A.A.A.F.A.F.F.A.A.A.A.A.A.A.A.A.A.A.A.D.D.D.'.iXiXiXiXiXiXiXiXiXiXiXiXiXiXiXiXiX",
"` ` ` ` ` ` ` ` ` ` ` ` ` ` ` ` ` ` ` ` ` ` ` ` ` ` ` ` ` ` ` ` ` ` ` ` ` ` ` ` ` ` ` ` ` ` ` ` ` ` ` ` ` ` ` ` ` ` ` ` ` ` ` ` ` ` ` ` ` ` ` ` ` ` ` ` ` ` ` ` ` ` ` ` ` ` ` ` ` ` ` ` ` ` ` ` ` ` ` ` ` ` ` ` ` ` ` ` ` ` ` ` ` ` ` ` ` ` ` ` ` ` ` ` ` ` ` ` _ o.o.@.@.` ` ] Y K q 8 u r r r y u r r w i l 0.s.2.z d e e e e 2 4.s.M.m.r.r.h.h.h.h.a.a.s.3.i r e r r r r w t w w w w r e r d 6.s.s.d.s.s.s.s.s.s.p.7.2.z d e t t t t f k x b b b x x l l k k x x k k k k k k k k k k k z z z k k k k f d d d e e e d d d h h g d d d e e e t d < Z dXLXLXGXDXDXNXbXcXhXhXxXxXxXhXhXcXnXDXGXJXGXGXSXSXGXGXGXGXGXGXGXGXGXGXGXGXGXGXGXGXGXGXGXGXJXJXJXJXJXJXJXJXJXGXJXGXGXJXJXAXNXcXxXxXhXrXxXxXcXnXAXGXGXJXJXGXGXGXGXGXGXGXGXGXJXJXJXJXJXJXJXJXJXJXJXJXJXJXJXJXJXJXJXJXJXJXJXJXJXJXJXJXJXJXJXJXJXJXGXGXGXGXGXGXSXGXGXGXJXGXCXnXxXxXcXnXDXSXGXGXJXJXGXGXSXGXGXGXGXGXGXGXGXGXGXGXJXJXJXJXJXJXJXJXSXNXbXxXhXhXhXhXhXhX%X7X7X@X@X#X+X=.*.@.@.%.%.%.+.+.+.+.%.#.#.+.$.+.+.+.$.$.$.$.$.$.$.$.$.$.$.$.$.$.$.$.#.%.%.%.Q I F F H J H H H H H H H H H H H H H H H H H J J U V R }.@X7X7X7X7XhXhXzXzXzXzXzXzXzXzX%X%X%X%XzXzXzXzXzXzXzXzXzXzXhXrXzXzXzXzXxXsXsXrXoXOX_.`.S.A.A.A.A.A.A.Z.A.A.A.A.A.A.S.S.A.A.A.D.D.D.D.'.eXeXiXiXpXpXiXiXiXiXiXiXiXiXiX",
"` ` ` ` ` ` ` ` ` ` ` ` ` ` ` ` ` ` ` ` ` ` ` ` ` ` ` ` ` ` ` ` ` ` ` ` ` ` ` ` ` ` ` ` ` ` ` ` ` ` ` ` ` ` ` ` ` ` ` ` ` ` ` ` ` ` ` ` ` ` ` ` ` ` ` ` ` ` ` ` ` ` ` ` ` ` ` ` ` ` ` ` ` ` ` ` ` ` ` ` ` ` ` ` ` ` ` ` ` ` ` ` ` ` ` ` ` ` ` ` ` ` ` ` ` ` ` ` _ o.o.@.] ` _ ' T Y V q 8 t u u u 7 u r r y 4.0.s.t.4.d e e e e e g 2.s.a.a.a.h.h.h.h.a.s.s.3.d r e r r r r r r r w w w w r e r x 2.s.s.s.s.s.s.s.7.6.2.k g e t t t t t f k x b b x x x l l k k x k k k k k k k k k k k z z z z k k k f f f d d e e e d d d h d g d d e r r e t d < Z dXPXLXJXDXNXnXcXxXhXhXhXhXhXhXcXnXCXAXGXGXGXGXSXSXGXGXGXGXGXGXGXGXGXGXGXGXGXGXGXGXGXGXGXGXJXJXJXJXJXJXJXJXJXGXJXJXGXJXJXAXnXcXxXxXhXrXhXxXbXNXSXGXGXJXJXGXGXGXGXGXGXGXGXGXJXJXJXJXJXJXJXJXJXJXJXJXJXJXJXJXJXJXJXJXJXJXJXJXJXJXJXJXJXJXJXJXJXJXGXGXGXGXGXGXSXGXGXGXJXGXCXnXxXxXxXbXNXDXGXJXJXJXGXGXGXGXGXGXGXGXGXGXGXGXGXGXJXJXJXJXJXJXJXJXSXDXnXcXhXhXhXhXhXhXhXhXhXhXhX@X#X+X$X*.*.*.%.#.O.O.+.+.#.#.%.%.+.+.+.+.$.$.$.$.$.$.$.$.$.$.$.$.+.+.$.$.%.%.%.%.Q G F F H H H H H H H H H H H H J H H H H H J J J U V R }.@X7X7X7X7XhXhX%XzXzXzXzXzXzXzX%X%X%XzXhXzXzXzXzXzXzXcXzXhXhXhXrXrXhXzXrXrXrXXXXX XOX_.`.S.A.A.A.A.A.A.A.A.A.A.A.A.F.F.F.F.F.A.D.D.D.D.D.'.iXiXiXpXpXiXiXiXpXpXpXpXpX",
"` ` ` ` ` ` ` ` ` ` ` ` ` ` ` ` ` ` ` ` ` ` ` ` ` ` ` ` ` ` ` ` ` ` ` ` ` ` ` ` ` ` ` ` ` ` ` ` ` ` ` ` ` ` ` ` ` ` ` ` ` ` ` ` ` ` ` ` ` ` ` ` ` ` ` ` ` ` ` ` ` ` ` ` ` ` ` ` ` ` ` ` ` ` ` ` ` ` ` ` ` ` ` ` ` ` ` ` ` ` ` ` ` ` ` ` ` ` ` ` ` ` ` ` ` ` ` ` _ _ ` ` ` ` _ ' ] E Y V m 8 8 8 8 7 t r r y 4.0.s.s.3.g e t e d e g g 1.t.s.a.a.a.h.h.a.s.s.8.g r r r r h h h h r r r r w w r r h z 2.2.2.2.2.2.x x z g d e e t t t t r h k x b b x x x l l k k k k k k k k k k k k k k k k z z k f k z f f d d d d r r d d d d d d e t r r t t 7 7 l.fXAXJXGXDXnXvXhXhXhXhXhXhXhXcXnXDXGXJXGXSXGXGXGXGXGXGXGXGXGXGXGXGXGXGXGXGXGXGXGXGXGXGXGXGXJXJXJXJXJXJXJXJXJXGXJXJXGXJXJXDXbXxXhXxXhXrXhXcXnXDXGXJXGXJXJXGXGXGXGXGXGXGXGXGXJXJXJXJXJXJXJXJXJXJXJXJXJXJXJXJXJXJXJXJXJXJXJXJXJXJXJXJXJXJXJXJXJXJXGXGXGXGXGXGXGXGXGXGXGXGXDXnXcXxXhXcXnXCXAXJXJXJXGXGXGXGXGXGXGXGXGXGXGXGXGXGXJXJXJXJXJXJXJXJXJXSXDXbXcXhXhXhXhXhXhXhXhXhXhX7X@X#X#X+X$X*.%.#.#.$.$.+.+.#.%.%.+.+.+.+.+.+.O.+.$.+.$.+.+.+.+.+.+.+.$.$.%.%.%.%.Q G F F H H L H H H H H H H J J J H H H H H J J J U V R (.@X7X7X7X7XhXhXhXhXzXzXzXhXhXhX%X%XzXzXhXzXzXzXzXzXzXcXzXhX%XXXXXXXXXrXrXXXrXrXzXxXrXoX'._._.`.Y.S.A.A.A.A.A.A.A.A.Z.Z.Z.Z.Z.F.A.A.D.D.D.D.D.'.'.eXiXiXiXiXiXiXiXiXiX",
"` ` ` ` ` ` ` ` ` ` ` ` ` ` ` ` ` ` ` ` ` ` ` ` ` ` ` ` ` ` ` ` ` ` ` ` ` ` ` ` ` ` ` ` ` ` ` ` ` ` ` ` ` ` ` ` ` ` ` ` ` ` ` ` ` ` ` ` ` ` ` ` ` ` ` ` ` ` ` ` ` ` ` ` ` ` ` ` ` ` ` ` ` ` ` ` ` ` ` ` ` ` ` ` ` ` ` ` ` ` ` ` ` ` ` ` ` ` ` ` ` ` ` ` ` ` ` ` ` ` ` T ` _ _ ` ) ] E W V q 0 8 7 7 t r r y 4.7.s.s.s.2.g e e e e e e g 2.t.s.a.a.h.h.s.s.f.s.z e w w r h l l l h h p r r r r e e d h h h g h z h h d e e t t t t t t r h k x b x x x l l k k k k k k k k k k k k k k k k z z f z f z z f f f d d d d d r d d d d d t e r r t t 7 c A.fXNXAXHXCXbXxXhXxXxXhXhXxXcXbXCXGXJXJXGXGXGXGXGXGXGXGXGXGXGXGXGXGXGXGXGXGXGXGXGXGXGXGXGXGXJXJXJXJXJXJXJXJXGXGXJXJXJXJXGXDXcXxXhXxXhXrXxXcXNXAXJXJXJXJXJXGXGXGXGXGXGXGXGXGXJXJXJXJXJXJXJXJXJXJXJXJXJXJXJXJXJXJXJXJXJXJXJXJXJXJXJXJXJXJXJXJXJXJXGXGXGXGXGXGXGXGXGXGXGXGXDXCXbXxXrXhXbXnXDXJXGXGXGXGXGXGXGXGXGXGXGXGXGXGXGXGXJXJXJXJXJXJXJXJXJXJXSXCXbXxXhXhXhXhXhXhXhXhXhXhX@X@X#X#X+X$X*.*.%.#.+.$.#.#.#.#.+.+.$.+.+.+.+.+.+.+.+.+.O.+.+.+.+.+.$.$.%.%.%.%.Q T F L H H H H H H H H H H H J J J H H H H H J J K V R (.@X7X7X7X7X%XhXhXhXzXzX%XhXhX%X%X%XzXzXzXzXzXzXzXzXzXzXzXzXhXXXXXXXXXXXXXrXrXsXcXcXzXXX{._._._._._._.Y.S.S.S.S.A.A.A.A.A.Z.Z.Z.A.A.A.A.D.D.D.D.D.D.D.D.D.D.D.D.D.'.'.",
"` ` ` ` ` ` ` ` ` ` ` ` ` ` ` ` ` ` ` ` ` ` ` ` ` ` ` ` ` ` ` ` ` ` ` ` ` ` ` ` ` ` ` ` ` ` ` ` ` ` ` ` ` ` ` ` ` ` ` ` ` ` ` ` ` ` ` ` ` ` ` ` ` ` ` ` ` ` ` ` ` ` ` ` ` ` ` ` ` ` ` ` ` ` ` ` ` ` ` ` ` ` ` ` ` ` ` ` ` ` ` ` ` ` ` ` ` ` ` ` ` ` ` ` ` ` ` ` ` _ _ T T _ _ _ T ] ] E Y V q m 9 7 t r r w z 2.s.s.s.s.4.g e e e e e g g 3.s.s.a.s.M.h.s.f.s.z e t w r j 6.6.6.l l j h h p r r e e d d r r r d r r h r e e e e t t t d h l x b x x x l l l k k k k k k k k k k k k k k z z f f z f z z z f f f d d d d r e r r d e t t r r t 7 7 Z `.fXbXNXDXnXcXxXhXxXxXhXxXbXnXCXAXGXGXGXGXJXGXGXGXGXGXGXGXGXGXGXGXGXGXGXGXJXJXJXJXJXJXJXJXJXJXJXJXJXJXJXJXJXJXGXJXJXJXJXAXNXxXhXhXhXhXhXxXbXDXSXJXJXJXJXJXGXGXGXGXGXGXGXGXGXJXJXJXJXJXJXJXJXJXJXJXJXJXJXJXJXJXJXJXJXJXJXJXJXJXJXJXJXJXJXJXJXJXJXGXGXGXGXGXGXGXGXGXGXGXGXAXDXnXcXXXrXxXbXNXAXSXSXGXGXGXGXGXGXGXGXGXGXGXGXGXGXJXJXJXJXJXJXJXJXSXJXJXSXnXcXhXXXhXhXhXhXhXhXhXhXrXrX@X@X#X#X+X=.*.*.%.#.%.$.$.+.$.#.#.$.$.$.+.+.$.$.$.$.$.$.$.$.$.$.$.$.$.%.#.%.%.T F F L L H H H H J J H H H H H H H H H H H J J K V R ~.@X7X7X7X7X%X%X%XhXzXzX%X%X%X%XhXhXhXzXzXzXzXzXzXzXzXzXxXzXhXXXXXXXXXXXXXrXrXrXzXzX|.{._._._._._._._._._._._.`.`.`.`.`.D.S.A.A.A.A.Z.F.F.A.A.A.A.A.S.D.D.D.D.D.D.D.D.",
"` ` ` ` ` ` ` ` ` ` ` ` ` ` ` ` ` ` ` ` ` ` ` ` ` ` ` ` ` ` ` ` ` ` ` ` ` ` ` ` ` ` ` ` ` ` ` ` ` ` ` ` ` ` ` ` ` ` ` ` ` ` ` ` ` ` ` ` ` ` ` ` ` ` ` ` ` ` ` ` ` ` ` ` ` ` ` ` ` ` ` ` ` ` ` ` ` ` ` ` ` ` ` ` ` ` ` ` ` ` ` ` ` ` ` ` ` ` ` ` ` ` ` ` ` ` ` ` ` ` _ _ _ _ _ _ ) ) ] ] E Y V q 0 8 t r w w h 4.s.s.s.s.8.4.d e e e e e g g 3.s.s.a.M.s.d.f.s.z r t t r j 6.6.6.6.6.6.l l l z l h h h h h h h h h z k z g r e e t t t d z l b b x x l l l l k k k k k k k k k k k k k k z z f f f f f z f f f f f f d d r e r r d e t t e e t 2 d l.'.sXxXnXnXbXxXhXhXhXhXhXcXnXAXSXGXGXSXSXGXJXGXGXGXGXGXGXGXGXGXGXGXGXGXGXJXJXJXJXJXJXJXJXJXJXJXJXJXJXJXJXJXJXJXGXJXJXGXGXCXbXhXhXhXhXhXhXcXnXAXGXJXJXJXGXGXJXJXJXJXJXJXJXJXJXJXJXJXJXJXJXJXJXJXJXJXJXJXJXJXJXJXJXJXJXJXJXJXJXJXJXJXJXJXJXJXJXJXJXGXGXGXGXGXGXGXJXJXGXGXGXGXAXCXbXrXrXhXxXbXCXAXAXGXGXGXGXGXGXGXGXGXGXGXGXGXGXJXJXJXJXJXJXJXJXSXJXJXJXDXnXcXhXhXhXhXhXhXhXhXhXjXrXXX@X7X8X#X+X$X*.*.%.#.%.$.$.#.%.%.#.#.$.$.+.$.+.$.$.$.$.$.$.$.$.$.$.$.$.%.%.%.T F F L H H H H H J J H H H H J H H H H H H J J J K U ~.@X7X7X7X7X%X%X%X%XzXzX%X%X%X%XhXhXhXhXzXzXzXzXzXzXzXzXxXzXhXXXXXXXXXXXrXrXrXXX|.oX{._.Q.Q.Q.Q.W._._._._._._._._._._._.'.D.A.A.A.A.A.A.Z.A.Z.Z.Z.A.A.A.A.A.A.A.A.A.A.",
"` ` ` ` ` ` ` ` ` ` ` ` ` ` ` ` ` ` ` ` ` ` ` ` ` ` ` ` ` ` ` ` ` ` ` ` ` ` ` ` ` ` ` ` ` ` ` ` ` ` ` ` ` ` ` ` ` ` ` ` ` ` ` ` ` ` ` ` ` ` ` ` ` ` ` ` ` ` ` ` ` ` ` ` ` ` ` ` ` ` ` ` ` ` ` ` ` ` ` ` ` ` ` ` ` ` ` ` ` ` ` ` ` ` ` ` ` ` ` ` ` ` ` ` ` ` ` ` ` ` _ _ _ _ ` ` ` ` ` ] ] T I V 9 8 t r w w p z s.s.s.s.s.2.g e e e e e e g g 2.s.s.f.g.d.g.s.4.r t s r h 5.6.6.8.8.8.8.6.8.8.7.8.6.6.6.6.6.8.8.8.7.7.6.z r r t t t e f z l b b x x l l l k k k k k k k k k k z k k k k z z z f f f z z f f f f h f h d e e e e r e s t r e t < d S.fXsXsXbXvXcXhXhXhXhXxXbXnXCXGXGXGXGXGXGXGXGXGXGXGXGXGXGXGXGXGXGXGXGXGXJXJXJXJXJXJXJXJXJXJXJXJXJXJXJXJXJXJXJXJXGXGXJXGXAXNXcXhXhXhXhXhXhXbXNXSXGXJXJXGXGXGXJXJXJXJXJXJXJXJXJXJXJXJXJXJXJXJXJXJXJXJXJXJXJXJXJXJXJXJXJXJXJXJXJXJXJXJXJXJXJXJXJXJXJXGXGXGXGXGXGXGXJXJXGXGXJXJXGXDXbXhXhXhXhXcXnXDXAXSXGXJXJXGXGXGXGXGXGXGXGXGXGXJXJXJXJXJXJXJXJXJXJXJXJXJXDXbXcXhXhXhXhXhXhXhXhXxXhXrXrXzX7X7X#X#X+X=.*.*.%.#.$.%.%.%.#.#.$.$.$.$.$.$.$.$.$.#.$.$.$.$.$.$.$.#.%.%.T F L H H H H H H H H H H H H J J H H H H H J J J U U ~.@X7X7X7X%X%X%X%X%X7XzXzXzX%X%X%XhX%X%XzXzXzXzXzXzXzXzXxXzXhXhXXXXXrXhXXXXX.XOX{.{.).E.Q.Q.Q.W.Q.W.)._.).)._._._._._._.'.'.S.S.A.A.A.A.A.A.A.A.Z.Z.A.A.A.A.A.A.A.A.A.",
"` ` ` ` ` ` ` ` ` ` ` ` ` ` ` ` ` ` ` ` ` ` ` ` ` ` ` ` ` ` ` ` ` ` ` ` ` ` ` ` ` ` ` ` ` ` ` ` ` ` ` ` ` ` ` ` ` ` ` ` ` ` ` ` ` ` ` ` ` ` ` ` ` ` ` ` ` ` ` ` ` ` ` ` ` ` ` ` ` ` ` ` ` ` ` ` ` ` ` ` ` ` ` ` ` ` ` ` ` ` ` ` ` ` ` ` ` ` ` ` ` ` ` ` ` ` ` ` ` ` ` _ _ ` ` ` ` ` _ ` ] ] T U 9 8 7 u w w p z s.s.s.a.s.s.z e e e e e t e g z s.s.f.d.d.g.d.4.r t s r h l 6.6.8.8.8.7.7.d.d.d.d.d.d.d.d.d.g.g.f.f.g.7.l h e t t t e f z x b b l x l l k k k k k k k k k k z z k k k z z z z f f f f z z f z z h h h d e e e e r t t t r e t < d '.dXsXsXcXxXhXhXhXhXhXcXnXDXAXSXGXGXJXJXGXSXAXGXGXGXGXGXGXGXGXGXGXGXGXJXJXJXJXJXJXJXJXJXJXJXJXJXJXJXJXJXJXJXJXJXGXGXGXSXDXnXcXhXhXhXhXhXhXbXDXGXGXGXJXGXGXGXJXJXJXJXJXJXJXJXJXJXJXJXJXJXJXJXJXJXJXJXJXJXJXJXJXJXJXJXJXJXJXJXJXJXJXJXJXJXJXJXJXJXJXGXGXGXGXGXGXGXJXJXGXGXJXJXJXSXnXxXhXhXrXxXbXDXAXSXGXJXJXGXGXGXGXGXGXGXGXGXGXJXJXJXJXJXJXJXJXPXJXSXJXKXSXnXbXhXhXhXhXhXhXhXhXxXhXhXrXrXXXXX@X@X#X+X$X*.*.@.#.%.%.%.%.%.#.$.$.$.$.$.$.$.$.#.#.$.$.$.$.$.$.$.%.*.T I L H H H H H H H H H H H H H J H H H H H J J J U U !.@X7X7X7X%X%X%X%X%X7XhXzXzXhX%X%X%X%X%XzXzXzXzXzXzXzXzXzXzXhXhXhXhXhXhX.X.XoX{.].W.Q.Q.Q.Q.Q.W.W.Q.Q.Q.).).).)._.)._._._.`.`.`.S.S.A.A.A.A.A.A.A.A.A.A.A.A.A.A.A.A.A.",
"` ` ` ` ` ` ` ` ` ` ` ` ` ` ` ` ` ` ` ` ` ` ` ` ` ` ` ` ` ` ` ` ` ` ` ` ` ` ` ` ` ` ` ` ` ` ` ` ` ` ` ` ` ` ` ` ` ` ` ` ` ` ` ` ` ` ` ` ` ` ` ` ` ` ` ` ` ` ` ` ` ` ` ` ` ` ` ` ` ` ` ` ` ` ` ` ` ` ` ` ` ` ` ` ` ` ` ` ` ` ` ` ` ` ` ` ` ` ` ` ` ` ` ` ` ` ` ` ` ` ` ` ` ` ` ` ` ` ` ` ` @.] Y q 8 7 r r w i 2.s.s.a.a.s.s.3.4.e e e e e e e d z 8.d.d.d.d.7.2.r r r r h l 6.8.8.7.d.d.d.d.d.d.d.d.d.g.f.f.f.f.f.f.f.8.j r w r t t d z x b b x x x l l k k k k k k k k k k z z k k z z z z f f f f f f f f z z h f d e e e r h e e t t t t t < c '.vXxXrXrXhXrXhXhXhXxXbXCXAXAXGXGXGXGXGXGXGXGXJXJXJXJXJXJXJXJXJXJXJXJXJXJXJXJXJXJXJXJXJXJXJXJXJXJXJXJXJXJXJXJXJXGXAXGXGXCXbXxXrXhXhXrXhXbXNXDXJXJXJXJXJXJXJXJXJXJXJXJXJXJXJXJXJXJXJXJXJXJXJXJXJXJXJXJXJXJXJXJXJXJXJXJXJXJXJXJXJXJXJXJXJXJXJXJXJXJXJXJXJXJXJXJXGXGXGXGXGXGXGXGXGXNXbXxXhXrXhXcXbXCXJXGXSXJXJXGXJXJXJXJXJXJXJXJXJXJXJXJXJXJXJXJXSXSXGXJXJXJXAXDXcXcXxXxXxXhXhX%X%X.XXXxXxXjXhXzXXX@X#X#X+X*.*.@.%.%.#.#.%.$.$.$.$.$.$.$.#.#.$.$.$.$.$.$.$.#.%.%.%.T I F L L H H H H H J H H H H H H H J J H H J J U U V R oX@X7X7X%X%X%X%X%X%X%XzXhX%X%X%X%X%XhXhXzXzXzXzXzXzXzXzXzXhX%XhX%X%X.XOX{.].W.W.W.W.W.W.W.W.W.W.W.W.W.).).).).).)._._._._._._.`.S.S.S.A.A.A.A.A.A.A.A.A.A.A.A.A.A.A.",
"` ` ` ` ` ` ` ` ` ` ` ` ` ` ` ` ` ` ` ` ` ` ` ` ` ` ` ` ` ` ` ` ` ` ` ` ` ` ` ` ` ` ` ` ` ` ` ` ` ` ` ` ` ` ` ` ` ` ` ` ` ` ` ` ` ` ` ` ` ` ` ` ` ` ` ` ` ` ` ` ` ` ` ` ` ` ` ` ` ` ` ` ` ` ` ` ` ` ` ` ` ` ` ` ` ` ` ` ` ` ` ` ` ` ` ` ` ` ` ` ` ` ` ` ` ` ` ` ` ` ` ` ` ` ] ] ] ` ` ` ` @.] Y q 8 7 u r w i 2.s.s.a.a.a.s.s.2.g d e e e e e e g x 8.7.d.g.s.2.r r r r h l 6.6.8.8.7.d.d.d.d.0.d.d.d.g.f.f.f.f.f.f.d.8.h r w r t t f z x b b x x x l l k k k k k k k k k k z z k k z z z z f f f f f f f f z f h f d d e e r r w w t t u t t < C '.vXxXrXrXrX.XhXhXxXcXnXDXAXAXGXGXGXGXGXGXGXGXJXJXJXJXJXJXJXJXJXJXJXJXJXJXJXJXJXJXJXJXJXJXJXJXJXJXJXJXJXJXJXJXJXGXSXGXGXCXbXhXrXhXhXrXhXbXNXAXJXJXJXJXJXJXJXJXJXJXJXJXJXJXJXJXJXJXJXJXJXJXJXJXJXJXJXJXJXJXJXJXJXJXJXJXJXJXJXJXJXJXJXJXJXJXJXJXJXJXJXJXJXJXJXJXGXGXGXGXGXGXGXGXGXCXbXxXhXhXhXxXcXNXSXGXGXJXJXGXJXJXJXJXJXJXJXJXJXJXJXJXJXJXJXJXGXGXGXJXJXJXSXDXbXcXhXhXxXhXhX%X%X%XhXxXxXrXhXxXXX7X7X@X#X+X$X*.*.%.%.%.%.$.$.$.$.$.#.#.#.#.$.$.$.$.$.$.$.#.#.%.%.T I F L L H H H H H J H H H H H H H H J H H J J J U V R OX@X@X%X%X%X%X%X%X%X%XhXhX%X%X%X%XhXhXhXhXhXhXhXhXhXhXhX%X%X%X%X%X.XOX{.].].W.Q.W.W.W.W.W.W.W.W.W.W.W.).).).).).).)._._._._._._._.`._.A.A.A.A.S.S.A.A.A.A.A.A.A.A.A.",
"` ` ` ` ` ` ` ` ` ` ` ` ` ` ` ` ` ` ` ` ` ` ` ` ` ` ` ` ` ` ` ` ` ` ` ` ` ` ` ` ` ` ` ` ` ` ` ` ` ` ` ` ` ` ` ` ` ` ` ` ` ` ` ` ` ` ` ` ` ` ` ` ` ` ` ` ` ` ` ` ` ` ` ` ` ` ` ` ` ` ` ` ` ` ` ` ` ` ` ` ` ` ` ` ` ` ` ` ` ` ` ` ` ` ` ` ` ` ` ` ` ` ` ` ` ` ` ` ` ` ` ` ` ` ] ] ] ] ` ` ` @.] Y q 8 7 w w w i 2.s.s.a.a.a.s.s.8.2.z d e t e e e d g l 6.d.g.p.6.r r r r h l 6.6.8.7.7.d.d.d.d.d.d.d.g.f.f.f.f.f.f.f.p.6.h r r r t e f z b b b x x x l l k k k k k k k k k k z z k k z z z z f f f f f f f f f f h f h d e e e e w w t t r u t < Z '.dXsXrXrXrXrXhXhXcXnXCXDXAXSXGXGXGXGXGXGXGXGXJXJXJXJXJXJXJXJXJXJXJXJXJXJXJXJXJXJXJXJXJXJXJXJXJXJXJXJXJXJXJXJXJXGXGXJXSXNXcXhXhXhXhXrXxXbXCXSXJXJXJXJXJXJXJXJXJXJXJXJXJXJXJXJXJXJXJXJXJXJXJXJXJXJXJXJXJXJXJXJXJXJXJXJXJXJXJXJXJXJXJXJXJXJXJXJXJXJXJXJXJXJXJXJXJXJXJXJXJXJXJXJXGXDXnXcXhXhXhXhXxXbXDXGXJXJXGXGXJXJXJXJXJXJXJXJXJXJXJXJXJXJXJXJXJXJXGXGXSXGXSXSXDXbXhXhXxXhXXXhX%XhXxXcXxXrXzXxXhX%X7X7X7X#X#X$X*.*.%.%.%.$.$.$.$.$.$.$.$.#.$.$.$.$.$.$.$.#.#.%.%.Q I F H L J J H H J J H H H H H H H H H H H J J J U U R OX@X@X%X%X%X%X%X%X%X%XhXhXhX%XhXhXhXhX%X%X%X%X%X%X%X%X%X%X%X%XXX|.}.{.^.^.Q.E.Q.Q.Q.Q.W.W.W.W.W.W.W.W.).).).).).).)._._._._._._._._._._.`.`._._._._._.`.`.`.`.`.`.`.",
"` ` ` ` ` ` ` ` ` ` ` ` ` ` ` ` ` ` ` ` ` ` ` ` ` ` ` ` ` ` ` ` ` ` ` ` ` ` ` ` ` ` ` ` ` ` ` ` ` ` ` ` ` ` ` ` ` ` ` ` ` ` ` ` ` ` ` ` ` ` ` ` ` ` ` ` ` ` ` ` ` ` ` ` ` ` ` ` ` ` ` ` ` ` ` ` ` ` ` ` ` ` ` ` ` ` ` ` ` ` ` ` ` ` ` ` ` ` ` ` ` ` ` ` ` ` ` ` ` ` ` ` ` ` ` ] ] ` ` ` ` ] ] Y n 8 7 t w w p 2.s.s.a.a.a.a.s.s.s.2.g d e 2 e e e h h l 7.d.7.6.w t t r h l 6.8.7.7.0.d.d.d.d.d.d.g.f.f.f.f.f.f.f.g.8.l r r r r r d h k x b b x x x l l k k k k k k k k k k z k k k z z z z f f f f f f f f f f f d d e e t e e y w t w r u t 7 Z '.tXrXrXrXhXhXhXxXbXCXAXAXAXGXGXGXGXGXGXGXGXGXJXJXJXJXJXJXJXJXJXJXJXJXJXJXJXJXJXJXJXJXJXJXJXJXJXJXJXJXJXJXJXJXGXGXGXGXDXnXcXhXhXhXhXrXxXnXDXGXJXJXJXJXJXJXJXJXJXJXJXJXJXJXJXJXJXJXJXJXJXJXJXJXJXJXJXJXJXJXJXJXJXJXJXJXJXJXJXJXJXJXJXJXJXJXJXJXJXJXJXJXJXJXJXJXJXJXJXJXJXJXJXJXGXSXCXbXhXhXhXhXhXcXnXGXPXJXGXGXJXJXJXJXJXJXJXJXJXJXJXJXJXJXJXJXJXJXSXSXSXSXGXGXSXnXcXhXhXhXhXhXhXhXxXcXcXcXzXzXxXzX%XXX@X@X@X#X$X*.*.*.%.%.$.%.#.#.#.#.#.$.$.$.$.$.$.$.$.#.#.%.%.Q I F L L J H H H H H H H J J H H H H H H H J J J U U R (.@X@X%X%X%X%X%X%X%X%XhXhX%X%XhXhXhXhX%X%X%X%X%X%X%X%X%X%X%X.X|.}.{.^.Q.Q.E.E.Q.Q.E.E.W.W.W.W.W.W.W.W.).).).).).).).)._._._._._._._._._._._._._._._._._._._._._._._.",
"` ` ` ` ` ` ` ` ` ` ` ` ` ` ` ` ` ` ` ` ` ` ` ` ` ` ` ` ` ` ` ` ` ` ` ` ` ` ` ` ` ` ` ` ` ` ` ` ` ` ` ` ` ` ` ` ` ` ` ` ` ` ` ` ` ` ` ` ` ` ` ` ` ` ` ` ` ` ` ` ` ` ` ` ` ` ` ` ` ` ` ` ` ` ` ` ` ` ` ` ` ` ` ` ` ` ` ` ` ` ` ` ` ` ` ` ` ` ` ` ` ` ` ` ` ` ` ` ` ` ` _ ` ` ` ` ` ` ` ` ` ] ] E n u 8 u w w p 2.s.a.y.r.a.s.s.s.s.s.2.g d e e e e r h j l 2.l z w t s w h l 8.0.0.d.d.d.d.d.g.g.g.g.f.f.f.f.f.f.f.d.6.h r r r r e d z l b b b x x l l l k k k k k k k k k k z z k k k k z z z f f f f f f f f f d d e t t t r p h r w w y t t 7 k.'.tXtXrXXXhXxXxXcXnXAXJXGXSXGXJXJXJXJXJXJXJXJXJXJXJXJXJXJXJXJXJXJXJXJXJXJXJXJXJXJXJXJXJXJXJXJXJXJXJXJXJXJXJXJXGXGXGXGXCXbXxXhXxXhXhXhXcXnXAXJXJXJXJXJXJXJXJXJXJXJXJXJXJXJXJXJXJXJXJXJXJXJXJXJXJXJXJXJXJXJXJXJXJXJXJXJXJXJXJXJXJXJXJXJXJXJXJXJXJXJXJXJXJXJXJXJXJXJXJXJXJXJXJXJXGXJXDXnXxXhXhXrXrXxXbXDXJXJXGXGXJXJXJXJXJXJXJXJXJXJXJXJXJXJXJXJXJXJXGXSXSXSXJXJXSXDXbXxXhXhXhXhXxXhXhXcXbXbXcXzXzXzXrXXXXXXXrX@X#X+X$X*.*.*.%.%.%.#.%.#.#.#.#.#.$.$.$.$.$.+.#.#.%.Q T F H H H H H H H H H H H J H H H H H H H J J J U U R (.@XXXXX%X%X%X%X%X%X%XhXhX%X%X%X%X%X%X%X%X%X%X%X%XzXzXzX%X|.OX{.].^.W.Q.W.Q.Q.Q.Q.E.E.W.W.W.W.W.W.W.W.W.W.).).).).).)._._._._._._._._._._._._._._._._._._._._._._._.",
"` ` ` ` ` ` ` ` ` ` ` ` ` ` ` ` ` ` ` ` ` ` ` ` ` ` ` ` ` ` ` ` ` ` ` ` ` ` ` ` ` ` ` ` ` ` ` ` ` ` ` ` ` ` ` ` ` ` ` ` ` ` ` ` ` ` ` ` ` ` ` ` ` ` ` ` ` ` ` ` ` ` ` ` ` ` ` ` ` ` ` ` ` ` ` ` ` ` ` ` ` ` ` ` ` ` ` ` ` ` ` ` ` ` ` ` ` ` ` ` ` ` ` ` ` ` ` ` _ _ _ _ _ ` ` ` ` ` _ ` ` ] ] E n 8 7 u y w p 2.s.y.y.y.a.s.n.s.h.s.t.2.g d d r e e r r r r r r r t s t p l 8.d.d.d.d.d.g.g.f.f.f.f.f.f.f.f.f.f.f.7.l h e r r r r f z x b b b b x x l l k k k k k k k k k k z z k k k k z z f f f f f f d d d d d e e t e d z l 5.a w y y t t d Z.eXtXtXrX.X.XhXcXbXNXSXJXGXGXGXJXJXJXJXJXJXJXJXJXJXJXJXJXJXJXJXJXJXJXJXJXJXJXJXJXJXJXJXJXJXJXJXJXJXJXJXJXJXJXJXGXGXJXAXNXbXxXhXxXhXhXhXbXCXGXJXJXJXJXJXJXJXJXJXJXJXJXJXJXJXJXJXJXJXJXJXJXJXJXJXJXJXJXJXJXJXJXJXJXJXJXJXJXJXJXJXJXJXJXJXJXJXJXJXJXJXJXJXJXJXJXJXJXJXJXJXJXJXJXJXGXJXGXNXcXhXrXhXrXhXcXNXSXGXGXGXJXJXJXJXJXJXJXJXJXJXJXJXJXJXJXJXJXJXJXSXSXSXJXJXSXSXDXbXxXxXxXhXxXhX%XxXbXnXbXcXxXxXhXhXrXrXrXXX7X#X#X+X$X*.*.%.%.%.%.#.#.#.#.+.$.$.$.$.$.+.#.#.%.@.T I H H H H H H J J H H H H J H H H H H H J J J U U W ~.@XXXXX%X%X%X%X%X%X%XhX%X%X%X%X%X%X%X%X%X%X%X%X%X%X%X%X|.}.{.].^.^.W.W.W.^.^.W.Q.W.W.W.W.W.W.W.W.W.Q.W.W.W.W.).W.).).Q._._._._._._._._._._._._._._.W.W.Q.W.W.W.Q.W.",
"` ` ` ` ` ` ` ` ` ` ` ` ` ` ` ` ` ` ` ` ` ` ` ` ` ` ` ` ` ` ` ` ` ` ` ` ` ` ` ` ` ` ` ` ` ` ` ` ` ` ` ` ` ` ` ` ` ` ` ` ` ` ` ` ` ` ` ` ` ` ` ` ` ` ` ` ` ` ` ` ` ` ` ` ` ` ` ` ` ` ` ` ` ` ` ` ` ` ` ` ` ` ` ` ` ` ` ` ` ` ` ` ` ` ` ` ` ` ` ` ` ` ` ` ` ` ` ` _ _ _ _ _ _ _ _ _ _ _ ` ` ] ] E n 8 7 u y w p 2.t.y.m.h.a.a.s.a.h.s.s.i.2.z g r e e e e e t t t r t t w h l 8.7.d.d.d.d.d.g.g.f.f.f.f.f.f.f.f.f.f.7.z r r r r t r h k x b b b b l l l l k k k k k k k k k k z z k k k k f f f f f f f d d d t t e e e d h k 6.8.7.a w y y s 7 d S.yXdXrXrX.X.XhXcXnXDXAXGXGXGXSXJXJXJXJXJXJXJXJXJXJXJXJXJXJXJXJXJXJXJXJXJXJXJXJXJXJXJXJXJXJXJXJXJXJXJXJXJXJXJXJXJXJXJXDXnXcXhXxXhXhXhXxXbXDXGXJXJXJXJXJXJXJXJXJXJXJXJXJXJXJXJXJXJXJXJXJXJXJXJXJXJXJXJXJXJXJXJXJXJXJXJXJXJXJXJXJXJXJXJXJXJXJXJXJXJXJXJXJXJXJXJXJXJXJXJXJXJXJXJXJXGXJXGXCXbXrXrXxXhXhXxXnXDXGXJXGXJXJXJXJXJXJXJXJXJXJXJXJXJXJXJXJXGXJXJXJXSXSXJXJXJXJXSXnXbXcXxXrXhXhXhXhXcXnXNXNXbXvXxXhXhXhXrXXXzX7X@X#X#X+X$X*.*.%.%.%.%.#.#.#.$.$.$.$.#.+.+.#.%.@.T I H H H H H H J H H H H H J J H H H H H J J K U U U ~.@XXXXX%X%X%X%X%X%X%XhXhX%X%X%X%X%X%XhXhX%X%X%XXXXXXXoX}.{.^.W.W.W.W.W.^.^.W.Q.Q.^.^.W.W.W.W.W.W.W.W.W.W.W.W.W.W.W.W.W.Q._._._.)._._.]._._._._._._._.E.Q.W.W.W.W.W.",
"` ` ` ` ` ` ` ` ` ` ` ` ` ` ` ` ` ` ` ` ` ` ` ` ` ` ` ` ` ` ` ` ` ` ` ` ` ` ` ` ` ` ` ` ` ` ` ` ` ` ` ` ` ` ` ` ` ` ` ` ` ` ` ` ` ` ` ` ` ` ` ` ` ` ` ` ` ` ` ` ` ` ` ` ` ` ` ` ` ` ` ` ` ` ` ` ` ` ` ` ` ` ` ` ` ` ` ` ` ` ` ` ` ` ` ` ` ` ` ` ` ` ` ` ` ` ` ` _ _ _ _ _ _ _ _ _ ` ) ` ` ` ] E q 8 8 y y r r 2.s.a.m.c.a.a.a.a.a.a.s.s.i.2.g e e e e e e e w r r r t r h l 6.8.d.d.d.d.d.d.g.g.f.f.f.f.f.f.f.f.g.8.h r r r r t r h k x x x b b l l l l k k k k k k k k k k z z k k k k f f f f f f f d d t t t t e d g z 6.7.d.0.l r y y 7 7 d S.yXdXjXzXXXrXxXbXnXDXAXAXGXGXSXJXJXJXJXJXJXJXJXJXJXJXJXJXJXJXJXJXJXJXJXJXJXJXJXJXJXJXJXJXJXJXJXJXJXJXJXJXJXJXJXJXJXGXDXnXxXhXxXhXhXhXcXnXDXGXJXJXJXJXJXJXJXJXJXJXJXJXJXJXJXJXJXJXJXJXJXJXJXJXJXJXJXJXJXJXJXJXJXJXJXJXJXJXJXJXJXJXJXJXJXJXJXJXJXJXJXJXJXJXJXJXJXJXJXJXJXJXJXJXJXGXJXJXDXbXrXrXxXhXhXhXbXCXGXJXJXJXJXJXJXJXJXJXJXJXJXJXJXJXJXJXJXSXJXJXJXJXSXJXJXJXJXSXDXnXcXhXrX%XhXhXhXhXbXCXHXNXbXxXhXhXxXzXrXXXXXzX7X7X#X#X+X*.*.*.%.%.#.#.$.$.$.$.$.$.+.#.#.%.@.T I H H H J H H H H H H H H H J H H H H H J J K U U U ~.@X@XXX%X%X%X%X%X%X%X%XhX%X%X%X%X%X%XzXhX%X%X.X|.|.|.{.{.^.W.Q.Q.Q.Q.Q.W.^.Q.Q.Q.^.].W.W.W.W.W.W.W.W.W.W.W.W.W.W.W.W.W.Q._.)._._._.].].].]._._._._._.W.W.W.W.W.W.W.",
"` ` ` ` ` ` ` ` ` ` ` ` ` ` ` ` ` ` ` ` ` ` ` ` ` ` ` ` ` ` ` ` ` ` ` ` ` ` ` ` ` ` ` ` ` ` ` ` ` ` ` ` ` ` ` ` ` ` ` ` ` ` ` ` ` ` ` ` ` ` ` ` ` ` ` ` ` ` ` ` ` ` ` ` ` ` ` ` ` ` ` ` ` ` ` ` ` ` ` ` ` ` ` ` ` ` ` ` ` ` ` ` ` ` ` ` ` ` ` ` ` ` ` ` ` ` ` ` ` ` ` ` ` ` ` ` ` ` ' ) ) ` ] E q 0 d y r w r 2.t.a.m.m.a.r.a.b.a.a.a.a.a.s.3.2.g g i i e e i e w w e p h l 6.6.8.7.0.d.d.d.g.f.g.f.f.f.f.f.f.f.d.6.h r r r r r h z x b 6.x x x k k k k k z k z z z k k k k k k k k k k k z h h h h d e e e e e g g 2.3.t.t.s.s.0.j i w r 7 7 Z `.fXdXrXzXrXxXbXnXCXDXAXSXSXJXJXSXSXSXSXSXSXSXSXJXJXJXJXJXJXJXJXJXJXJXJXJXJXJXJXJXJXJXJXJXJXJXJXJXJXJXJXJXJXJXJXSXGXGXDXbXxXhXhXhXxXhXcXNXSXGXJXJXJXJXJXJXJXJXJXJXJXJXJXJXJXJXJXJXJXJXJXJXJXJXJXJXJXJXJXJXJXJXJXJXJXJXJXJXJXJXJXJXJXJXJXJXJXJXJXJXJXJXJXJXJXJXJXJXJXJXJXJXJXJXJXJXGXGXAXnXxXXXrXhXhXrXxXnXAXJXGXJXJXJXJXJXJXJXJXJXJXJXJXJXJXJXJXJXJXJXJXJXJXJXJXJXSXSXGXAXnXcXhXhXhXxXhXrXhXnXDXJXCXnXbXcXhXrXhX.XXXrXhX7X7X@X#X#X+X*.*.@.#.$.$.+.+.+.+.+.+.#.%.%.%.T I L J J L J J J J J J J J J J J J J J J J J J K K V !.#X@X@X%X%X%X%X%X%X%X%X%X%X%X%X%XhXhX%X%XhXhX.XOX{.{.W.W.W.W.W.W.W.W.W.W.^.^.W.W.W.W.W.W.W.W.W.W.W.W.W.W.W.W.W.W.W.W.).).).).).).).).).).).).).).).).W.W.W.W.W.W.W.",
"` ` ` ` ` ` ` ` ` ` ` ` ` ` ` ` ` ` ` ` ` ` ` ` ` ` ` ` ` ` ` ` ` ` ` ` ` ` ` ` ` ` ` ` ` ` ` ` ` ` ` ` ` ` ` ` ` ` ` ` ` ` ` ` ` ` ` ` ` ` ` ` ` ` ` ` ` ` ` ` ` ` ` ` ` ` ` ` ` ` ` ` ` ` ` ` ` ` ` ` ` ` ` ` ` ` ` ` ` ` ` ` ` ` ` ` ` ` ` ` ` ` ` ` ` ` ` ` ` ` ` ` ` ` ` ` ` ` ' ) ) ` ' T V 9 8 r w r e 2.s.a.r.r.a.a.b.b.b.a.a.a.a.a.t.3.<.g g i e e e w e r e r r h z l 2.6.7.p.d.d.g.g.f.f.f.f.f.f.f.f.7.l r r r r r r h z x b x x x l x l k k k k k z z z k k z k k k k k k z z f f h r r e e d g g g 2.2.i.t.s.s.s.s.7.j y w r 7 7 Z `.fXvXsXxXhXcXbXNXCXDXSXSXSXGXJXSXSXSXJXSXSXSXJXJXJXJXJXJXJXJXJXJXJXJXJXJXJXJXJXJXJXJXJXJXJXJXJXJXJXJXJXJXJXJXJXGXGXGXCXbXhXhXhXhXxXxXbXCXAXGXJXJXJXJXJXJXJXJXJXJXJXJXJXJXJXJXJXJXJXJXJXJXJXJXJXJXJXJXJXJXJXJXJXJXJXJXJXJXJXJXJXJXJXJXJXJXJXJXJXJXJXJXJXJXJXJXJXJXJXJXJXJXJXJXJXJXGXGXAXNXcXrXrXhXhXrXhXbXDXJXGXJXJXJXJXJXJXJXJXJXJXJXJXJXJXJXJXJXJXJXJXJXJXJXJXJXGXGXGXGXCXbXxXhXxXxXxXrXhXbXNXAXDXCXnXbXxXhXhXXXXXhXhXhXhXhX@X@X#X$X*.*.%.%.+.+.+.O.#.#.#.#.%.%.%.T I I J J L J J J J J J J J J J J J J J J J J J K U V R #X@X@X7X%X%X%X%X%X%X%X%X%X%X%X%X%X%X%X%XXX.XOX{.{.].W.W.W.W.W.W.W.W.W.W.^.^.W.Q.W.W.W.W.W.W.W.W.W.W.W.W.W.W.W.W.W.W.).).).).).).).).).).).).).).).).W.W.W.W.W.W.W.",
"` ` ` ` ` ` ` ` ` ` ` ` ` ` ` ` ` ` ` ` ` ` ` ` ` ` ` ` ` ` ` ` ` ` ` ` ` ` ` ` ` ` ` ` ` ` ` ` ` ` ` ` ` ` ` ` ` ` ` ` ` ` ` ` ` ` ` ` ` ` ` ` ` ` ` ` ` ` ` ` ` ` ` ` ` ` ` ` ` ` ` ` ` ` ` ` ` ` ` ` ` ` ` ` ` ` ` ` ` ` ` ` ` ` ` ` ` ` ` ` ` ` ` ` ` ` ` ` ` ` ` ` ` ` ` ` ` ` ` ) ' ` ` T V 9 7 r w w r x s.a.r.r.a.a.m.m.b.a.a.a.m.a.s.a.t.2.4.g i 2 e e e e r e w e h h z 4.8.0.p.d.g.g.f.g.g.g.f.N.f.f.8.l r e w r e r h z x x x x x x x k k k k k k z k k k z k k z z z z z g d d d d r r e d g x 2.t.s.s.a.a.a.a.s.s.7.a y r r 7 7 k.'.dXvXsXxXxXbXnXCXDXDXSXSXSXSXSXSXSXGXJXSXSXJXJXJXJXJXJXJXJXJXJXJXJXJXJXJXJXJXJXJXJXJXJXJXJXJXJXJXJXJXJXJXJXJXJXGXGXSXNXbXhXhXhXhXhXxXbXCXAXGXGXJXJXJXJXJXJXJXJXJXJXJXJXJXJXJXJXJXJXJXJXJXJXJXJXJXJXJXJXJXJXJXJXJXJXJXJXJXJXJXJXJXJXJXJXJXJXJXJXJXJXJXJXJXJXJXJXJXJXJXJXJXJXJXJXGXGXGXGXCXbXhXrXxXhXrXhXbXCXGXJXJXJXJXJXJXJXJXJXJXJXJXJXJXJXJXJXJXJXJXJXJXJXJXJXJXGXGXGXJXAXnXcXxXxXxXxXhXrXxXbXNXDXGXDXnXbXxXhX%XhXzXzXzXhXrXXX7X7X#X+X*.*.%.#.$.+.$.$.$.$.#.#.%.*.T I L L J J J J J J J J J J J J J J J J J J L J K U V R OX@XXXXXXX%X%X%X%X%X%X%X%X%X%X%X%X%XXXXX|.OX{.].^.^.W.W.W.W.W.W.W.W.W.W.^.^.W.W.W.W.W.W.W.W.W.W.W.W.W.W.W.W.W.W.W.W.).).).).).).).).).).).).).).).).).).).).).).).",
"` ` ` ` ` ` ` ` ` ` ` ` ` ` ` ` ` ` ` ` ` ` ` ` ` ` ` ` ` ` ` ` ` ` ` ` ` ` ` ` ` ` ` ` ` ` ` ` ` ` ` ` ` ` ` ` ` ` ` ` ` ` ` ` ` ` ` ` ` ` ` ` ` ` ` ` ` ` ` ` ` ` ` ` ` ` ` ` ` ` ` ` ` ` ` ` ` ` ` ` ` ` ` ` ` ` ` ` ` ` ` ` ` ` ` ` ` ` ` ` ` ` ` ` ` ` ` ` ` ` ` ` ` ` ` ` ` ` ` ) ' ` ` T V 0 7 w w w t z t.t.r.r.a.a.m.M.n.a.a.a.a.a.a.a.a.s.3.4.<.g g g e e e e e e r h z l 2.7.0.d.g.g.f.g.d.d.g.f.f.f.6.z r r r e e r z k x 6.x x x x l k k k k k z z l k k z k z z h d d d d e d d d g g g g 2.t.s.s.a.a.a.a.a.s.s.s.2.i y r r t d l.eXdXdXsXzXxXbXnXDXDXSXGXSXSXSXSXSXGXGXGXSXJXJXJXJXJXJXJXJXJXJXJXJXJXJXJXJXJXJXJXJXJXJXJXJXJXJXJXJXJXJXJXJXJXJXJXGXGXAXnXcXhXhXhXhXhXcXnXDXGXGXGXJXJXJXJXJXJXJXJXJXJXJXJXJXJXJXJXJXJXJXJXJXJXJXJXJXJXJXJXJXJXJXJXJXJXJXJXJXJXJXJXJXJXJXJXJXJXJXJXJXJXJXJXJXJXJXJXJXJXJXJXJXJXJXJXGXGXGXGXDXbXxXrXxXhXrXhXcXnXAXJXJXJXJXJXJXJXJXJXJXJXJXJXJXJXJXJXJXJXJXJXJXJXJXJXJXJXJXJXJXJXDXnXcXxXhXhXhXrXhXcXnXCXAXSXDXNXbXcXhXhXzXzXzXzXhX%X%X7X7X#X+X$X*.*.%.#.#.$.$.%.#.%.%.*.T T I H L H J J J J J J J J J J J J J J J J J J J U V R (.@XXXXX%X%X%X%X%X%X%X%X%X%X%X%X%X%X|.}.{.{.^.W.W.W.W.W.W.W.W.W.W.W.W.Q.^.^.^.^.W.W.W.W.W.W.W.W.W.W.W.W.W.W.W.W.W.W.).).).).).).).).).).).).).).).).).).).).).).).",
"` ` ` ` ` ` ` ` ` ` ` ` ` ` ` ` ` ` ` ` ` ` ` ` ` ` ` ` ` ` ` ` ` ` ` ` ` ` ` ` ` ` ` ` ` ` ` ` ` ` ` ` ` ` ` ` ` ` ` ` ` ` ` ` ` ` ` ` ` ` ` ` ` ` ` ` ` ` ` ` ` ` ` ` ` ` ` ` ` ` ` ` ` ` ` ` ` ` ` ` ` ` ` ` ` ` ` ` ` ` ` ` ` ` ` ` ` ` ` ` ` ` ` ` ` ` ` ` ` ` ` ` ` ` ` ` ` ` ` ) ` ` ` T U q 7 t w w t f 4.2.t.a.a.a.m.M.n.s.a.a.a.a.a.a.a.a.a.t.t.3.2.2.z g e e e e e e g z z 4.2.8.s.d.d.p.7.s.d.g.d.d.2.z i e r r r h z l b 6.6.x x x k k k z z z h z z z h h h h f d t t e e d g z z 4.2.2.t.s.s.a.h.a.a.r.r.r.t.s.s.4.a y r r t f Z.yXsXsXsXzXcXnXNXDXDXSXJXSXSXSXSXGXGXJXJXJXJXJXJXJXJXJXJXJXJXJXJXJXJXJXJXJXJXJXJXJXJXJXJXJXJXJXJXJXJXJXJXJXJXJXJXGXJXDXnXxXhXhXhXhXhXcXNXAXGXGXGXJXJXJXJXJXJXJXJXJXJXJXJXJXJXJXJXJXJXJXJXJXJXJXJXJXJXJXJXJXJXJXJXJXJXJXJXJXJXJXJXJXJXJXJXJXJXJXJXJXJXJXJXJXJXJXJXJXJXJXJXJXJXJXJXGXGXGXJXAXnXcXrXxXhXrXhXxXbXDXGXJXJXJXJXJXJXJXJXJXJXJXJXJXJXJXJXJXJXJXJXJXJXJXJXGXJXPXJXJXJXAXCXbXcXhXhXhXhXhXxXcXnXDXSXSXAXCXnXbXmXcXzXrXrXhXhXhXhX%X7X#X#X$X*.*.%.#.#.$.%.#.#.%.*.Q T I L L H H J J J J J J J J J J J J J J J J J J U V R (.@XXX%X%X%X%X%X%X%X%X%X%X%X%X%X X|.{.{.].W.W.Q.Q.W.W.W.W.W.W.W.W.W.W.W.W.W.^.^.^.W.W.W.W.W.W.W.W.W.W.W.W.W.W.W.W.W.).).).).).).).).).).).).).).).).).).).).).).).",
"` ` ` ` ` ` ` ` ` ` ` ` ` ` ` ` ` ` ` ` ` ` ` ` ` ` ` ` ` ` ` ` ` ` ` ` ` ` ` ` ` ` ` ` ` ` ` ` ` ` ` ` ` ` ` ` ` ` ` ` ` ` ` ` ` ` ` ` ` ` ` ` ` ` ` ` ` ` ` ` ` ` ` ` ` ` ` ` ` ` ` ` ` ` ` ` ` ` ` ` ` ` ` ` ` ` ` ` ` ` ` ` ` ` ` ` ` ` ` ` ` ` ` ` ` ` ` ` ` ` ` ` ` ` ` ` ` ` ` ) ' ` ` ] Y q 7 u r w t d g <.3.r.a.a.b.M.a.s.s.a.a.a.a.a.a.a.a.a.s.s.s.s.s.2.g e e e e 2 g d g g g z 4.6.8.6.6.6.7.7.7.7.l h i r r r r h z z x x l l l l z z z z h h h h f f r r r r r e e e d g z x 2.2.7.s.s.s.a.a.a.a.a.r.r.r.r.a.s.s.4.i y r r t k A.yXfXsXzXzXcXNXCXDXAXGXJXJXSXSXSXGXGXJXJXJXJXJXJXJXJXJXJXJXJXJXJXJXJXJXJXJXJXJXJXJXJXJXJXJXJXJXJXJXJXJXJXJXJXJXJXJXJXDXbXhXhXhXhXhXhXbXCXSXGXGXGXJXJXJXJXJXJXJXJXJXJXJXJXJXJXJXJXJXJXJXJXJXJXJXJXJXJXJXJXJXJXJXJXJXJXJXJXJXJXJXJXJXJXJXJXJXJXJXJXJXJXJXJXJXJXJXJXJXJXJXJXJXJXJXJXJXGXGXGXGXCXbXhXhXhXhXhXxXbXNXGXJXJXJXJXJXJXJXJXJXJXJXJXJXJXJXJXJXJXJXJXJXJXJXJXGXJXJXJXJXJXGXAXnXbXhXhXhXhXhXhXhXbXCXAXAXAXAXDXDXNXbXcXzXrXhXjXhXhX%X7X7X#X#X+X*.*.%.%.#.$.#.#.%.*.*.T I F L H H J J J J J J J J J J J J J J J J J J K V W ~.@XXX%X%X%X%X%X%X%X%X%X%X%X X|.OX}.^.^.W.W.Q.Q.Q.W.W.W.W.W.W.W.W.W.W.W.W.W.^.^.^.W.).).).).).).).).).).).).).).).).).).).).).).).).).).).).).).).).).).).).).).).",
"` ` ` ` ` ` ` ` ` ` ` ` ` ` ` ` ` ` ` ` ` ` ` ` ` ` ` ` ` ` ` ` ` ` ` ` ` ` ` ` ` ` ` ` ` ` ` ` ` ` ` ` ` ` ` ` ` ` ` ` ` ` ` ` ` ` ` ` ` ` ` ` ` ` ` ` ` ` ` ` ` ` ` ` ` ` ` ` ` ` ` ` ` ` ` ` ` ` ` ` ` ` ` ` ` ` ` ` ` ` ` ` ` ` ` ` ` ` ` ` ` ` ` ` ` ` ` ` ` ` ` ` ` ` ` ` ` ` ` ) ' ] ` ] E V 8 t p w t e e g 1.3.t.s.a.n.a.a.M.a.a.a.a.a.a.a.a.a.h.M.M.n.s.s.2.4.g g i e e e i e e i d g z z z z 4.4.4.4.z g e i e e i d h z z z z z z z z z z h h g h h r e r d h h h g g z z 2.2.8.s.s.s.s.s.a.a.a.a.r.b.z.z.z.b.b.s.s.4.i y r r t c S.yXsXsXxXcXbXDXDXDXAXGXJXJXSXSXSXSXJXJXJXJXJXJXJXJXJXJXJXJXJXJXJXJXJXJXJXJXJXJXJXJXJXJXJXJXJXJXJXJXJXJXJXJXJXJXJXJXJXCXbXrXhXhXhXhXhXbXDXGXGXGXGXJXJXJXJXJXJXJXJXJXJXJXJXJXJXJXJXJXJXJXJXJXJXJXJXJXJXJXJXJXJXJXJXJXJXJXJXJXJXJXJXJXJXJXJXJXJXJXJXJXJXJXJXJXJXJXJXGXGXGXGXGXGXGXGXJXGXGXGXGXDXbXxXhXhXhXhXxXcXnXAXJXJXJXJXJXJXJXJXJXJXJXJXJXJXJXJXJXJXJXJXJXJXJXJXGXGXGXJXJXJXGXSXDXnXxXrXhXhXhXhXrXcXnXDXAXAXAXAXFXAXCXnXbXcXxXjXjXhXrX@X7X7X@X#X+X$X*.%.%.$.#.#.#.%.*.T I F L H H J J J J J J J J J J J J J J J J J J K V U ~.@X@X%X%X%X%X%X%X%X%X%X%X X|.}.{.{.W.W.W.W.W.W.W.W.W.W.W.W.W.W.W.W.W.W.W.W.W.W.W.W.).).).).).).).).).).).).).).).).).).).).).).).).).).).).).).).).).).).).).).).",
"` ` ` ` ` ` ` ` ` ` ` ` ` ` ` ` ` ` ` ` ` ` ` ` ` ` ` ` ` ` ` ` ` ` ` ` ` ` ` ` ` ` ` ` ` ` ` ` ` ` ` ` ` ` ` ` ` ` ` ` ` ` ` ` ` ` ` ` ` ` ` ` ` ` ` ` ` ` ` ` ` ` ` ` ` ` ` ` ` ` ` ` ` ` ` ` ` ` ` ` ` ` ` ` ` ` ` ` ` ` ` ` ` ` ` ` ` ` ` ` ` ` ` ` ` ` ` ` ` ` ` ` ` ` ` ` ] ` ` ) ` ] ` ] E V 8 u p w t e e g g 2.t.s.s.n.s.a.M.M.a.a.a.a.a.a.a.a.a.a.a.b.s.s.s.t.2.4.g g 2 e i 3 2 2 e e g g g g g g g g g g e e e e e d h h z z h g h h h h h h g h h h r r h g z z z z 2.2.3.s.s.s.s.a.n.a.a.r.r.r.a.r.z.z.z.c.m.b.s.3.z w y r r t x S.fXsXsXcXcXbXDXDXDXAXGXJXJXJXJXJXJXJXJXJXJXJXJXJXJXJXJXJXJXJXJXJXJXJXJXJXJXJXJXJXJXJXJXJXJXJXJXJXJXJXJXJXJXJXJXJXJXJXCXcXrXrXhXhXhXhXbXAXJXGXGXSXJXJXJXJXJXJXJXJXJXJXJXJXJXJXJXJXJXJXJXJXJXJXJXJXJXJXJXJXJXJXJXJXJXJXJXJXJXJXJXJXJXJXJXJXJXJXJXJXJXJXJXJXJXJXJXJXGXGXGXGXGXGXGXGXJXJXGXGXGXDXnXxXhXhXhXhXhXcXnXAXJXJXJXJXJXJXJXJXJXJXJXJXJXJXJXJXJXJXJXJXJXJXJXJXJXSXAXJXPXJXSXAXJXnXxXrXhXhXhXhXhXxXbXCXGXGXAXDXAXAXFXAXDXnXvXjXxXzXzXXXXXXX%X@X#X+X*.*.%.#.+.+.#.%.*.T I F H K H J J J J J J J J J J J J J J J J K J K V V ~.@X@XXXXX%X%X%X%X%X X X X|.}.{.^.^.Q.Q.W.Q.W.Q.W.Q.W.W.W.W.W.W.W.W.W.W.W.W.W.W.W.W.).).).).).).).).).).).).).).).).).).).).).).).).).).).).).).).).).).).).).).).",
"` ` ` ` ` ` ` ` ` ` ` ` ` ` ` ` ` ` ` ` ` ` ` ` ` ` ` ` ` ` ` ` ` ` ` ` ` ` ` ` ` ` ` ` ` ` ` ` ` ` ` ` ` ` ` ` ` ` ` ` ` ` ` ` ` ` ` ` ` ` ` ` ` ` ` ` ` ` ` ` ` ` ` ` ` ` ` ` ` ` ` ` ` ` ` ` ` ` ` ` ` ` ` ` ` ` ` ` ` ` ` ` ` ` ` ` ` ` ` ` ` ` ` ` ` ` ` ` ` ` ` ` ` ` ` ` ` ` ` ` ` ` ` ] E W m 7 r w r r e i 3 g g 2.s.s.M.a.a.a.h.m.m.h.h.h.a.a.a.a.a.a.h.s.s.s.s.s.s.s.3.2.2.z g g 3 2 g g g i e 2 2 2 2 2 2 e e e i e e r e e i e i e d d d d i d i d d g z 4.2.8.8.t.s.s.s.a.a.a.a.a.a.a.r.r.z.z.z.z.z.c.c.z.m.M.b.3.g y p p r t Z '.dXsXrXcXbXnXSXJXDXDXSXSXJXJXJXJXJXJXJXJXJXJXJXJXJXJXJXJXJXJXJXJXJXJXJXJXJXJXJXJXJXJXJXJXJXJXJXJXJXJXJXJXJXJXJXJXJXGXnXxXrXhXhXhXhXxXnXAXJXGXGXAXGXGXGXGXGXGXJXJXJXJXJXJXJXJXJXJXJXJXJXJXJXJXJXJXJXJXJXJXJXJXJXJXJXJXJXJXJXJXJXJXJXJXJXJXJXJXJXJXJXJXJXJXJXJXJXJXJXJXJXJXJXJXJXJXJXGXGXJXJXGXCXbXhXrXxXxXxXcXbXDXSXGXJXGXJXJXJXGXJXJXJXJXJXJXJXJXJXJXJXJXJXJXJXJXJXJXGXGXGXGXGXGXAXDXnXcXrXhXxXxXhXhXcXbXCXGXGXAXFXFXSXAXGXAXCXNXcXxXzXzX%X%X7X7X7X#X+X*.@.@.#.%.#.%.@.T I F H P J J J J J J J J J J J J J J J J J J K K K V ~.@X@XXX%X%X%X%X%X%X%X|.}.{.^.^.Q.Q.W.Q.W.W.W.W.W.W.W.W.W.W.W.W.W.W.W.W.W.W.^.^.W.W.).).).).).).).).).).).).).).).).).).).).).).).).).).).).).).).).).).).).).).).",
"` ` ` ` ` ` ` ` ` ` ` ` ` ` ` ` ` ` ` ` ` ` ` ` ` ` ` ` ` ` ` ` ` ` ` ` ` ` ` ` ` ` ` ` ` ` ` ` ` ` ` ` ` ` ` ` ` ` ` ` ` ` ` ` ` ` ` ` ` ` ` ` ` ` ` ` ` ` ` ` ` ` ` ` ` ` ` ` ` ` ` ` ` ` ` ` ` ` ` ` ` ` ` ` ` ` ` ` ` ` ` ` ` ` ` ` ` ` ` ` ` ` ` ` ` ` ` ` ` ` ` ` ` ` ` ` ` ` ` ` ` ` ` ] E W m 7 r w r r e i i 3 d g t.s.a.a.a.h.m.h.a.r.h.h.a.a.a.a.a.a.a.a.a.a.a.a.a.a.M.s.s.t.3.2.4.g g g g g 4 3 2 2 4 4 i g g g g g i d d d g g g g g g g g g g g g z 2.2.t.s.s.s.s.a.a.a.a.a.a.a.a.a.r.r.r.c.c.z.z.r.c.c.z.m.M.b.2.i w r y r d Z '.dXtXrXcXbXnXSXKXDXDXSXJXJXJXJXJXJXJXJXJXJXJXJXJXJXJXJXJXJXJXJXJXJXJXJXJXJXJXJXJXJXJXJXJXJXJXJXJXJXJXJXJXJXJXJXJXJXGXnXxXrXhXhXhXhXxXnXAXJXGXGXAXGXGXGXGXGXGXJXJXJXJXJXJXJXJXJXJXJXJXJXJXJXJXJXJXJXJXJXJXJXJXJXJXJXJXJXJXJXJXJXJXJXJXJXJXJXJXJXJXJXJXJXJXJXJXJXJXJXJXJXJXJXJXJXJXJXGXGXJXJXGXCXbXhXrXhXxXxXxXbXCXSXGXJXGXJXJXJXGXJXJXJXJXJXJXJXJXJXJXJXJXJXJXJXJXJXJXGXGXGXGXGXGXGXAXNXbXxXhXxXxXhXhXxXbXnXDXSXSXFXSXSXSXGXAXDXCXnXbXcXzX%X7X7X7X7X@X#X$X*.@.%.#.#.@.@.T I F J J J J J J J J J J J J J J J J J J J J K K K V !.@X@XXX%X%X%X%XXX|.}.{.{.^.^.Q.Q.Q.W.W.W.W.W.Q.W.W.W.W.W.W.W.W.W.W.W.W.W.W.^.^.W.W.).).).).).).).).).).).).).).).).).).).).).).).).).).).).).).).).).).).).).).).",
"` ` ` ` ` ` ` ` ` ` ` ` ` ` ` ` ` ` ` ` ` ` ` ` ` ` ` ` ` ` ` ` ` ` ` ` ` ` ` ` ` ` ` ` ` ` ` ` ` ` ` ` ` ` ` ` ` ` ` ` ` ` ` ` ` ` ` ` ` ` ` ` ` ` ` ` ` ` ` ` ` ` ` ` ` ` ` ` ` ` ` ` ` ` ` ` ` ` ` ` ` ` ` ` ` ` ` ` ` ` ` ` ` ` ` ` ` ` ` ` ` ` ` ` ` ` ` ` ` ` ` ` ` ` ` ` ` ` ` ` ` ` ` ] E W q 8 w w r r e i g e 2 d 2.s.s.a.a.h.a.a.a.a.h.h.a.a.a.a.a.h.a.a.a.a.a.a.a.a.M.M.n.a.s.s.s.t.2.2.2.1.<.<.g g g g g g g g g g g g g g g g g g g g g 4.4.4.4.2.s.s.s.s.s.s.a.s.a.a.a.a.a.a.a.a.r.r.r.r.y.y.r.r.z.c.c.z.n.M.s.2.i w w y r d k.eXdXtXrXcXnXnXGXPXDXDXSXJXJXJXJXJXJXJXJXJXJXJXJXJXJXJXJXJXJXJXJXJXJXJXJXJXJXJXJXJXJXJXJXJXJXJXJXJXJXJXJXJXJXJXJXJXJXSXnXhXrXhXhXhXhXxXnXAXGXGXGXAXGXGXGXGXGXGXJXJXJXJXJXJXJXJXJXJXJXJXJXJXJXJXJXJXJXJXJXJXJXJXJXJXJXJXJXJXJXJXJXJXJXJXJXJXJXJXJXJXJXJXJXJXJXJXJXJXJXJXJXJXJXJXJXJXJXGXGXJXJXGXDXbXxXrXhXhXhXxXcXnXAXGXJXJXGXJXGXSXJXJXJXJXJXJXJXJXJXJXJXJXJXJXJXJXJXJXGXGXGXGXGXGXGXAXDXnXcXhXhXxXhXhXhXcXbXnXDXGXGXGXGXSXGXGXSXSXDXnXbXzX7X7X7X7XsX@X@X#X+X*.@.@.@.@.@.T I F L J J J J J J J J J J J J J J J J J J J K K K U { #X@X%X7X%X%XXXOX}.^.^.^.Q.Q.Q.Q.Q.Q.Q.Q.Q.Q.Q.Q.Q.W.W.W.W.W.W.W.W.W.W.W.).^.W.W.W.).).).).).).).).).).).).).).).).).).).).).).).).).).).).).).).).).).).).).).).",
"` ` ` ` ` ` ` ` ` ` ` ` ` ` ` ` ` ` ` ` ` ` ` ` ` ` ` ` ` ` ` ` ` ` ` ` ` ` ` ` ` ` ` ` ` ` ` ` ` ` ` ` ` ` ` ` ` ` ` ` ` ` ` ` ` ` ` ` ` ` ` ` ` ` ` ` ` ` ` ` ` ` ` ` ` ` ` ` ` ` ` ` ` ` ` ` ` ` ` ` ` ` ` ` ` ` ` ` ` ` ` ` ` ` ` ` ` ` ` ` ` ` ` ` ` ` ` ` ` ` ` ` ` ` ` ` ` ` ` ` ` ` ` ] E W q 8 w w r r i g z d 2 2 g 1.s.a.a.a.a.a.a.h.h.h.a.a.a.a.a.a.a.a.a.a.h.h.h.h.a.a.a.a.a.a.a.a.a.a.a.a.r.t.t.t.t.t.3.3.3.3.3.3.2.2.2.3.3.3.2.2.3.t.s.s.s.s.s.s.s.a.a.h.h.a.a.a.a.a.a.a.a.y.y.y.r.r.r.y.y.y.r.r.z.c.c.z.n.M.3.4.i t w r t d l.yXdXtXrXmXnXDXJXPXDXAXSXJXJXJXJXJXJXJXJXJXJXJXJXJXJXJXJXJXJXJXJXJXJXJXJXJXJXJXJXJXJXJXJXJXJXJXJXJXJXJXJXJXJXJXJXJXJXAXnXhXhXhXhXhXhXcXNXGXGXGXGXAXGXGXGXGXGXGXJXJXJXJXJXJXJXJXJXJXJXJXJXJXJXJXJXJXJXJXJXJXJXJXJXJXJXJXJXJXJXJXJXJXJXJXJXJXJXJXJXJXJXJXJXJXJXJXJXJXJXJXJXJXJXJXJXJXJXGXGXJXGXGXDXnXcXhXhXhXhXhXxXnXAXGXJXJXGXGXGXSXJXJXJXJXJXJXJXJXJXJXJXJXJXJXJXJXJXJXGXGXGXGXGXGXJXGXAXCXnXxXhXhXhXhXhXxXcXbXCXGXJXJXGXGXGXGXGXSXIXSXnXmXzX7X@X7XrXXX@X@X#X+X*.@.@.@.@.Q T F L J J J J J J J J J J J J J J J J J J J K K K V R OX@X7X7X%XXX}.{.].Q.Q.Q.Q.Q.Q.Q.Q.Q.Q.Q.Q.Q.Q.Q.W.W.W.W.W.W.W.W.W.W.W.W.).^.W.W.W.).).).).).).).).).).).).).).).).).).).).).).).).).).).).).).).).).).).).).).).",
"` ` ` ` ` ` ` ` ` ` ` ` ` ` ` ` ` ` ` ` ` ` ` ` ` ` ` ` ` ` ` ` ` ` ` ` ` ` ` ` ` ` ` ` ` ` ` ` ` ` ` ` ` ` ` ` ` ` ` ` ` ` ` ` ` ` ` ` ` ` ` ` ` ` ` ` ` ` ` ` ` ` ` ` ` ` ` ` ` ` ` ` ` ` ` ` ` ` ` ` ` ` ` ` ` ` ` ` ` ` ` ` ` ` ` ` ` ` ` ` ` ` ` ` ` ` ` ` ` ` ` ` ` ` ` ` ` ` ` ` ` ` ` ] ] W q 9 u r r r p 4.2.z d 2 2 g 2.3.s.a.a.a.a.a.h.h.h.h.h.h.h.a.m.m.m.m.b.a.a.a.b.b.b.b.a.a.a.a.h.h.h.h.h.a.a.a.a.a.a.a.a.r.a.r.a.s.s.s.s.s.s.s.s.s.s.n.M.M.M.M.a.h.h.h.a.a.r.r.h.a.a.z.z.z.z.z.r.r.r.y.y.y.r.r.r.c.m.b.b.n.3.4.g t t r t f A.yXdXrXxXbXUXAXFXPXDXSXSXGXJXJXJXJXJXJXJXJXJXJXJXJXJXJXJXJXJXJXJXJXJXJXJXJXJXJXJXJXJXJXJXJXJXJXJXJXJXJXJXJXJXJXJXJXJXDXbXhXhXhXhXhXhXbXCXGXGXGXGXAXGXGXGXGXGXGXJXJXJXJXJXJXJXJXJXJXJXJXJXJXJXJXJXJXJXJXJXJXJXJXJXJXJXJXJXJXJXJXJXJXJXJXJXJXJXJXJXJXJXJXJXJXJXJXJXJXJXJXJXJXJXJXJXJXJXGXJXJXGXGXAXNXbXhXhXhXhXhXxXbXDXGXJXJXGXGXGXSXJXJXJXJXJXJXJXJXJXJXJXJXJXJXJXJXJXJXGXGXGXGXGXGXJXGXGXAXNXbXxXhXhXhXhXxXxXbXnXSXJXKXJXGXGXGXSXGXGXSXSXnXmXzX%XhXzXXXXX7X#X#X$X*.*.@.*.@.T F L I J J J J J J J J J J J J J J J J J P J K P U R (.@XXXXX|.}.{.^.Q.Q.Q.Q.Q.Q.Q.Q.W.Q.Q.W.W.W.W.Q.W.W.W.).).W.W.W.W.).).).).W.W.W.W.).).).).).).).).).).).).).).).).).).).).).).).).).).).).).).).).).).).).).).).",
"` ` ` ` ` ` ` ` ` ` ` ` ` ` ` ` ` ` ` ` ` ` ` ` ` ` ` ` ` ` ` ` ` ` ` ` ` ` ` ` ` ` ` ` ` ` ` ` ` ` ` ` ` ` ` ` ` ` ` ` ` ` ` ` ` ` ` ` ` ` ` ` ` ` ` ` ` ` ` ` ` ` ` ` ` ` ` ` ` ` ` ` ` ` ` ` ` ` ` ` ` ` ` ` ` ` ` ` ` ` ` ` ` ` ` ` ` ` ` ` ` ` ` ` ` ` ` ` ` ` ` ` ` ` ` ` ` ` ` ` ` ` ` ] ] Y q 7 w r r r y l 7.8.x d 2 2 g 4.3.s.s.a.a.a.a.h.h.h.h.h.h.h.m.m.m.m.b.a.a.a.b.b.b.m.m.m.m.m.r.r.r.a.h.h.h.h.h.h.m.h.a.a.a.a.a.a.a.a.a.a.a.a.a.a.a.a.a.a.a.a.m.m.h.h.h.a.r.r.y.y.z.z.z.z.c.z.r.r.r.y.r.r.r.r.r.m.m.b.b.s.3.g d w t r t c S.dXvXsXxXbXDXFXFXPXDXSXSXJXJXJXJXJXJXJXJXJXJXJXJXJXJXJXJXJXJXJXJXJXJXJXJXJXJXJXJXJXJXJXJXJXJXJXJXJXJXJXJXJXJXJXJXJXJXDXbXhXhXhXrXhXhXbXDXGXGXGXGXAXGXGXGXGXGXGXJXJXJXJXJXJXJXJXJXJXJXJXJXJXJXJXJXJXJXJXJXJXJXJXJXJXJXJXJXJXJXJXJXJXJXJXJXJXJXJXJXJXJXJXJXJXJXJXJXJXJXJXJXJXJXJXJXJXJXGXJXJXGXGXGXDXbXxXxXhXhXhXhXcXCXAXJXJXGXGXGXGXJXJXJXJXJXJXJXJXJXJXJXJXJXJXJXJXJXJXGXGXGXGXGXGXJXGXGXGXDXnXcXxXhXhXhXxXxXxXbXCXGXJXJXJXGXGXSXSXSXSXSXDXnXcXxXhXzX@XXX%X X#X+X+X*.*.*.@.T F F L H J J J J J J J J J J J J J J J P J P K P U R (.@X XOX}.{.^.Q.Q.Q.Q.Q.Q.Q.Q.Q.Q.Q.Q.W.W.W.W.Q.W.W.W.W.).W.W.W.W.).).).).W.W.W.W.).).).).).).).).).).).).).).).).).).).).).).).).).).).).).).).).).).).).).).).",
"` ` ` ` ` ` ` ` ` ` ` ` ` ` ` ` ` ` ` ` ` ` ` ` ` ` ` ` ` ` ` ` ` ` ` ` ` ` ` ` ` ` ` ` ` ` ` ` ` ` ` ` ` ` ` ` ` ` ` ` ` ` ` ` ` ` ` ` ` ` ` ` ` ` ` ` ` ` ` ` ` ` ` ` ` ` ` ` ` ` ` ` ` ` ` ` ` ` ` ` ` ` ` ` ` ` ` ` ` ` ` ` ` ` ` ` ` ` ` ` ` ` ` ` ` ` ` ` ` ` ` ` ` ` ` ` ` ` ` ` ` ` ` ] ] Y q 9 t w r r e z 7.p.k.x g 3 2 g 4.2.s.a.a.a.a.h.y.y.y.y.y.y.m.m.m.m.m.m.m.m.r.r.r.r.m.m.m.m.r.r.r.y.c.c.c.m.r.c.m.y.a.a.a.a.a.a.a.a.a.a.a.a.a.a.a.a.a.a.a.a.m.m.m.c.y.y.y.y.z.z.z.z.z.z.z.z.r.r.y.y.r.r.r.r.r.m.m.b.b.s.2.g r w t t 7 x '.dXvXxXcXbXDXFXSXPXDXSXSXJXJXJXJXJXJXJXJXJXJXJXJXJXJXJXJXJXJXJXJXJXJXJXJXJXJXJXJXJXJXJXJXJXJXJXJXJXJXJXJXJXJXJXJXJXJXDXbXhXhXhXrXhXhXbXDXJXSXGXJXAXGXGXGXGXGXGXJXJXJXJXJXJXJXJXJXJXJXJXJXJXJXJXJXJXJXJXJXJXJXJXJXJXJXJXJXJXJXJXJXJXJXJXJXJXJXJXJXJXJXJXJXJXJXJXJXJXJXJXJXJXJXJXJXJXGXGXJXJXSXGXGXAXnXcXxXhXhXhXhXcXNXDXJXJXGXJXJXGXJXJXJXJXJXJXJXJXJXJXJXJXJXJXJXJXJXJXGXGXGXGXGXGXGXGXGXGXAXCXbXxXhXhXhXxXxXhXcXnXAXAXGXJXJXGXGXGXSXSXJXGXDXnXbXxXzX7X%X%XXX X#X+X$X*.*.@.T F F L H J J J J J J J J J J J J J J J P J P K U U R ~.OX}.{.^.Q.Q.Q.Q.Q.Q.Q.Q.Q.Q.Q.Q.Q.Q.W.W.W.W.W.^.W.W.).).W.W.W.W.).).^.^.W.W.W.W.).).).).).).).).).).).).).).).).).).).).).).).).).).).).).).).).).).).).).).).",
"` ` ` ` ` ` ` ` ` ` ` ` ` ` ` ` ` ` ` ` ` ` ` ` ` ` ` ` ` ` ` ` ` ` ` ` ` ` ` ` ` ` ` ` ` ` ` ` ` ` ` ` ` ` ` ` ` ` ` ` ` ` ` ` ` ` ` ` ` ` ` ` ` ` ` ` ` ` ` ` ` ` ` ` ` ` ` ` ` ` ` ` ` ` ` ` ` ` ` ` ` ` ` ` ` ` ` ` ` ` ` ` ` ` ` ` ` ` ` ` ` ` ` ` ` ` ` ` ` ` ` ` ` ` ` ` ` ` ` ` ` ` ` ] ] E q 9 u r w r w j 8.d.s.8.g g 2 2 i g 2.s.s.a.a.a.a.h.h.h.y.h.a.a.b.b.m.m.m.m.m.m.c.y.y.r.r.r.y.y.y.y.y.y.y.y.y.y.c.y.y.c.m.m.a.h.b.h.b.h.b.h.b.h.b.h.b.h.b.m.a.r.r.r.r.r.y.y.z.z.z.z.z.z.z.z.r.r.r.r.r.r.r.a.r.m.m.b.n.s.2.g w t t t 7 b '.gXvXxXcXbXDXFXSXPXSXSXSXJXJXJXJXJXJXJXJXJXJXJXJXJXJXJXJXJXJXJXJXJXJXJXJXJXJXJXJXJXJXJXJXJXJXJXJXJXJXJXJXJXJXJXJXJXJXDXbXhXhXhXrXhXhXbXAXJXSXGXJXAXGXGXGXGXGXGXJXJXJXJXJXJXJXJXJXJXJXJXJXJXJXJXJXJXJXJXJXJXJXJXJXJXJXJXJXJXJXJXJXJXJXJXJXJXJXJXJXJXJXJXJXJXJXJXJXJXJXJXJXJXJXJXJXJXGXGXJXJXAXGXJXAXnXcXxXxXhXhXhXxXnXDXGXJXJXJXJXJXJXJXJXJXJXJXJXJXJXJXJXJXJXJXJXJXJXJXGXGXGXGXGXGXGXSXSXSXSXDXnXxXhXrXhXxXhXrXxXbXCXDXGXJXJXGXGXJXSXSXSXJXJXDXnXcXzX7X7X%XXX X X#X+X*.*.*.T I F F H J J J J J J J J J J J J J J J J J J K U U Y ~.}.{.^.Q.Q.Q.Q.^.Q.Q.Q.^.^.^.Q.Q.Q.Q.W.W.W.^.W.^.W.W.).W.W.W.W.W.^.^.^.^.^.W.W.W.).).).).).).).).).).).).).).).).).).).).).).).).).).).).).).).).).).).).).).).",
"` ` ` ` ` ` ` ` ` ` ` ` ` ` ` ` ` ` ` ` ` ` ` ` ` ` ` ` ` ` ` ` ` ` ` ` ` ` ` ` ` ` ` ` ` ` ` ` ` ` ` ` ` ` ` ` ` ` ` ` ` ` ` ` ` ` ` ` ` ` ` ` ` ` ` ` ` ` ` ` ` ` ` ` ` ` ` ` ` ` ` ` ` ` ` ` ` ` ` ` ` ` ` ` ` ` ` _ ` _ ` ` ` ` ` ` ` ` ` ` ` ` ` ` ` ` ` ` ` ` ` ` ` ` ` ` ` ` ` ` ` ` ` ] ] E q 8 u a a y r h 7.f.s.a.t.t.g g 3 2 g 4.t.s.a.a.a.a.a.a.a.a.m.b.m.b.m.m.m.m.m.m.b.b.b.b.a.b.c.c.c.c.c.c.c.c.c.c.c.c.c.c.c.c.c.c.b.c.b.c.b.c.b.c.b.c.b.c.b.b.b.b.b.b.b.b.b.b.b.b.b.b.b.b.b.b.b.a.r.r.r.r.b.b.M.n.b.b.n.3.4.i w t r 7 7 k.eXvXvXcXvXCXSXJXSXSXSXSXSXGXJXJXJXJXJXJXJXJXJXJXGXGXJXJXJXJXJXJXJXJXJXJXJXJXJXJXJXJXJXJXJXJXJXJXJXJXJXJXJXJXJXJXJXJXJXnXxXhXhXhXhXhXhXnXGXGXGXGXAXGXGXGXGXGXJXJXJXJXJXJXJXJXJXJXJXJXJXJXJXJXJXJXJXJXJXJXJXJXJXJXJXJXJXJXJXJXJXJXJXJXJXJXJXJXJXJXJXJXJXJXJXJXJXJXJXJXJXJXJXJXJXJXJXJXJXJXJXJXJXGXGXSXCXbXhXhXrXhXxXhXcXDXKXFXFXJXJXSXJXJXJXJXJXJXJXJXJXGXGXGXGXGXGXGXGXGXGXGXGXGXGXJXJXSXSXSXSXSXDXnXxXhXhXcXxXhXhXxXbXDXJXSXSXIXIXSXIXSXSXSXSXSXDXDXcXzX@XzX%XXXXX@X#X+X$X*.T I F F H J J J J J J J H H H H H H L H J J P U U V V { Q.Q.Q.Q.Q.Q.Q.Q.^.^.Q.Q.^.^.^.^.W.W.W.W.W.^.W.^.^.^.^.^.W.W.W.W.W.W.^.^.^.W.W.W.W.W.W.W.W.W.W.W.W.W.W.W.W.W.W.).).).).).).).).).).).).).).).).).).).).).).).).",
"` ` ` ` ` ` ` ` ` ` ` ` ` ` ` ` ` ` ` ` ` ` ` ` ` ` ` ` ` ` ` ` ` ` ` ` ` ` ` ` ` ` ` ` ` ` ` ` ` ` ` ` ` ` ` ` ` ` ` ` ` ` ` ` ` ` ` ` ` ` ` ` ` ` ` ` ` ` ` ` ` ` ` ` ` ` ` ` ` ` ` ` ` ` ` ` ` ` ` ` ` ` ` ` ` ` _ _ _ _ _ _ ` ` ` ` ` ` ` ` ` ` ` ` ` ` ` ` ` ` ` ` ` ` ` ` ` ` ` ` ` ` ` ] ] E q 9 u a a r r g 2.s.n.a.r.t.2.1.g 3 3 g <.2.a.s.a.a.n.m.a.m.b.b.b.b.c.m.c.c.m.m.c.b.b.b.b.b.b.c.c.c.c.c.c.c.c.c.c.c.c.c.c.c.c.c.c.c.c.c.c.c.c.c.c.c.c.c.c.c.b.b.b.b.b.b.b.b.b.b.b.b.b.b.b.b.m.b.r.r.r.r.a.b.b.b.b.M.n.3.4.a w t r 7 7 k.eXvXvXcXbXCXSXIXIXSXSXSXSXGXJXJXJXJXJXJXJXJXJXJXGXGXJXJXJXJXJXJXJXJXJXJXJXJXJXJXJXJXJXJXJXJXJXJXJXJXJXJXJXJXJXJXJXJXJXnXxXhXhXhXhXhXhXnXSXGXGXGXAXGXGXGXGXGXJXJXJXJXJXJXJXJXJXJXJXJXJXJXJXJXJXJXJXJXJXJXJXJXJXJXJXJXJXJXJXJXJXJXJXJXJXJXJXJXJXJXJXJXJXJXJXJXJXJXJXJXJXJXJXJXJXJXJXJXJXJXJXJXJXGXGXSXCXbXhXhXrXhXxXhXcXCXKXFXFXJXJXSXJXJXJXJXJXJXJXJXJXJXJXJXJXJXJXJXJXJXJXJXJXJXJXJXFXSXSXSXSXSXDXUXcXxXhXxXhXhXhXxXcXnXSXSXSXGXGXGXJXGXSXSXSXSXSXDXnXmXzXzXzX%X%X@X#X#X$X*.E I F F H J J J J J J J H H H H H H L H J J P P U U V R !.Q.^.Q.Q.Q.Q.Q.^.^.^.Q.^.^.^.^.W.W.W.W.^.^.^.^.^.^.^.^.W.W.W.W.W.W.W.W.^.W.W.W.W.W.W.W.W.W.^.^.W.W.W.W.W.W.W.).).).).).).).).).).).).).).).).).).).).).).).).",
"` ` ` ` ` ` ` ` ` ` ` ` ` ` ` ` ` ` ` ` ` ` ` ` ` ` ` ` ` ` ` ` ` ` ` ` ` ` ` ` ` ` ` ` ` ` ` ` ` ` ` ` ` ` ` ` ` ` ` ` ` ` ` ` ` ` ` ` ` ` ` ` ` ` ` ` ` ` ` ` ` ` ` ` ` ` ` ` ` ` ` ` ` ` ` ` ` ` ` ` ` ` ` ` ` ` ` ` ` ` _ _ ` ` ` ` ` ` ` ` ` ` ` ` ` ` ` ` ` ` ) ' ` ` ` ` ` ` ` ` ` ` ` ] ] E q 9 u a a w e d 2.s.n.a.a.a.s.s.1.g 3 2 3 4 2.3.s.s.M.M.n.a.b.b.b.b.m.c.c.c.c.c.c.c.b.b.b.b.b.b.b.b.b.b.b.b.b.b.b.b.b.b.b.b.c.c.c.c.c.c.c.c.c.c.c.c.c.c.c.c.b.b.b.b.b.b.b.b.b.b.b.b.b.b.b.b.m.b.b.r.r.r.a.a.a.b.b.b.s.3.4.a w w r t 7 l.yXvXvXcXnXDXJXJXIXSXSXSXGXGXJXJXJXJXJXJXJXJXJXJXGXGXJXJXJXJXJXJXJXJXJXJXJXJXJXJXJXJXJXJXJXJXJXJXJXJXJXJXJXJXJXJXJXJXJXnXxXhXhXhXhXhXhXnXGXGXGXGXSXGXGXGXGXGXJXJXJXJXJXJXJXJXJXJXJXJXJXJXJXJXJXJXJXJXJXJXJXJXJXJXJXJXJXJXJXJXJXJXJXJXJXJXJXJXJXJXJXJXJXJXJXJXJXJXJXJXJXJXJXJXJXJXJXJXJXJXJXJXJXGXGXSXDXbXxXrXrXhXxXhXxXNXFXJXFXJXJXJXJXJXJXJXJXJXJXJXJXJXJXJXJXJXJXJXJXJXJXJXJXJXJXFXSXSXSXSXJXSXDXDXnXbXxXhXhXhXhXhXhXbXDXGXGXGXGXJXJXJXGXGXSXGXAXSXDXnXcXzXzXzX7X@X@X#X#X$X .T F F K J J J J J J J J J H H H H H H J J J P U U U R !.Q.^.Q.Q.Q.Q.Q.Q.Q.Q.Q.Q.Q.W.W.W.^.W.W.^.^.W.W.).).).).W.W.W.).W.W.W.W.W.W.W.W.).).).).).).).).).).).).).).).).).).).).).).).).).).).).).).).).).).).).).).).",
"` ` ` ` ` ` ` ` ` ` ` ` ` ` ` ` ` ` ` ` ` ` ` ` ` ` ` ` ` ` ` ` ` ` ` ` ` ` ` ` ` ` ` ` ` ` ` ` ` ` ` ` ` ` ` ` ` ` ` ` ` ` ` ` ` ` ` ` ` ` ` ` ` ` ` ` ` ` ` ` ` ` ` ` ` ` ` ` ` ` ` ` ` ` ` ` ` ` ` ` ` ` ` ` ` ` ` ` ` ` ` ` ` ` ` ` ` ` ` ` ` ` ` ` ` ` ` ` ` ` ) ' ` ` ` ` ` ` ` ` ` ` ` ] ] E V m u a w w t e 4.s.n.n.b.a.M.s.t.1.g 4 3 2 g g 2.t.s.s.a.s.b.m.m.m.m.m.c.c.c.c.c.c.c.b.b.b.b.b.b.b.b.b.b.b.b.b.b.b.b.b.b.b.b.c.c.c.c.c.c.c.c.c.c.c.c.c.c.c.b.b.b.b.b.b.b.b.b.b.b.b.b.b.b.b.m.m.b.b.b.z.a.a.a.a.a.s.3.4.g i w w r t 7 A.yXvXvXbXNXSXIXPXJXSXSXGXGXGXJXJXJXJXJXJXJXJXJXJXGXGXJXJXJXJXJXJXJXJXJXJXJXJXJXJXJXJXJXJXJXJXJXJXJXJXJXJXJXJXJXJXJXJXGXnXxXhXhXhXhXhXxXNXGXGXGXGXSXGXGXGXGXGXJXJXJXJXJXJXJXJXJXJXJXJXJXJXJXJXJXJXJXJXJXJXJXJXJXJXJXJXJXJXJXJXJXJXJXJXJXJXJXJXJXJXJXJXJXJXJXJXJXJXJXJXJXJXJXJXJXJXJXJXJXJXJXJXJXGXGXSXAXnXxXrXrXhXxXhXhXnXAXJXJXFXJXJXJXJXJXJXJXJXJXJXFXFXFXFXFXFXFXFXFXFXFXFXFXFXFXFXSXSXSXSXJXJXSXDXCXbXcXhXrXhXhXhXrXcXnXAXJXGXGXGXGXGXGXGXGXGXGXSXSXDXnXxXzXzXzX@X@X@X#X+X*.Y F H K J J J K K J J J J K H H H H H H P P P P P U R !.Q.Q.Q.Q.Q.^.Q.Q.Q.Q.Q.Q.Q.W.W.^.^.W.W.W.W.W.W.).).).).W.W.W.).W.W.W.W.W.W.W.W.).).).).).).).).).).).).).).).).).).).).).).).).).).).).).).).).).).).).).).).",
"` ` ` ` ` ` ` ` ` ` ` ` ` ` ` ` ` ` ` ` ` ` ` ` ` ` ` ` ` ` ` ` ` _ _ _ _ _ _ _ _ _ _ _ _ _ _ ` ` ` ` ` ` ` ` ` ` ` ` ` ` ` ` ` ` ` ` ` ` ` ` ` ` ` ` ` ` ` ` ` ` ` ` ` ` ` ` ` ` ` ` ` ` ` ` ` ` ` ` ` ` ` ` ` ` ` ` ` ` ` ` ` ` ` ` ` ` ` ` ` ` ` ` ` ` ` ` ` ` ` ` ` ` ` ` ' ` ` ` ` ` ` ` ] ] E W n u a w w s t 4.s.N.M.m.r.b.a.a.t.3.1.g g 4 4 g g 1.3.s.s.b.b.b.m.m.m.z.z.c.c.c.c.c.c.z.b.b.b.b.b.b.b.b.b.b.b.b.b.b.b.b.b.b.b.b.b.b.b.b.b.b.b.b.b.b.b.b.b.b.b.b.b.b.b.b.b.b.b.b.b.b.b.b.b.b.b.b.b.b.z.a.a.a.t.t.2.2.<.i i w r r t 7 A.dXvXvXbXCXJXIXIXIXSXGXGXGXGXJXJXJXJXJXJXJXJXJXJXGXGXJXJXJXJXJXJXJXJXJXJXJXJXJXJXJXJXJXJXJXJXJXJXJXJXJXJXJXJXJXJXJXJXGXnXhXrXhXhXhXhXcXNXGXGXGXGXSXGXGXGXGXGXJXJXJXJXJXJXJXJXJXJXJXJXJXJXJXJXJXJXJXJXJXJXJXJXJXJXJXJXJXJXJXJXJXJXJXJXJXJXJXJXJXJXJXJXJXJXJXJXJXJXJXJXJXJXJXJXJXJXJXJXJXJXJXJXJXGXGXSXGXCXcXhXrXhXxXxXhXbXDXJXJXSXSXJXJXJXJXJXJXGXGXJXFXFXFXFXFXFXFXFXFXFXFXFXFXFXFXFXSXSXSXSXJXJXGXSXDXnXcXhXhXxXxXxXhXhXbXCXJXJXGXGXGXGXGXGXGXGXGXGXSXSXDXbXzXzXzX7X@X@X#X#X$XY K K J J J J J J J J J J H H H H H H P P P P P P U R !.!.Q.Q.Q.Q.^.Q.Q.Q.Q.Q.Q.Q.W.W.^.^.^.W.^.^.W.W.W.W.W.W.^.^.W.W.W.W.W.W.W.^.^.W.W.W.W.W.^.^.^.^.^.^.W.W.W.W.W.).).).).).).).).).).).).).).W.).W.).W.W.W.W.W.W.",
"` ` ` ` ` ` ` ` ` ` ` ` ` ` ` ` ` ` ` ` ` ` ` ` ` ` ` ` ` ` ` ` _ _ _ _ _ _ _ _ _ _ _ _ _ _ _ _ ` ` ` ` ` ` ` ` ` ` ` ` ` ` ` ` ` ` ` ` ` ` ` ` ` ` ` ` ` ` ` ` ` ` ` ` ` ` ` ` ` ` ` ` ` ` ` ` ` ` ` ` ` ` ` ` ` ` ` ` ` ` ` ` ` ` ` ` ` ` ` ` ` ` ` ` ` ` ` ` ` ` ` ` ` ` ` ` ` ` ` ` ` ` ` ] T  .R n f a w w s t x s.N.M.M.r.a.a.h.a.a.t.t.3.g g 4 3 g g 2.3.t.r.a.b.b.b.b.z.m.c.c.c.c.c.z.z.b.b.b.b.b.b.b.b.b.b.b.b.b.b.b.b.b.b.b.b.b.b.b.b.b.b.b.b.b.b.b.b.b.b.b.b.b.b.b.b.b.b.b.b.b.b.b.b.b.b.b.b.r.r.r.t.t.3.1.<.<.g i i w y t 7 7 S.dXvXvXbXDXJXFXIXIXSXGXGXGXGXJXJXJXJXJXJXJXJXJXJXGXGXJXJXJXJXJXJXJXJXJXJXJXJXJXJXJXJXJXJXJXJXJXJXJXJXJXJXJXJXJXJXJXJXSXnXhXrXhXhXhXhXcXCXJXGXGXGXSXGXGXGXGXGXJXJXJXJXJXJXJXJXJXJXJXJXJXJXJXJXJXJXJXJXJXJXJXJXJXJXJXJXJXJXJXJXJXJXJXJXJXJXJXJXJXJXJXJXJXJXJXJXJXJXJXJXJXJXJXJXJXJXJXJXJXJXJXJXJXGXGXSXSXDXbXhXhXhXhXxXhXcXnXSXJXFXJXJXJXJXJXGXGXGXGXJXFXFXFXFXFXFXFXFXFXFXFXFXFXFXFXFXSXSXSXSXJXJXJXGXAXCXnXcXxXxXxXxXhXhXzXnXDXJXSXSXSXGXJXGXSXSXGXJXAXFXSXnXbXzXzXzXzX@X@X@X#XE K K K J J J J J J J J J H H H H H H P P P P K P U Y { !.Q.Q.Q.Q.Q.Q.Q.Q.Q.Q.Q.Q.W.W.^.^.W.W.^.^.W.W.W.W.W.W.^.^.W.W.W.W.W.W.W.^.W.W.W.W.W.W.^.^.^.^.W.W.W.W.W.W.W.^.W.W.).W.).W.).W.).W.).W.W.^.W.W.W.W.W.W.W.W.W.",
"` ` ` ` ` ` ` ` ` ` ` ` ' ` ' ` ` ` ` ` ` ` ` ` ` ` ` ` ` ` ` ` _ _ _ _ _ _ ' ' _ _ _ _ _ _ _ _ ` ` ` ` ` ` ` ` ` ` ` ` ` ` ` ` ` ` ` ` ` ` ` ` ` ` ` ` ` ` ` ` ` ` ` ` ` ` ` ` ` ` ` ` ` ` ` ` ` ` ` ` ` ` ` ` ` ` ` ` ` ` ` ` ` ` ` ` ` ` ` ` ` ` ` ` ` ` ` ` ` ` ` ` ` ` ` ` ` ` ` ` ` ` ` ] ]  .E n f a w w t t x s.N.N.M.a.b.m.m.b.b.a.a.a.t.2.<.g 4 g g <.2.3.t.t.a.b.b.b.m.m.c.c.c.c.z.z.b.b.b.b.b.b.b.b.b.b.b.b.b.b.b.b.b.b.b.b.b.b.b.b.b.b.b.b.b.b.b.b.b.b.b.b.b.b.b.b.b.b.b.b.b.b.b.b.b.a.a.r.r.t.t.3.2.<.<.<.<.4.<.a y y t 7 7 S.dXvXxXbXDXJXSXFXIXIXIXGXGXGXGXGXGXGXJXJXJXJXJXJXGXGXJXJXJXJXJXJXJXJXJXJXJXJXJXJXJXJXJXJXJXJXJXJXJXJXJXJXJXJXJXJXJXJXAXnXhXrXhXhXhXhXcXCXJXGXGXGXSXGXGXGXGXGXJXJXJXJXJXJXJXJXJXJXJXJXJXJXJXJXJXJXJXJXJXJXJXJXJXJXJXJXJXJXJXJXJXJXJXJXJXJXJXJXJXJXJXJXJXJXJXJXJXJXJXJXJXJXJXJXJXJXJXJXJXJXJXJXJXGXGXSXAXDXnXxXhXhXhXxXhXxXnXAXGXGXJXGXGXGXGXGXGXGXJXGXJXFXFXFXFXFXFXFXFXFXFXFXFXFXFXFXFXFXFXFXGXGXJXJXGXDXNXbXcXxXxXhXhX%X%XmXUXDXSXSXSXSXFXFXFXFXFXFXAXFXFXSXnXmXzXzXzX7X@X7X#X~.Y K K K K K K K K K P P K K K K P K P H P J J P U Y { !.Q.Q.Q.Q.Q.Q.^.^.^.^.^.^.^.^.W.W.^.^.^.^.^.^.Q.Q.Q.^.^.^.^.^.^.^.^.^.^.^.^.^.^.^.^.^.^.^.^.^.^.^.^.^.^.^.^.^.^.^.W.^.W.^.W.^.W.^.W.^.^.^.^.^.W.].).].).].).",
"` ' ' ' ' ' ` ` ` ' ' ' ' ' ' ' ` ` ' ' ' ' ` ` ' ' ' ` ` ' ' ' ` _ ` _ ` _ ' ' ' ' ' ' ` _ ` ` ` ` ` ` ` ` ` ` ` ` ` ` ` ` ` ` ` ` ` ` ` ` ` ` ` ` ` ` ` ` ` ` ` ` ` ` ` ` ` ` ` ` ` ` ` ` ` ` ` ` ` ` ` ` ` ` ` ` ` ` ` ` ` ` ` ` ` ` ` ` ` ` ` ` ` ` ` ` ` ` ` ` ` ` ` ` ` ` ` ` ` ` ` ` ` ] ]  .E q f p w w e e x s.N.N.M.a.M.m.m.b.a.a.a.b.a.t.3.1.g 4 4 3 <.<.2.t.a.a.b.b.m.m.b.b.b.b.b.b.b.b.b.b.b.b.b.b.b.b.b.b.b.b.b.b.b.b.b.b.b.b.b.b.b.b.b.b.b.b.b.b.b.b.b.b.b.b.b.b.b.b.b.b.b.b.b.b.a.a.r.r.t.3.1.1.1.<.4 <.1.2.4.4.i p t 7 7 S.dXdXxXnXDXFXSXSXIXIXIXGXGXGXGXGXGXGXJXJXJXJXJXJXGXGXJXJXJXJXJXJXJXJXJXJXJXJXJXJXJXJXJXJXJXJXJXJXJXJXJXJXJXJXJXJXJXJXAXbXhXrXhXhXhXhXbXCXJXGXGXSXSXGXGXGXGXGXJXJXJXJXJXJXJXJXJXJXJXJXJXJXJXJXJXJXJXJXJXJXJXJXJXJXJXJXJXJXJXJXJXJXJXJXJXJXJXJXJXJXJXJXJXJXJXJXJXJXJXJXJXJXJXJXJXJXJXJXJXJXJXJXJXGXGXSXDXAXNXcXhXhXhXxXxXhXbXDXGXJXJXGXGXGXGXGXJXJXJXJXGXFXFXFXFXFXFXFXFXFXFXFXFXFXFXFXFXFXJXFXGXGXJXJXJXJXDXnXcXxXhXXX%X%X%XcXnXUXDXDXSXSXFXFXFXFXFXFXAXFXJXJXDXnXcXzXXX%X7X7XmX#XE U V K K K K K K K K P P P P P P P P H P P J P U W { !.^.^.Q.Q.Q.Q.^.^.^.^.^.^.^.^.W.W.^.^.^.^.^.^.Q.Q.Q.Q.^.^.^.^.^.^.^.^.^.^.^.^.^.^.^.^.^.^.^.^.^.^.^.^.^.^.^.^.^.^.^.^.^.^.^.^.^.^.^.^.^.^.^.^.^.].].].].].].",
"` ` ' ' ' ' ' ' ` ` ` ' ' ' ' ' ' ' ' ' ` ` ` ` ' ' ` ' ' ' ' ' ) ) ' ' ' ' ' ' ' ' ' ' ` ` ` ` ` ` ` ` ) ) ` ` ` ` ` ` ` ` ` ` ` ` ` ` ` ` ` ` ` ` ` ` ` ` ` ` ` ` ` ` ` ` ` ` ` ` ` ` ` ` ` ` ` o.o.o.o.o.o.o.T ` ` ` ` ` ` ` ` ` ` ` ` ` ` ` ` ` ` ` ` ` ` ` ` ` ` ` ` ` ` ` ` ` ` ` ` ` ` ` ]  .E q 7 p y y t s z s.s.M.b.a.m.m.b.b.b.b.a.a.a.a.a.t.2.1.g 4 4 4 g <.1.3.r.b.b.b.m.m.m.b.r.r.r.r.z.c.m.c.z.r.m.m.m.c.c.z.z.z.b.b.b.b.b.b.b.b.b.b.b.b.b.m.m.m.m.m.m.m.m.b.a.r.b.b.b.b.b.b.b.b.a.r.t.3.1.<.4 4 4 <.1.2.3.3.2.4.i e t t 7 `.dXdXvXnXDXSXFXIXJXIXIXGXGXGXGXGXGXGXKXKXJXJXJXJXGXGXJXJXJXJXJXJXJXJXJXJXJXJXJXJXJXJXJXJXJXJXJXJXJXJXJXGXGXGXJXJXGXGXDXbXhXhXhXhXhXhXbXDXGXJXJXGXJXGXJXJXJXJXJXJXJXJXJXJXJXJXJXJXJXJXJXJXJXJXJXJXJXJXJXJXJXJXJXJXJXJXJXJXJXJXJXJXJXJXJXJXJXJXJXJXJXJXJXJXJXJXJXJXJXJXJXJXJXJXJXJXJXJXJXJXJXJXGXGXGXGXGXSXDXbXhXhXxXhXhXxXbXDXJXGXGXJXGXGXGXGXJXGXGXGXJXJXIXIXIXIXIXFXJXJXJXIXIXIXIXIXIXIXIXIXJXJXJXJXPXJXSXNXbXxXzXcXzXzXzX%XzXnXSXSXSXSXSXSXSXSXSXSXSXSXFXJXJXDXbXzXxXxXxX7X@X@X(.R K K V V K K K F K K K F F F F K H H H H J J U U { !.^.^.^.^.^.Q.^.Q.Q.Q.^.^.Q.Q.^.^.W.W.^.^.^.^.Q.E.E.E.^.^.^.^.Q.Q.W.W.W.^.Q.^.^.^.^.^.W.W.W.W.^.^.^.^.^.^.^.^.^.^.^.^.^.^.^.^.^.^.^.^.^.^.^.^.^.^.^.^.^.^.^.",
"` ` ` ` ` ` ` ` ` ` ` ` ` ` ` ` ` ` ` ` ` ` ` ` ` ` ` ` ` ` ` ` ` ` ` ` ` ` ` ` ` ` ` ` ` ` ` ` ) ) ' ' ` ` ` ` ` ` ` ` ` ` ` ` ` ` ` ` ` ` ` ` ` ` ` ` ` ` ` ` ` ` ` ` ` ` ` ` ` ` ` ` ` ` ` ` ` o.o.o.o.o.o.T ` ` ` ` ] ` ] ] ] ` ] ` ` ` ` ` ] ] ] ] ] ` ] ] ` ` ] ` ] ` ] ` ] ` ] ` ] ] ] ] ]  .~.n 8 r w i t t z s.s.n.n.a.b.m.b.b.b.b.a.a.a.a.a.t.t.2.<.<.g g g g <.1.3.t.t.s.s.n.M.b.b.r.m.m.m.c.r.r.r.r.r.r.r.r.r.r.r.r.b.b.b.b.b.b.b.b.r.r.r.r.r.r.r.r.b.b.b.m.b.b.r.r.b.m.m.b.b.r.r.r.t.3.1.<.4 V.<.1.1.1.t.t.t.s.2.4.i e t t < `.dXxXvXnXDXGXFXIXIXIXIXIXGXGXGXGXGXGXKXKXJXJXJXJXGXGXJXJXJXJXJXJXJXJXJXJXJXJXJXJXJXJXJXJXJXJXJXJXJXJXJXGXGXGXJXJXGXGXDXbXhXhXhXhXhXhXbXDXGXJXJXGXJXGXJXJXJXJXJXJXJXJXJXJXJXJXJXJXJXJXJXJXJXJXJXJXJXJXJXJXJXJXJXJXJXJXJXJXJXJXJXJXJXJXJXJXJXJXJXJXJXJXJXJXJXJXJXJXJXJXJXJXJXJXJXJXJXJXJXJXJXJXGXGXGXGXGXSXDXnXhXhXxXhXhXhXbXDXJXJXGXGXSXSXSXSXIXSXSXSXSXFXIXFXIXFXIXFXIXJXIXFXFXFXFXIXFXIXIXIXJXJXIXJXIXGXGXDXnXmXxXxXzXcXzX7XzXnXDXSXSXSXSXSXSXSXSXSXSXSXJXJXJXDXnXcXxXxXxXzX7XmX@X~.U P V V K P K F K K F F F F F F F H H K K J P U { !.Q.Q.^.^.^.Q.Q.Q.Q.Q.Q.Q.Q.Q.Q.Q.Q.Q.Q.Q.Q.Q.Q.E.E.E.^.^.^.^.Q.Q.Q.Q.Q.Q.Q.Q.^.^.Q.Q.Q.Q.Q.E.^.^.^.^.^.^.^.^.Q.Q.Q.Q.^.^.^.^.^.^.^.^.^.^.Q.Q.^.^.^.^.^.^.^.",
"` ` ` ` ` ` ` ` ` ` ` ` ` ` ` ` ` ` ` ` ` ` ` ` ` ` ` ` ` ` ` ] ` ` ` ` ] ] ] ] ] ] ] ] ] ] ] ` ' ) ) ' ` ` ` ` ` ` ` ` ` ` ` ` ` ` ` ` ` ` ` ` ` ` ` ` ` ` ` ` ` ` ` ` ` ` ` ` ` ` ` ` ` ` ` ` ` ` o.o.o.o.` ` ` ` ] ] ] ] ] ] ] ] ] ] ] ] ] ] ] ] ] ] ] ] ] [ ] ] ] ] ] ] ] ] ] ] ] ] ] ] ] ] ]  .~.U f r w w t t g k.s.n.b.a.b.b.b.b.b.b.b.b.b.b.b.b.r.t.t.3.<.<.g 4 4 g <.<.2.3.t.a.b.b.b.b.m.m.b.r.r.b.b.m.b.b.b.b.b.b.b.b.z.z.r.r.r.r.a.a.b.b.b.b.b.b.r.r.r.r.b.b.b.b.b.b.b.m.b.r.r.t.3.3.1.<.<.g V.1.1.3.t.t.r.a.a.s.2.4.i e t 7 < `.dXdXvXnXDXSXSXSXIXIXJXJXJXGXGXGXKXJXKXKXJXJXGXGXGXGXJXJXJXJXJXJXJXJXJXJXJXJXJXJXJXJXJXJXJXJXJXJXJXJXJXGXGXGXJXJXGXGXCXbXhXhXhXhXhXhXbXDXGXJXGXGXJXGXJXJXJXJXJXJXJXJXJXJXJXJXJXJXJXJXJXJXJXJXJXJXJXJXJXJXJXJXJXJXJXJXJXJXJXJXJXJXJXJXJXJXJXJXJXJXJXJXJXJXJXJXJXJXJXJXJXJXJXJXJXJXJXJXJXJXJXJXGXGXGXGXGXGXDXnXxXhXxXhXxXhXcXnXSXGXSXSXIXIXIXSXIXFXFXSXSXSXIXSXSXFXSXSXFXFXIXFXIXIXIXIXIXIXIXIXIXFXIXJXSXSXIXGXAXnXcXzXzXzXzXzXzXmXnXDXIXGXIXIXIXIXIXGXSXSXSXFXIXSXUXnXxXzXzXzX@XzX@X#XY Y P K P P P F K F F F F F F F H H P K K P P P { { !.Q.Q.^.^.Q.Q.^.Q.^.^.^.^.^.Q.Q.W.^.Q.Q.Q.Q.Q.Q.Q.Q.^.^.^.^.^.^.^.^.^.^.^.^.^.^.^.^.^.^.^.^.^.^.^.^.^.^.^.^.^.^.^.^.^.^.^.^.^.^.^.^.^.^.^.^.^.^.^.^.^.^.^.",
"*.*.*.*.*.-.*.-.*.*.*.*.*.*.*.*.*.-.*.-.*.*.*.*.*.-.*.-.*.-.*.*.*.*.*.*.*.*.*.*.*.*.*.*.*.*.*.*.-.&.] ' ` ` ` ` ` ` ` ` ` ` ` ` ` ` ` ` ` ` ` ` ` ` ` ` ` ` ` ` ` ` ` ` ` ` ` ` ` ` ` ` ` ` ` ` ` ` o.o.o.o.o.@.*.*.*.*.*.*.*.*.*.*.*.*.*.*.*.*.*.*.*.*.*.*.*.*.*.*.*.*.*.*.*.*.*.-.*.*.*.*.*.*.*.$X#XA.f r w w w t g k.s.s.n.b.b.b.b.b.b.b.b.b.b.b.m.m.b.a.r.r.3.2.1.<.4 4 4 4 <.4.2.3.s.a.n.b.b.a.a.a.b.m.m.m.b.b.b.b.a.a.a.a.r.r.r.r.r.r.a.a.b.b.b.b.b.b.b.b.r.z.b.b.b.b.b.b.r.r.t.t.3.1.1.1.1.1.1.1.3.t.t.r.r.r.r.a.a.t.4.g g r t 7 < `.dXdXvXnXAXGXSXSXIXIXJXJXJXGXGXGXJXJXKXKXJXJXGXGXGXGXJXJXJXJXJXJXJXJXJXJXJXJXJXJXJXJXJXJXJXJXJXJXJXJXJXGXGXGXJXJXGXGXCXbXhXhXhXhXhXhXbXDXGXJXGXSXGXGXJXJXJXJXJXJXJXJXJXJXJXJXJXJXJXJXJXJXJXJXJXJXJXJXJXJXJXJXJXJXJXJXJXJXJXJXJXJXJXJXJXJXJXJXJXJXJXJXJXJXJXJXJXJXJXJXJXJXJXJXJXJXJXJXJXJXJXJXGXGXGXGXGXGXAXNXcXhXhXhXxXhXzXnXDXSXSXAXSXSXDXDXFXFXDXDXSXSXFXSXSXSXSXSXFXSXFXSXFXSXFXSXFXSXFXSXFXSXFXSXSXSXIXIXIXUXmXcXzXzXzX7X7XzXnXUXIXIXIXIXIXIXIXIXIXSXSXFXIXSXDXUXmXzX7X7X@X7X7X#X . .E E E E E E E E E E E E E E E E E E E E E  .~.(.(.(.(.}.}.(.}.}.}.}.}.}.}.}.}.}.}.}.}.}.}.}.}.}.}.}.}.}.}.}.}.}.}.}.}.}.}.}.}.}.}.}.}.}.}.}.}.}.}.}.}.}.}.}.}.}.}.}.}.}.}.}.}.}.}.}.}.}.}.}.}.}.}.}.}.}.}.",
">X>X>X>X>X>X>X>X>X>X>X>X>X>X>X>X>X>X>X>X>X>X>X>X>X>X>X>X>X>X>X>X>X>X>X>X>X>X>X>X>X>X>X>X>X>X>X>X>X>.-.` ) ` ` ` ` ` ` ` ` ` ` ` ` ` ` ` ` ` ` ` ` ` ` ` ` ` ` ` ` ` ` ` ` ` ` ` ` ` ` ` ` ` ` ` ` ` o.o.` ` @.=.>X>X>X>X>X>X>X>X>X>X>X>X>X>X>X>X>X>X>X>X>X>X>X>X>X>X>X>X>X>X>X>X>X>X>X>X>X>X>X>X>X:X8X~.n u w i e t f i.s.s.n.n.b.b.b.b.b.b.b.b.b.b.m.m.m.b.z.b.r.t.t.2.1.<.g 4 g g g <.2.2.t.t.b.b.b.b.m.b.b.b.b.b.b.a.a.a.a.r.a.a.r.a.b.a.b.a.a.b.b.b.b.b.b.b.m.b.a.r.t.t.t.t.2.1.1.1.<.<.1.1.3.t.t.r.r.r.r.r.r.r.r.r.t.3.4.g i r t 7 < `.dXdXbXNXAXGXSXSXIXIXJXJXGXGXGXGXKXKXKXKXJXGXGXGXGXGXJXJXJXJXJXJXJXJXJXJXJXJXJXJXJXJXJXJXJXJXJXJXJXJXJXGXGXGXJXJXGXGXDXbXhXhXhXhXhXhXbXDXGXJXGXSXGXGXJXJXJXJXJXJXJXJXJXJXJXJXJXJXJXJXJXJXJXJXJXJXJXJXJXJXJXJXJXJXJXJXJXJXJXJXJXJXJXJXJXJXJXJXJXJXJXJXJXJXJXJXJXJXJXJXJXJXJXJXJXJXJXJXJXJXJXJXGXGXGXGXGXGXGXCXbXhXhXhXzX%X7XmXUXSXFXDXMXMXMXMXMXMXMXMXMXMXMXMXMXMXMXMXMXMXMXMXMXMXMXMXMXMXMXMXMXMXMXDXFXDXSXIXIXUXmXmXmX7X7XmXzX7XmXUXFXFXFXFXFXFXFXFXFXDXMXDXFXFXMXMXmX8X7X7X7X8X8X8X#X+X#X#X#X8X8XwX8X8XwXwX8X8X8X8XwXwX8X8X8XwXwX8X8X8XwXwX8X8X8X8X8X8X8X8X8X8X8X8X8X8X8X8X8X8X8X8X8X8X8X8X8X8X8X8X8X8X8X8X8X8X8X8X8X8X8X8X8X8X8X8X8X8X8X8X8X8X8X8X8X8X8X8X8X8X8X8X8X8X8X8X8X8X8X8X8X8X8X8X8X8X8X",
"0X0X0X0X0X0X0X0X0X0X0X0X0X0X0X0X0X0X0X0X0X0X0X0X0X0X0X0X0X0X0X0X0X0X0X0X0X0X0X0X0X0X0X0X9X0X0X9X9X>X-.` ) ' ` ` ` ` ` ` ` ` ` ` ` ` ` ` ` ` ` ` ` ` ` ` ` ` ` ` ` ` ` ` ` ` ` ` ` ` ` ` ` ` ` ` ` ' o.` ` ) ] =.9X9X9X9X9X9X9X9X9X9X9X9X9X9X9X9X9X9X9X9X9X9X9X9X9X9X9X9X9X9X9X9X9X9X9X9X9X9X9X9X9XwXMXpXZ y e i e t f i.s.s.n.n.n.a.b.b.b.b.b.b.b.b.b.b.b.b.b.b.b.b.b.r.t.3.1.<.g g g g g <.1.2.t.t.t.a.b.b.b.a.M.b.M.b.n.b.n.b.b.b.b.b.b.b.b.b.m.m.m.m.m.m.m.m.a.r.t.3.2.1.1.<.1.<.1.<.1.2.t.t.a.a.a.r.z.r.b.z.r.r.r.r.t.3.4.g i r t 7 < `.dXdXnXCXAXGXSXSXIXIXJXJXJXJXJXJXJXJXKXKXGXGXGXGXGXGXJXJXJXJXJXJXJXJXJXJXJXJXJXJXJXJXJXJXJXJXJXJXJXJXJXGXGXGXJXJXGXGXDXbXhXhXhXhXhXhXbXAXGXJXGXSXGXGXJXJXJXJXJXJXJXJXJXJXJXJXJXJXJXJXJXJXJXJXJXJXJXJXJXJXJXJXJXJXJXJXJXJXJXJXJXJXJXJXJXJXJXJXJXJXJXJXJXJXJXJXJXJXJXJXJXJXJXJXJXJXJXJXJXJXJXJXGXGXGXGXGXGXJXDXbXhXhXhX7X%X%XcXnXDXDXMXMXMXMXMXMXMXMXMXMXMXMXMXMXMXMXMXMXMXMXMXMXMXMXMXMXMXMXMXMXMXMXMXMXMXMXMXMXMXMXMXmXmXmXmXmXmXMXMXMXMXMXMXMXMXMXMXMXMXMXMXMXMXMXMXMXmX8XMXMXqXqXqXwXqXMXMXMXMXMXMXMXMXMXMXMXMXMXMXMX0XMX0XMXMXMXMXMXMXMXMXMXMXMXMXMXMXMXMXMXMXMXMXMXMXMXMXMXMXMXMXMXMXMXMXMXMXMXMXMXMXMXMXMXMXMXMXMXMXMXMXMXMXMXMXMXMXMXMXMXMXMXMXMXMXMXMXMXMXMXMXMXMXMXMXMXMXMXMXMXMXMXMXMXMXMX",
"0X0X0X0X0X0X0X0X0X0X0X0X0X0X0X0X0X0X0X0X0X0X0X0X0X0X0X0X0X0X0X0X0X0X0X0X0X0X0X0X0X0X0X0X0X0X0X0X9X>X-.' ) ' ` ' ` ` ` ` ` ` ` ` ` ` ` ` ` ` ` ` ` ` ` ` ` ` ` ` ` ` ` ` ` ` ` ` ` ` ` ` ` ` ` ` ` ) ` ` ` ' ] =.9X9X9X9X9X9X9X9X9X0X9X9X0X0X0X9X9X0X0X0X0X0X0X0X0X9X0X9X0X9X0X9X0X0X0X9X0X9X0X0X0X0XMXfXZ u e i e t f i.s.s.n.n.b.a.a.b.b.b.b.b.r.r.b.b.b.b.b.m.m.m.m.b.a.t.t.3.2.4.<.g g g g g <.<.1.2.3.t.t.t.n.b.n.M.n.M.M.M.m.m.m.m.m.m.m.m.m.m.m.b.r.r.r.r.3.3.2.1.1.<.1.<.1.1.2.3.t.t.a.a.a.a.a.r.r.r.r.r.r.r.r.r.s.3.1.g i e t 7 < S.dXdXBXCXGXGXSXSXIXIXJXJXJXJXJXJXJXJXGXGXGXGXGXGXGXGXJXJXJXJXJXJXJXJXJXJXJXJXJXJXJXJXJXJXJXJXJXJXJXJXJXGXGXGXJXJXGXGXDXbXhXhXhXhXhXhXbXAXJXJXGXAXGXSXJXJXJXJXJXJXJXJXJXJXJXJXJXJXJXJXJXJXJXJXJXJXJXJXJXJXJXJXJXJXJXJXJXJXJXJXJXJXJXJXJXJXJXJXJXJXJXJXJXJXJXJXJXJXJXJXJXJXJXJXJXJXJXJXJXJXJXJXGXGXGXGXGXGXJXAXbXhXhXhX%X%X%X7XnXMXMXMXMXMXMXMXMXMXMXMXMXMXMXMXMXMXMXMXMXMXMXMXMXMXMXMXMXMXMXMXMXMXMXMXMXMXMXMXMXMXqXqXqXMXMXMXMXMXMXMXMXMXMXMXMXMXMXMXMXMXMXMXMXMXMXMXMXqXqXMXMX0X0X0XMXMXMXMXMXMXMXMXMX0X0X0X0X0X0X0X0X0X0X0X0X0X0X0X0X0X0XMXMXMXMX0X0X0X0X0X0X0X0X0X0X0X0X0X0X0X0X0X0X0X0X0X0X0X0X0X0X0X0X0X0X0X0X0X0X0X0X0X0X0X0X0X0X0X0X0X0X0X0X0X0X0X0X0X0X0X0X0X0X0X0X0X0X0X0X0X0X0X0X0X0X0X0X",
"0X0X0X0X0X0X0X0X0X0X0X0X0X0X0X0X0X0X0X0X0X0X0X0X0X0X0X0X0X0X0X0X0X0X0X0X0X0X0X0X0X0X0X0X0X0X0X0X9X;X&.) ) ' ` ) ` ` ` ` ` ` ` ` ` ` ` ` ` ` ` ` ` ` ` ` ` ` ` ` ` ` ` ` ` ` ` ` ` ` ` ` ` ` ` ` ` ) ` ` ` ' ' =.9X9X9X9XqX9X0X0X0X0X0X0X0X0X0X0X0X0X0X0X0X0X0X0X0X0X0X0X0X0X0X0X0X0X0X0X0X0X0X0X9X0XMXmXR 8 r i e t f 8.s.s.n.n.b.a.a.a.b.b.b.b.r.r.r.b.b.m.m.m.m.m.m.b.b.n.a.a.t.3.2.1.<.g 4 4 4 4 g g g <.2.2.3.t.s.s.s.n.n.M.M.m.m.m.m.m.m.m.a.t.t.t.t.3.2.1.<.<.1.1.1.1.2.3.t.t.r.b.b.b.b.a.a.a.r.r.r.r.r.r.r.z.r.r.t.3.4.g i e t 7 < S.dXdXBXCXGXGXSXSXIXIXJXJXJXJXJXJXJXJXGXGXGXGXGXGXGXGXJXJXJXJXJXJXJXJXJXJXJXJXJXJXJXJXJXJXJXJXJXJXJXJXJXGXGXGXJXJXGXGXDXbXhXhXhXhXhXhXbXAXJXJXGXAXGXSXJXJXJXJXJXJXJXJXJXJXJXJXJXJXJXJXJXJXJXJXJXJXJXJXJXJXJXJXJXJXJXJXJXJXJXJXJXJXJXJXJXJXJXJXJXJXJXJXJXJXJXJXJXJXJXJXJXJXJXJXJXJXJXJXJXJXJXJXGXGXGXGXGXGXJXGXnXhXhXhX%X%X%X7XmXMXMXMXMXMXMXMXMXMXMX0XMXMXMXMXMXMXMXMXMXMXMXMXMXMXMXMX0X0X0X0X0X0X0X0XMXqXqX0XqXqXqXqXqXqXqXMXMXqXqXqXqXqXqXqXqXqXqXqXqXqXqXqX0X0X0XqXqXqXqXqXqXqXqX0XMXMX0X0X0X0X0X0XMX0X0X0X0X0X0X0X0X0X0XqX0X0X0X0X0XqX0X0XMXMXMX0X0XqXqXqXqX0X0X0XqXqX0X0XqXqX0XqXqX0X0X0X0X0X0X0X0X0X0X0X0X0X0X0X0X0X0X0X0XqX0XqX0XqX0XqX0X0X0XqX0X0X0X0X0X0X0X0X0X0X0X0X0X0X0X0X0X0X0XqX0X0X0X",
"0X0X0X0X0X0X0X0X0X0X0X0X0X0X0X0X0X0X0X0X0X0X0X0X0X0X0X0X0X0X0X0X0X0X0X0X0X0X0X0X0X0X0X0X0X0X0X0X9X=.] ` ` ) ) ` ` ` ` ` ` ` ` ` ` ` ` ` ` ` ` ` ` ` ` ` ` ` ` ` ` ` ` ` ` ` ` ` ` ` ` ` ` ` ` ` ' ' ' ' ) ' ] [ >X9X0X9X0X0X0X0X0X0X0X0X0X0X0X0X0X0X0X0X0X0X0X0X0X0X0X0X0X0X0X0XqXqX0X0X0X0X0X0X0X0XMXMXR 0 r i i e r k k.s.n.b.s.a.b.b.b.b.b.r.b.b.c.c.c.c.c.b.b.b.b.b.b.b.b.b.a.a.r.t.3.1.<.<.<.g g g i 3 3 3 g g <.<.4.2.3.3.3.3.3.3.3.3.3.3.1.1.1.<.<.g 4 4 <.1.1.3.t.t.r.r.b.b.b.b.a.a.a.b.r.r.z.z.z.z.z.z.z.z.r.r.r.3.4.g e r e 2 < S.dXtXNXHXJXAXSXIXIXIXIXIXGXGXJXJXJXJXJXJXJXJXJXJXJXJXJXJXJXJXJXJXJXJXJXJXJXJXJXJXJXJXJXJXJXJXJXJXJXJXJXJXJXJXGXGXGXAXCXcXhXhXhXhXhXhXnXAXGXGXGXGXGXGXJXJXJXJXJXJXJXJXJXJXJXJXJXJXJXJXJXJXJXJXJXJXJXJXJXJXJXJXJXJXJXJXJXJXJXJXJXJXJXJXJXJXJXJXJXJXJXJXJXJXJXJXJXJXJXJXJXJXJXJXJXJXJXJXJXJXJXJXJXJXJXJXAXGXJXJXDXcXrXhXhX%X%X7XmXUXMXMXMXMXMXMX0X0X0X0XqXqXqXqXMXMXMXqXqXqXMXMXMXqX0XqXqXqXqXqXqXqXqXqX0XqXqXqXqXqXqXqXqXqXqXqXqXqXqXqXqXqXqXqXqXqXqXqX0XqXqXqXqXqXqXqX0X0X0X0X0X0X0X0X0X0X0XMXMXMX0X0X0X0X0X0X0X0X0X0X0X0X0X0X0X0X0X0XqXqX0X0X0X0X0X0X0X0X0X0X0X0X0X0X0X0X0X0X0X0X0X0X0X0X0X0X0X0X0X0X0X0X0X0X0X0X0X0X0X0X0X0X0X0X0X0X0X0X0X0X0X0X0X0X0X0X0X0X0X0X0X0X0X0X0X0X0X0X0X0X0X0X0X0X0X0X0X",
"0X0X0X0X0X0X0X0X0X0X0X0X0X0X0X0X0X0X0X0X0X0X0X0X0X0X0X0X0X0X0X0X0X0X0X0X0X0X0X0X0X0X0X0X0X0X0X0X9X=.` ` ` ) ) ` ` ` ` ` ` ` ` ` ` ` ` ` ` ` ` ` ` ` ` ` ` ` ` ` ` ` ` ` ` ` ` ` ` ` ` ` ` ` ` ` ` ' ' ' ) ` ] [ >X9X0X9X0X0X0X0X0X0X0X0X0X0X0X0X0X0X0X0X0X0X0X0X9X9X0X0X0X0X0XqXqXqX0X0X0X0X9X0X0X0XMXwXR 0 t i i i e g 2.s.s.b.a.a.a.b.b.b.b.b.b.b.c.c.c.c.c.c.b.b.b.b.b.b.b.b.m.m.b.a.r.t.t.3.3.2.2.2.1.4.<.<.g g g g g g g g g g g g g g g g g g <.<.4.1.2.2.3.t.t.r.r.r.a.a.b.b.b.b.a.a.a.a.r.r.z.z.z.z.z.z.z.z.y.y.r.3.4.g e r t 2 < S.fXrXNXHXGXAXSXFXIXIXIXIXGXJXJXJXJXJXJXJXJXJXJXJXJXJXJXJXJXJXJXJXJXJXJXJXJXJXJXJXJXJXJXJXJXJXJXJXJXJXJXJXJXJXGXGXGXAXCXcXhXhXhXhXhXhXnXAXGXGXGXGXGXGXJXJXJXJXJXJXJXJXJXJXJXJXJXJXJXJXJXJXJXJXJXJXJXJXJXJXJXJXJXJXJXJXJXJXJXJXJXJXJXJXJXJXJXJXJXJXJXJXJXJXJXJXJXJXJXJXJXJXJXJXJXJXJXJXJXJXJXJXJXJXJXJXSXGXJXJXDXbXrXhXhXhX%XzXmXnXMXMXMXMX0X0X0X0X0X0XqXqXqXqXqXqXqXqXqXqXqXqXqXqXqXqXqXqXqXqXqXqX0XqX0XqX0XqXqXqXqXqXqXqXqXqXqXqXqX0XqXqXqXqXqXqX0X0X0X0X0X0X0X0X0X0X0X0X0X0X0X0X0X0X0X0X0X0X0X0X0X0X0X0X0X0X0X0X0X0X0X0X0X0X0X0X0X0X0XqXqX0X0X0X0X0X0X0X0X0X0X0X0X0X0X0X0X0X0X0X0X0X0X0X0X0X0X0X0X0X0X0X0X0X0X0X0X0X0X0X0X0X0X0X0X0X0X0X0X0X0X0X0X0X0X0X0X0X0X0X0X0X0X0X0X0X0X0X0X0X0X0X0X0X0X0X0X",
"0X0X0X0X0X0X0X0X0X0X0X0X0X0X0X0X0X0X0X0X0X0X0X0X0X0X0X0X0X0X0X0X0X9X0X0X0X0X0X0X0X0X0X0X0X0X0X0X>X-.` ` ` ` ) ` ` ` ` ` ` ` ` ` ` ` ` ` ` ` ` ` ` ` ` ` ` ` ` ` ` ` ` ` ` ` ` ` ` ` ` ` ` ` ` ` ` ` ` ` ` ` ` ] ;X9X9X9X9X9X0X9X9X9X9X9X9X9X9X9X0X0X0X0X9X9X9X9X9X9X9X9X9X9X0XqXqXqX9X9X9X9X9X9X0X0X0XwXA.0 7 i i i e d 2.s.s.b.a.a.r.r.a.b.b.m.b.b.b.b.c.c.c.c.b.b.b.b.b.b.b.b.m.m.m.m.m.m.b.a.b.r.r.r.t.t.t.t.3.3.1.1.1.1.<.<.<.<.<.<.<.<.<.<.1.1.2.3.3.t.s.a.b.b.b.m.m.m.m.m.a.a.a.a.a.a.a.a.a.a.b.z.z.z.z.z.z.z.y.y.a.t.4.g i r t < < S.yXtXNXHXGXAXSXIXIXIXIXIXIXJXJXJXJXJXJXJXJXJXJXJXJXJXJXJXJXJXJXJXJXJXJXJXJXJXJXJXJXJXJXJXJXJXJXJXJXJXJXJXJXJXGXGXGXSXCXcXhXhXhXhXhXhXnXAXGXGXGXGXGXGXJXJXJXJXJXJXJXJXJXJXJXJXJXJXJXJXJXJXJXJXJXJXJXJXJXJXJXJXJXJXJXJXJXJXJXJXJXJXJXJXJXJXJXJXJXJXJXJXJXJXJXJXJXJXJXJXJXJXJXJXJXJXJXJXJXJXJXJXJXJXJXJXGXJXJXJXDXbXhXhXhX%X%X%XcXnXMXqXqXqXqXqX0X0X0X0XqXqXqXqXqXqXqXqXqXqXqXqXqXqXqXqXqXqX9XqX9XqX9XqX0XqX9XqX0XqX0XqXqXqXqXqXqXqXqXqX0X0X0X0X0X0X0X0X0X0X0X0X0X0X0X0X0X0X0X0X0X0X0X0X0X0X0X0X0X0X0X0X0X0X0X0X0X0X0X0X0X0X0X0X0X0X0X0X0X0X0X0X0X0X0X0X0X0X0X0X0X0X0X0X0X0X0X0X0X0X0X0X0X0X0X0X0X0X0X0X0X0X0X0X0X0X0X0X0X0X0X0X0X0X0X0X0X0X0X0X0X0X0X0X0X0X0X0X0X0X0X0X0X0X0X0X0X0X0X0X0X0X0X0X0X0X0X",
"9X9X9X9X9X9X9X9X9X9X9X9X9X9X9X9X9X9X9X9X9X9X9X9X9X9X9X9X9X9X9X9X9X9X9X9X9X9X9X9X0X9X9X9X9X0X0X9X>X-.` ` ` ` ) ` ` ` ` ` ` ` ` ` ` ` ` ` ` ` ` ` ` ` ` ` ` ` ` ` ` ` ` ` ` ` ` ` ` ` ` ` ` ` ` ` ` ` ` ` ` ` ` ] =.9X9X9X9X9X9X9X9X9X9X9X9X9X9X9X9X9X9X9X9X9X9X9X9X9X9X9X9X9X9X9X9X9X9X9X9X9X9X9X9X9X9XwX~.0 7 e i i e d g 2.s.b.b.b.b.r.r.a.b.b.b.b.b.b.c.c.c.c.b.b.b.b.b.b.b.b.b.b.m.m.m.m.m.m.b.b.b.b.z.z.r.r.b.b.b.z.z.t.t.t.r.r.r.r.r.r.r.r.n.b.n.b.n.b.n.b.m.m.m.m.m.b.a.a.a.a.a.a.a.a.a.a.a.a.b.z.z.z.z.z.c.c.c.c.a.t.4.g p r t < < A.yXtXNXGXKXAXSXIXIXIXIXIXGXJXJXJXJXJXJXJXJXJXJXJXJXJXJXJXJXJXJXJXJXJXJXJXJXJXJXJXJXJXJXJXJXJXJXJXJXJXJXJXJXJXGXGXGXSXCXcXhXhXhXhXhXhXnXAXGXGXGXGXGXGXJXJXJXJXJXJXJXJXJXJXJXJXJXJXJXJXJXJXJXJXJXJXJXJXJXJXJXJXJXJXJXJXJXJXJXJXJXJXJXJXJXJXJXJXJXJXJXJXJXJXJXJXJXJXJXJXJXJXJXJXJXJXJXJXJXJXJXJXJXJXJXJXJXJXJXJXAXnXhXrXhX%X%X7X7X8XqXqXqXqX9X9X9X9X9X9X9X9X9X9X9X9X9X9X9X9X9X9X9X9X9X9X9X9X9X9X9X9X9X9X9X9X9X9X9X9X9X9X0XqX0XqX0XqX0X0X0X0X0X0X0X0X0X0X0X0X0X0X9X9X9X9X0X0X0X0X0X0X0X0X9X9X9X9X0X0X0X0X0X0X0X0X0X0X0X0X0X0X0X0X9X9X9X9X9X9X0X0X0X0X0X0X9X9X9X9X9X9X9X9X9X9X9X9X9X9X9X9X9X9X9X9X9X9X9X9X9X9X9X9X9X9X9X9X9X9X9X9X9X9X9X9X9X9X9X9X9X9X9X9X9X9X9X9X9X9X9X9X9X9X9X9X9X9X9X9X9X9X9X9X9X9X9X",
"9X9X9X5X5X5X9X9X9X9X9X5X9X9X9X9X5X5X9X9X9X9X9X9X6X6X6X9X9X6X5X6X6X6X6X9X9X9X9X9X9X5X5X9X9X9X9X9X>.&.` ` ` ` ' ' ` ` ` ` ` ` ` ` ` ` ` ` ` ` ` ` ` ` ` ` ` ` ` ` ` ` ` ` ` ` ` ` ` ` ` ` ` ` ` ` ` ` ` ` ` ` ` ` =.>X9X9X9X9X9X9X5X5X5X9X9X6X9X9X9X9X9X9X9X9X5X5X5X5X9X6X9X9X9X9X9X9X9X9X9X5X5X5X9X5XwXwX(.q 7 r i i e e g 4.3.s.M.b.b.a.a.a.r.b.b.b.b.b.b.b.c.c.b.b.b.b.b.b.b.b.a.a.b.b.b.b.m.m.m.c.m.c.z.z.z.z.z.z.z.z.z.z.z.z.m.m.n.m.n.m.n.m.M.m.n.n.n.b.b.b.m.m.m.a.a.r.r.r.a.a.a.a.a.a.a.a.a.a.b.z.z.z.z.z.c.c.c.c.a.t.4.g p r t 7 < l.yXtXNXGXKXAXSXGXIXIXIXGXGXJXJXJXJXJXJXJXJXJXJXJXJXJXJXJXJXJXJXJXJXJXJXJXJXJXJXJXJXJXJXJXJXJXJXJXJXJXJXJXJXJXGXGXGXSXCXcXhXhXhXhXhXhXnXAXGXGXGXGXGXGXJXJXJXJXJXJXJXJXJXJXJXJXJXJXJXJXJXJXJXJXJXJXJXJXJXJXJXJXJXJXJXJXJXJXJXJXJXJXJXJXJXJXJXJXJXJXJXJXJXJXJXJXJXJXJXJXJXJXJXJXJXJXJXJXJXJXJXJXJXJXJXJXJXJXJXGXGXnXcXhX%X%X%X%X7X8XqXqX9X6X6X6X9X9X9X9X5X6X9X6X9X6X6X6X6X6X9X6X9X6X9X5X5X6X6X6X6X6X5X5X6X5X6X6X6X6X9X9X9X9X9X9X9X9X9X9X9X9X9X9X9X9X9X9X9X9X6X6X6X9X9X9X6X6X9X6X9X9X9X9X9X9X9X9X9X9X9X9X9X9X9X9X9X9X9X9X9X9X6X6X6X6X9X9X5X5X5X9X9X9X9X9X5X9X9X5X9X9X9X9X9X9X5X5X5X5X9X9X5X5X5X5X9X5X9X5X6X5X6X5X6X5X6X6X5X5X6X6X6X6X9X5X5X5X5X5X9X5X9X5X9X5X9X5X9X5X9X5X9X5X9X5X9X5X9X5X9X5X9X5X9X5X9X",
"5X5X5X5X5X5X5X5X5X5X5X5X5X5X5X5X5X5X5X5X5X5X5X5X5X5X5X5X5X5X5X5X5X5X5X5X5X5X5X5X5X3X,X3X5X5X5X5X=.] ` ` ` ` ' ' ` ` ` ` ` ` ` ` ` ` ` ` ` ` ` ` ` ` ` ` ` ` ` ` ` ` ` ` ` ` ` ` ` ` ` ` ` ` ` ` ` ` ` ` ` o.` ` &.>X5X9X9X5X9X5X5X5X5X5X5X5X5X5X6X6X5X5X5X5X5X5X5X5X5X5X5X5X5X6X5X5X5X5X5X5X5X5X5X5X5XwX#XV 9 u r i e e g g 2.3.b.b.b.a.a.a.r.r.b.b.b.b.b.b.c.b.a.b.b.b.b.b.b.b.b.b.b.a.a.b.b.m.c.c.c.c.c.c.c.c.z.z.z.z.z.z.z.z.b.b.b.b.b.b.b.b.n.b.n.b.b.b.b.b.b.m.a.r.r.a.m.m.a.a.a.a.a.a.a.a.b.m.b.c.c.c.c.c.c.c.c.c.a.t.4.g r r t 7 < l.OXsXNXGXKXAXSXGXIXIXIXGXGXJXJXJXJXJXJXJXJXJXJXJXJXJXJXJXJXJXJXJXJXJXJXJXJXJXJXJXJXJXJXJXJXJXJXJXJXJXJXJXJXJXGXGXGXSXCXcXhXhXhXhXhXhXnXAXGXGXGXGXGXGXJXJXJXJXJXJXJXJXJXJXJXJXJXJXJXJXJXJXJXJXJXJXJXJXJXJXJXJXJXJXJXJXJXJXJXJXJXJXJXJXJXJXJXJXJXJXJXJXJXJXJXJXJXJXJXJXJXJXJXJXJXJXJXJXJXJXJXJXJXJXJXJXJXJXGXGXGXCXbXhX%X%X%X%X7X8XwX9X6X6X5X6X5X5X5X5X5X5X5X6X5X6X5X5X5X6X5X6X5X5X5X5X5X3X3X3X3X3X5X3X5X5X5X6X5X6X5X5X5X6X5X6X5X5X5X5X5X6X5X5X5X5X5X5X5X6X5X6X5X5X5X5X5X6X5X6X5X5X5X5X5X5X5X5X5X5X5X5X5X5X5X5X5X5X5X5X5X5X5X5X5X5X5X5X5X3X5X5X5X5X5X5X5X5X5X5X5X5X5X5X5X5X5X5X5X5X5X5X5X5X5X5X5X5X5X5X5X5X5X5X5X5X5X5X5X5X5X5X5X5X5X5X5X5X5X5X5X5X5X5X5X5X5X5X5X5X5X5X5X5X5X5X5X5X5X5X5X5X5X5X5X5X5X",
"2X3X3X3X3X3X3X3X3X3X1X1X1X1X3X3X1X1X1X1X3X1X3X3X3X3X3X3X1X3X3X3X1X1X1X3X<X<X<X1X,X1X,X1X3X3X3X>X-.' ' ` ` ` ' ' ` ` ` ` ` ` ` ` ` ` ` ` ` ` ` ` ` ` ` ` ` ` ` ` ` ` ` ` ` ` ` ` ` ` ` ` ` ` ` ` ` ` ` ` o.o.` _ [ ;.5X5X5X5X5X5X5X5X5X5X5X5X5X5X5X5X5X5X5X5X5X2X5X5X5X5X5X5X5X5X5X5X5X5X5X5X5X2X5X5X5X9X8XU 9 u r r i i g g 4.2.a.a.a.b.b.b.b.b.b.b.b.b.b.b.b.b.a.b.b.b.b.b.b.b.m.b.a.r.a.b.b.m.z.z.z.z.c.c.c.c.c.c.c.c.c.c.c.z.b.b.b.b.b.b.b.b.b.b.b.b.b.b.b.z.b.b.r.r.r.b.m.m.z.z.z.z.b.b.b.b.b.m.b.c.c.c.c.c.c.c.c.m.a.t.4.g w r e d < l.'.xXNXGXJXAXSXSXIXIXIXIXGXJXJXJXJXJXJXJXJXJXJXJXJXJXJXJXJXJXJXJXJXJXJXJXJXJXJXJXJXJXJXJXJXJXJXJXJXJXJXJXJXJXGXGXGXSXCXcXhXhXhXhXhXhXnXAXGXGXGXGXGXGXJXJXJXJXJXJXJXJXJXJXJXJXJXJXJXJXJXJXJXJXJXJXJXJXJXJXJXJXJXJXJXJXJXJXJXJXJXJXJXJXJXJXJXJXJXJXJXJXJXJXJXJXJXJXJXJXJXJXJXJXJXJXJXJXJXJXJXJXJXJXJXJXJXJXGXGXJXDXbXxXXX7X7X%X7X8XwX6X6X6X,X,X5X5X5X5X5X3X3X3X3X3X5X3X5X3X5X3X3X3X3X,X3X,X3X,X3X,X3X,X3X,X3X,X5X5X5X3X3X,X3X,X3X,X3X3X3X,X3X,X3X,X3X3X3X3X3X3X3X3X3X3X<X,X1X3X3X3X3X3X1X1X1X1X1X1X1X1X1X1X1X1X1X1X1X1X3X1X1X<X1X1X1X<X1X1X1X1X1X3X3X1X1X1X1X1X1X1X3X3X3X3X3X3X3X3X3X3X1X1X1X1X1X1X1X1X<X<X<X<X<X<X<X<X1X<X<X<X<X<X<X<X<X1X<X1X<X1X<X1X3X3X3X3X3X3X3X3X3X3X3X3X3X3X3X3X3X3X3X3X3X3X3X",
"1X1X1X1X1X1X1X1X1X1X1X1X1X1X1X1X1X1X1X1X1X1X1X1X1X1X1X1X1X1X1X1X1X1X1X1X1X<X<X1X1X:.:.:.1X4X2X>X-.' ) ` ` ` ` ) ` ` ` ` ` ` ` ` ` ` ` ` ` ` ` ` ` ` ` ` ` ` ` ` ` ` ` ` ` ` ` ` ` ` ` ` ` ` ` ` ` ` ` ` o.` _ _ ) >.>X5X5X5X5X5X2X2X2X2X2X3X3X3X3X3X3X2X2X2X2X2X2X2X<X<X3X3X3X3X5X5X5X3X3X2X2X2X2X5X4X9XwXR 9 7 e r i g g g <.1.t.t.a.b.b.m.n.b.b.b.b.b.b.b.b.b.b.b.b.b.b.b.b.b.b.a.r.r.r.a.b.m.z.z.z.z.z.z.z.z.z.z.z.z.z.c.c.m.z.b.b.b.b.b.b.b.z.z.z.z.z.z.z.z.b.b.r.r.r.r.b.m.z.z.z.z.z.b.b.b.b.m.b.c.c.c.c.c.c.c.c.m.a.t.4.g w r e d < k.'.xXCXGXJXAXSXSXIXIXIXIXGXJXJXJXJXJXJXJXJXJXJXJXJXJXJXJXJXJXJXJXJXJXJXJXJXJXJXJXJXJXJXJXJXJXJXJXJXJXJXJXJXJXGXGXGXSXCXcXhXhXhXhXhXhXnXAXGXGXGXGXGXGXJXJXJXJXJXJXJXJXJXJXJXJXJXJXJXJXJXJXJXJXJXJXJXJXJXJXJXJXJXJXJXJXJXJXJXJXJXJXJXJXJXJXJXJXJXJXJXJXJXJXJXJXJXJXJXJXJXJXJXJXJXJXJXJXJXJXJXJXJXJXJXJXJXJXSXGXJXAXbXxXXX7X7X%X7X8XwX6X6X6X3X,X3X3X3X3X3X3X3X3X3X3X3X3X3X3X3X3X3X3X3X3X3X3X3X1X3X3X1X1X3X3X3X3X3X3X3X3X1X1X1X1X1X1X1X1X1X,X1X,X<X,X1X1X1X1X1X1X1X1X1X1X,X,X1X1X1X1X1X1X1X:.1X:.1X:.1X1X1X:.1X:.:.:.:.:.1X1X1X:.1X:.1X:.1X1X1X1X1X1X1X1X1X1X1X1X1X1X1X1X1X1X1X1X1X1X1X1X1X1X1X1X1X1X1X1X1X1X1X1X1X1X1X1X1X1X1X1X1X:.1X1X1X1X1X1X1X1X1X1X1X1X1X1X1X1X1X1X1X1X1X1X1X1X1X1X1X1X1X1X1X1X1X",
"1X1X1X1X1X1X1X1X1X1X1X1X1X1X1X1X1X1X1X1X1X1X1X1X1X1X1X1X1X1X1X1X1X1X<X<X<X<X<X1X1X:.1X1X<X2X4X=.[ [ ` ` ` ` ` ` ` ` ` ` ` ` ` ` ` ` ` ` ` ` ` ` ` ` ` ` ` ` ` ` ` ` ` ` ` ` ` ` ` ` ` ` ` ` ` ` ` ` ` ` ` ` ` ' ) >.4X4X2X5X2X2X2X2X<X<X<X<X1X1X1X1X<X<X<X<X2X2X<X<X2X2X<X1X1X1X1X1X<X<X<X<X<X<X1X1X<X5XwXR 0 7 e e e g g g g g <.1.t.b.b.r.a.b.a.r.b.b.b.b.r.r.b.b.b.b.b.b.b.b.b.b.b.b.b.b.b.b.c.c.c.c.c.c.c.c.z.z.z.z.z.z.z.z.z.z.z.z.z.z.z.z.z.z.z.z.z.z.z.z.z.z.z.z.z.z.z.z.z.z.z.z.c.c.c.b.b.m.b.c.c.c.c.c.c.v.m.m.m.t.1.g e e e d < C _.vXCXJXJXSXSXSXIXIXIXIXGXJXJXJXJXJXJXJXJXJXJXJXJXJXJXJXJXJXJXJXJXJXJXJXJXJXJXJXJXJXJXJXJXJXJXJXJXJXJXJXJXJXJXGXGXGXCXcXhXhXhXhXhXhXnXAXGXGXGXGXJXGXJXJXJXJXJXJXJXJXJXJXJXJXJXJXJXJXJXJXJXJXJXJXJXJXJXJXJXJXJXJXJXJXJXJXJXJXJXJXJXJXJXJXJXJXJXJXJXJXJXJXJXJXJXJXJXJXJXJXJXJXJXJXJXJXJXJXJXJXJXJXJXJXJXGXJXJXGXGXNXxXXXXX7X7X7X8X8X6X6X6X1X3X3X3X<X<X1X1X1X1X3X1X1X1X1X1X1X1X1X1X1X1X1X1X1X1X1X1X1X1X1X1X1X1X3X3X3X3X3X1X3X1X2X1X2X1X3X1X2X1X2X1X2X<X1X1X1X1X1X1X1X1X1X1X1X1X1X1X1X1X1X1X1X1X1X1X1X1X1X1X1X1X1X1X1X1X1X1X1X1X1X1X1X1X1X1X1X1X1X1X1X1X1X1X1X1X1X1X1X1X1X1X1X1X1X1X1X1X1X1X1X1X1X1X1X1X1X1X1X1X1X1X1X1X1X1X1X1X1X1X1X1X1X1X1X1X1X1X1X1X1X1X1X1X1X1X1X1X1X1X1X1X1X1X1X1X1X1X1X1X1X1X1X",
"<X1X<X1X<X1X<X1X<X1X<X1X<X1X<X1X<X1X<X1X<X1X<X1X<X1X<X1X<X1X<X<X<X2X2X2X<X<X<X<X1X:.1X<X2X2X4X=.[ ' ` ` ` ` ` ` ` ` ` ` ` ` ` ` ` ` ` ` ` ` ` ` ` ` ` ` ` ` ` ` ` ` ` ` ` ` ` ` ` ` ` ` ` ` ` ` ` ` ` ` o.` ` ' / -.>X4X2X2X2X2X<X<X<X<X1X1X1X1X1X1X1X1X<X<X<X<X<X<X<X<X1X1X1X1X1X1X1X1X1X1X<X1X1X1X<X5XwX{ 0 7 d e e i g g g g g <.3.t.a.a.a.b.a.a.a.b.b.b.b.b.b.b.b.b.b.b.b.b.b.b.b.b.b.b.b.b.c.c.c.c.c.c.c.c.z.z.z.z.z.z.z.z.z.z.z.z.z.z.z.z.z.z.z.z.z.z.z.z.z.z.z.z.z.z.z.z.z.z.z.z.c.c.c.c.b.m.b.c.c.c.c.c.c.v.m.m.m.t.1.g r r e d < C _.vXCXJXGXSXSXSXIXIXIXIXJXJXJXJXJXJXJXJXJXJXJXJXJXJXJXJXJXJXJXJXJXJXJXJXJXJXJXJXJXJXJXJXJXJXJXJXJXJXJXJXJXJXJXGXGXGXCXcXhXhXhXhXhXhXnXAXGXGXGXGXJXGXJXJXJXJXJXJXJXJXJXJXJXJXJXJXJXJXJXJXJXJXJXJXJXJXJXJXJXJXJXJXJXJXJXJXJXJXJXJXJXJXJXJXJXJXJXJXJXJXJXJXJXJXJXJXJXJXJXJXJXJXJXJXJXJXJXJXJXJXJXJXJXJXJXGXJXJXGXGXNXcXrXXXsXzX7X8X8X6X6X,X1X3X3X3X<X<X1X1X1X1X1X1X1X1X1X1X1X1X1X1X1X1X1X1X1X1X1X1X1X1X1X1X1X1X3X3X3X3X3X3X3X<X2X2X2X2X3X2X2X2X2X2X2X2X<X1X<X1X<X1X<X1X<X1X<X1X<X1X<X1X1X1X1X1X1X1X1X1X1X1X1X1X1X1X1X1X1X1X1X1X1X1X1X1X1X1X1X1X1X1X1X1X1X1X<X1X<X1X<X1X<X1X<X1X<X1X<X1X1X1X1X1X1X1X1X1X1X1X1X1X1X1X1X1X1X1X1X1X1X1X1X1X1X1X1X1X1X1X1X1X1X1X1X1X1X1X1X1X1X1X1X1X1X1X1X1X1X1X1X1X1X1X1X",
"2X<X2X<X<X<X<X<X2X<X2X<X2X<X2X<X<X<X<X<X2X<X2X<X2X<X2X<X2X<X2X2X2X2X2X2X2X<X<X<X1X:.<X<X2X4X4X=.' ' ' ` ` ` ` ` ` ` ` ` ` ` ` ` ` ` ` ` ` ` ` ` ` ` ` ` ` ` ` ` ` ` ` ` ` ` ` ` ` ` ` ` ` ` ` ` ` ` ` ` ` _ ` ' / -.;.4X2X2X2X2X<X<X<X<X1X1X1X1X1X1X1X1X<X<X<X<X<X1X<X<X1X1X1X:.1X1X1X1X1X1X1X1X<X1X1X5XwX .q 7 t e e 2 i <.4.1.g g 1.2.t.a.b.b.a.a.a.a.b.b.m.m.b.b.b.b.b.b.b.b.b.b.b.b.b.b.b.b.c.c.c.c.c.c.c.c.c.c.c.c.c.c.c.c.z.z.z.z.z.z.z.z.z.z.z.z.z.z.z.z.z.z.z.z.z.z.z.z.z.z.z.z.c.c.c.c.m.m.m.m.m.m.c.c.c.c.m.m.m.t.1.g p d d d < c `.vXCXJXGXSXSXSXIXIXJXJXGXJXJXJXJXJXJXJXJXJXJXJXJXJXJXJXJXJXJXJXJXJXJXJXJXJXJXJXJXJXJXJXJXJXJXJXJXJXJXJXJXJXJXGXGXGXCXcXhXhXhXhXhXhXnXAXGXGXGXGXJXGXJXJXJXJXJXJXJXJXJXJXJXJXJXJXJXJXJXJXJXJXJXJXJXJXJXJXJXJXJXJXJXJXJXJXJXJXJXJXJXJXJXJXJXJXJXJXJXJXJXJXJXJXJXJXJXJXJXJXJXJXJXJXJXJXJXJXJXJXJXJXJXJXJXJXJXJXGXGXCXbXrXrXsXzX7X7X8XwX6X,X1X3X3X3X<X<X3X1X1X1X1X1X1X1X1X3X3X1X1X1X1X1X1X1X1X1X1X1X<X<X<X<X<X<X<X<X<X<X<X2X<X<X2X2X2X2X2X2X2X2X2X2X2X2X2X<X2X<X2X<X2X<X2X<X2X<X2X<X2X<X1X1X1X1X1X1X1X1X1X1X1X1X1X1X1X1X<X1X<X1X<X1X<X1X1X1X3X1X1X1X1X1X<X<X<X<X2X<X2X<X2X<X2X<X2X<X2X<X<X<X<X<X<X<X<X<X<X<X<X<X<X<X<X<X<X<X<X<X<X<X<X<X2X<X<X<X<X<X<X<X<X<X<X<X<X<X<X<X<X<X<X<X<X<X<X<X<X<X1X1X<X<X<X",
"<X<X<X<X<X<X<X<X<X<X<X<X<X<X<X<X<X<X<X<X<X<X<X<X<X<X<X<X<X<X<X2X2X2X2X2X2X<X<X<X1X:.1X1X2X4X>X=.' ' ` ` ` ` ` ` ` ` ` ` ` ` ` ` ` ` ` ` ` ` ` ` ` ` ` ` ` ` ` ` ` ` ` ` ` ` ` ` ` ` ` ` ` ` ` ` ` ` ` ` ` _ ` ' ) [ >.2X2X,X2X2X<X<X<X1X1X1X1X1X1X1X1X1X<X<X<X<X1X1X1X1X1X1X1X:.1X:.1X1X1X1X1X1X1X1X3X5X9X(.q 7 t e e 2 i 4.2.2.<.g 4 <.2.t.b.b.b.b.b.a.a.b.m.m.b.b.b.b.b.b.b.b.b.b.b.b.b.b.b.b.c.c.c.c.c.c.c.c.c.c.c.c.c.c.c.c.z.z.z.z.z.z.z.z.z.z.z.z.z.z.z.z.z.z.z.z.z.z.z.z.z.z.z.z.c.c.c.c.m.m.m.m.m.m.v.v.c.c.m.m.m.t.2.g g h d d < c `.vXCXJXJXSXSXSXIXIXJXJXGXJXJXJXJXJXJXJXJXJXJXJXJXJXJXJXJXJXJXJXJXJXJXJXJXJXJXJXJXJXJXJXJXJXJXJXJXJXJXJXJXJXJXGXGXGXNXcXhXhXhXhXhXhXnXAXGXGXGXGXJXGXJXJXJXJXJXJXJXJXJXJXJXJXJXJXJXJXJXJXJXJXJXJXJXJXJXJXJXJXJXJXJXJXJXJXJXJXJXJXJXJXJXJXJXJXJXJXJXJXJXJXJXJXJXJXJXJXJXJXJXJXJXJXJXJXJXJXJXJXJXJXJXJXJXJXJXGXGXGXDXbXhXrXrXxX7X7X8XwX6X6X3X3X3X3X3X<X1X1X1X1X1X1X1X1X3X1X3X3X1X1X1X1X1X1X1X1X1X1X<X<X<X<X2X2X2X<X<X<X<X2X<X<X2X2X2X2X2X2X2X2X2X2X2X2X2X<X<X<X<X<X<X<X<X<X2X<X<X<X<X<X1X1X1X1X1X1X1X1X1X1X1X1X1X1X1X1X<X1X<X1X<X1X<X1X<X1X3X1X1X1X1X1X<X<X<X<X<X<X<X<X<X<X<X<X<X<X<X<X<X1X<X1X<X1X<X1X<X1X<X1X<X1X<X1X<X1X<X1X<X1X<X1X2X1X2X1X<X1X<X1X<X1X<X1X<X1X<X1X<X1X<X1X<X1X<X1X<X1X<X1X<X1X<X",
"1X1X1X1X1X1X1X1X1X1X1X1X1X1X1X1X1X1X1X1X1X1X1X1X1X1X1X1X1X1X1X1X2X2X2X2X2X<X<X<X1X:.1X1X<X4X;.-.' ' ` ` ` ` ` ` ` ` ` ` ` ` ` ` ` ` ` ` ` ` ` ` ` ` ` ` ` ` ` ` ` ` ` ` ` ` ` ` ` ` ` ` ` ` ` ` ` ` ` ` ` _ _ ' ) ' =.4X2X,X2X2X2X<X<X1X1X1X1X1X1X1X1X1X1X<X<X<X<X1X1X1X1X1X1X:.:.:.1X1X1X1X1X1X3X1X1X5X9X+XV 9 t r e 2 i g 2.s.2.<.4 4 <.3.r.b.m.b.b.a.a.a.b.b.b.b.b.b.b.b.b.b.b.b.b.b.b.b.b.b.c.c.c.c.c.c.c.c.z.z.z.z.z.z.z.z.z.z.z.z.z.z.z.z.z.z.z.z.z.z.z.z.c.c.c.c.c.c.c.c.c.c.c.c.c.c.c.c.m.m.m.m.c.c.v.v.m.m.m.m.m.s.4.g h h d d < 0 A.xXCXJXGXSXSXSXIXIXJXJXIXGXJXJXJXJXJXJXJXJXJXJXJXJXJXJXJXJXJXJXJXJXJXJXJXJXJXJXJXJXJXJXJXJXJXJXJXJXJXJXJXJXJXGXGXGXCXcXrXhXhXhXhXhXnXAXGXGXGXGXJXGXJXJXJXJXJXJXJXJXJXJXJXJXJXJXJXJXJXJXJXJXJXJXJXJXJXJXJXJXJXJXJXJXJXJXJXJXJXJXJXJXJXJXJXJXJXJXJXJXJXJXJXJXJXJXJXJXJXJXJXJXJXJXJXJXJXJXJXJXJXJXJXJXJXJXJXGXSXGXDXnXxXjXrXxXzX7X8XwX6X6X,X,X3X1X<X<X1X1X1X1X1X1X1X1X1X1X1X3X1X1X1X1X1X1X1X1X1X1X3X3X3X3X3X3X<X3X3X3X<X<X<X<X<X<X<X<X<X<X<X<X<X<X<X1X1X1X1X1X1X1X1X1X1X1X1X1X1X1X1X1X1X1X1X1X1X1X1X1X1X1X1X1X1X1X1X1X1X1X1X1X1X1X1X1X1X1X1X1X1X1X1X1X1X1X1X1X1X1X1X1X1X1X1X1X1X1X1X1X1X1X1X1X1X1X1X1X1X1X1X1X1X1X1X1X1X1X1X1X1X1X1X1X1X1X1X1X1X1X1X1X1X1X1X1X1X1X1X1X1X1X1X1X1X1X1X1X1X1X1X1X1X1X1X",
"1X1X1X1X1X1X1X1X1X1X1X1X1X1X1X1X1X1X1X1X1X1X1X1X1X1X1X1X1X1X1X1X2X2X2X2X2X<X<X<X1X:.1X<X<X4X=.&.' ' ` ` ` ` ` ` ` ` ` ` ` ` ` ` ` ` ` ` ` ` ` ` ` ` ` ` ` ` ` ` ` ` ` ` ` ` ` ` ` ` ` ` ` ` ` ` ` ` ` ` ` ` _ ' ) ' -.>X2X<X2X2X2X2X<X<X1X1X1X1X1X1X1X1X<X<X2X2X3X1X1X1X1X1X1X1X:.1X1X1X1X1X1X1X3X<X4X2X9X#XZ 7 t r r e e g 2.s.t.2.<.4 g <.3.t.b.a.a.a.a.a.a.a.b.b.b.b.b.b.b.b.b.b.b.b.b.b.b.b.b.c.b.c.b.c.b.c.b.z.z.z.b.z.b.z.z.z.z.z.z.z.z.z.z.z.z.z.z.z.z.z.c.c.c.c.c.c.c.c.c.c.c.c.c.c.c.c.m.m.m.m.m.m.v.v.m.m.m.m.M.s.4.g h h d d < 5 l.tXCXJXGXSXSXSXIXIXIXJXIXGXJXKXJXJXJXJXJXJXJXJXJXJXJXJXJXJXJXJXJXJXJXJXJXJXJXJXJXJXJXJXJXJXJXJXJXJXJXJXJXJXJXGXGXGXCXbXhXhXhXhXhXhXnXAXGXGXGXGXJXGXJXJXJXJXJXJXJXJXJXJXJXJXJXJXJXJXJXJXJXJXJXJXJXJXJXJXJXJXJXJXJXJXJXJXJXJXJXJXJXJXJXJXJXJXJXJXJXJXJXJXJXJXJXJXJXJXJXJXJXJXJXJXJXJXJXJXJXJXJXJXJXJXJXJXJXGXSXJXAXnXxXhXjXxXzX7X8XwX6X6X,X,X3X1X<X<X1X1X1X1X3X3X1X1X1X1X3X1X1X1X1X1X1X1X1X1X1X3X3X3X3X3X3X3X<X<X3X3X2X1X<X1X<X1X<X1X<X1X<X1X<X1X<X1X1X1X1X1X1X1X1X1X1X1X1X1X1X1X1X1X1X1X1X1X1X1X1X1X1X1X1X1X1X1X1X1X1X1X1X1X1X1X1X1X1X1X1X1X1X1X1X1X1X1X1X1X1X1X1X1X1X1X1X1X1X1X1X1X1X1X1X1X1X1X1X1X1X1X1X1X1X1X1X1X1X1X1X1X1X1X1X1X1X1X1X1X1X1X1X1X1X1X1X1X1X1X1X1X1X1X1X1X1X1X1X1X1X1X1X1X1X1X1X",
"1X1X1X1X1X1X1X1X1X1X1X1X1X1X1X1X1X1X1X1X1X1X1X1X1X1X1X1X1X1X1X<X2X2X4X4X2X<X<X1X1X,X1X<X,X4X=.[ ) ' ` ` ` ` ` ` ` ` ` ` ` ` ` ` ` ` ` ` ` ` ` ` ` ` ` ` ` ` ` ` ` ` ` ` ` ` ` ` ` ` ` ` ` ` ` ` ] ` ` ` ` ` _ ' ) ' -.>X4X<X2X2X2X<X<X<X1X1X1X1X1X1X1X1X<X2X2X2X<X3X1X1X1X1X1X1X1X1X1X1X1X1X3X3X3X<X1X3X0X8XR 0 t i g i i g 2.s.s.t.2.<.4 g <.2.t.t.t.a.a.b.z.b.b.b.b.b.b.b.b.b.b.b.b.b.b.b.b.b.b.b.b.b.b.b.b.b.b.b.b.b.b.b.b.b.z.z.z.z.z.z.z.z.z.z.z.z.z.z.z.z.c.c.c.c.c.c.c.c.c.c.c.c.c.c.c.c.m.m.m.m.m.m.m.m.m.m.m.m.M.s.2.g r h t d < < l.tXCXJXGXSXSXSXIXIXIXIXIXGXJXKXKXJXJXJXJXJXJXJXJXJXJXJXJXJXJXJXJXJXJXJXJXJXJXJXJXJXJXJXJXJXJXJXJXJXJXJXJXJXJXGXGXGXCXcXhXhXhXhXhXhXnXAXGXGXGXGXJXGXJXJXJXJXJXJXJXJXJXJXJXJXJXJXJXJXJXJXJXJXJXJXJXJXJXJXJXJXJXJXJXJXJXJXJXJXJXJXJXJXJXJXJXJXJXJXJXJXJXJXJXJXJXJXJXJXJXJXJXJXJXJXJXJXJXJXJXJXJXJXJXJXJXJXJXGXSXJXSXNXcXhXjXxXzX7X8X8X6X6X,X,X3X1X1X<X3X3X1X1X1X1X1X1X1X1X1X3X1X1X1X1X1X1X1X1X1X1X3X3X3X3X<X<X<X<X<X<X2X2X2X2X2X<X2X<X2X<X2X<X2X<X2X<X1X1X1X1X1X1X1X1X1X1X1X1X1X1X1X1X<X<X<X<X<X<X<X<X<X<X<X<X<X<X<X<X1X1X1X1X1X1X1X1X1X1X1X1X1X1X1X1X1X1X1X1X1X1X1X1X1X1X1X1X1X1X1X1X1X1X1X1X1X1X1X1X1X1X1X1X1X1X1X1X1X1X1X1X1X1X1X1X1X1X1X1X1X1X1X1X1X1X1X1X1X1X1X1X1X1X1X1X1X1X1X1X1X1X1X1X1X1X1X",
"1X1X1X1X1X1X1X1X1X1X1X1X1X1X1X1X1X1X1X1X1X1X1X1X1X1X1X1X1X1X1X2X2X2X4X4X2X<X<X<X1X:.1X<X4X>X-.' ) ' ` ` ` ` ` ` ` ` ` ` ` ` ` ` ` ` ` ` ` ` ` ` ` ` ` ` ` ` ` ` ` ` ` ` ` ` ` ` ` ` ` ` ` ` ` ` ] ] ` ` ` ` _ ' ) ' -.;.4X2X<X2X<X<X<X<X1X1X1X1X1X1X1X1X<X2X2X2X3X3X1X1X1X1X1X1X1X1X1X1X1X1X3X3X3X,X1X2X9XwXR 0 t p z g e g 2.s.s.a.t.<.4 4 g <.3.t.t.r.b.b.b.b.b.b.b.b.b.b.b.b.b.b.b.b.b.b.b.b.b.b.b.b.b.b.b.b.b.b.b.b.b.b.b.b.z.z.z.z.z.z.z.z.z.z.z.z.z.z.z.z.c.c.c.c.c.c.c.c.c.c.c.c.c.c.c.c.m.m.m.m.m.m.m.m.m.m.m.m.m.t.2.g e h t t < < A yXCXJXGXSXSXSXIXIXIXIXIXGXJXKXJXJXJXJXJXJXJXJXJXJXJXJXJXJXJXJXJXJXJXJXJXJXJXJXJXJXJXJXJXJXJXJXJXJXJXJXJXJXJXGXGXGXCXcXhXhXhXhXhXhXnXAXGXGXGXGXJXGXJXJXJXJXJXJXJXJXJXJXJXJXJXJXJXJXJXJXJXJXJXJXJXJXJXJXJXJXJXJXJXJXJXJXJXJXJXJXJXJXJXJXJXJXJXJXJXJXJXJXJXJXJXJXJXJXJXJXJXJXJXJXJXJXJXJXJXJXJXJXJXJXJXJXJXGXSXJXSXCXcXhXhXxXzX7X8X8X9X6X,X1X1X1X1X<X1X1X1X1X1X1X1X1X1X1X1X1X1X1X1X1X1X1X1X1X1X1X3X3X3X3X3X3X<X3X<X3X2X2X2X2X2X<X2X<X2X<X2X<X2X<X2X<X1X1X1X1X1X1X1X1X1X1X1X1X1X1X1X1X<X<X2X<X2X<X2X<X2X<X<X<X2X<X2X<X3X1X3X1X3X1X3X1X3X1X3X1X3X1X3X1X1X1X1X1X1X1X1X1X1X1X1X1X1X1X1X1X1X1X1X1X1X1X1X1X1X1X1X1X1X1X1X1X1X1X1X1X1X1X1X1X1X1X1X1X1X1X1X1X1X1X1X1X1X1X1X1X1X1X1X1X1X1X1X1X1X1X1X1X1X1X1X",
"1X1X1X1X1X1X1X1X1X1X1X1X1X1X1X1X<X<X<X<X<X<X<X<X<X<X<X<X<X<X<X<X2X4X4X4X<X<X<X1X1X:.1X4X4X;.&.) ' ` ` ` ` ` ` ` ` ` ` ` ` ` ` ` ` ` ` ` ` ` ` ` ` ` ` ` ` ` ` ` ` ` ` ` ` ` ` ` ` ` ` ` ` ` ` ` o.o.` ] ` ` ` ` _ ' ' ;.4X,X2X3X2X<X<X<X<X<X<X1X<X<X<X<X<X<X<X<X<X1X1X1X1X1X1X1X1X1X1X1X1X1X<X<X2X2X3X2X5XwX{ 0 7 r d i d g 4.s.M.M.a.t.2.<.g 4 g <.3.t.a.b.n.M.m.b.b.a.a.a.a.a.b.b.b.b.b.b.b.b.b.b.b.b.b.b.b.b.b.b.b.c.b.c.b.c.z.c.c.c.c.c.c.c.c.c.c.c.c.c.c.c.z.z.z.z.z.z.z.z.z.z.z.z.c.c.c.c.m.m.m.m.m.m.m.m.b.m.M.M.M.r.2.g p t t d 7 < C OXCXKXJXGXSXSXIXIXIXJXGXJXJXJXJXJXJXJXJXJXJXJXJXJXJXJXJXJXJXJXJXJXJXJXJXJXJXJXJXJXJXJXJXJXJXJXJXJXJXJXJXJXJXJXJXJXDXcXrXhXhXhXhXhXnXAXJXSXSXGXGXGXJXJXJXJXJXJXJXJXJXJXJXJXJXJXJXJXJXJXJXJXJXJXJXJXJXJXJXJXJXJXJXJXJXJXJXJXJXJXJXJXJXJXJXJXJXJXJXJXJXJXJXJXJXJXJXJXJXJXJXJXJXJXJXJXJXJXJXJXJXJXJXJXJXJXJXJXJXSXSXDXcX7X%XhXzX7X7X8XwX6X,X:.1X3X3X3X1X1X1X1X1X1X1X1X1X1X1X1X1X1X1X1X<X<X<X<X<X<X<X<X<X<X<X<X2X<X2X<X<X1X<X1X<X1X<X1X<X1X<X1X<X1X<X1X1X1X1X1X1X1X1X1X1X1X1X1X1X1X1X1X1X1X<X1X<X1X<X1X<X1X<X1X<X1X<X1X<X1X<X1X<X1X<X1X<X1X<X1X<X1X<X1X1X1X1X1X1X1X1X1X1X1X1X1X1X1X1X1X1X1X1X1X1X1X1X1X1X1X1X1X1X1X1X1X1X1X1X1X1X1X1X1X1X1X1X1X1X1X1X1X1X1X1X1X1X1X1X1X1X1X1X1X1X1X1X1X1X1X1X1X1X1X1X",
"1X1X1X1X1X1X1X1X1X1X1X1X1X1X1X1X<X<X<X<X<X<X<X<X<X<X<X<X<X<X<X<X<X4X4X4X<X<X<X1X:.:.4X4X4X;.[ ) ` ` ` ` ` ` ` ` ` ` ` ` ` ` ` ` ` ` ` ` ` ` ` ` ` ` ` ` ` ` ` ` ` ` ` ` ` ` ` ` ` ` ` ` ` ` ` ` o.o.o.` ` ` ` ` ` ' ' ;.4X,X2X3X2X<X<X<X<X<X<X<X<X<X<X<X<X<X<X<X1X1X1X1X1X1X1X1X1X1X1X1X1X1X1X<X2X2X4X3X5X5X .> 7 r d i e g 4.s.M.n.a.s.t.1.<.g 4 g 1.3.t.b.b.b.b.b.b.b.b.b.b.b.b.b.b.b.b.b.b.b.b.b.b.b.b.b.b.b.b.b.c.c.c.c.c.c.c.c.c.c.c.c.c.c.c.c.c.c.c.c.c.c.z.z.z.z.z.z.z.z.z.z.z.z.c.c.c.c.m.m.m.m.m.m.m.m.b.m.M.M.M.r.1.<.r r t 7 7 < C {.DXKXGXSXGXAXIXIXIXJXGXJXJXJXJXJXJXJXJXJXJXJXJXJXJXJXJXJXJXJXJXJXJXJXJXJXJXJXJXJXJXJXJXJXJXJXJXJXJXJXJXJXJXJXJXJXDXbXrXhXhXhXhXhXnXAXJXSXGXGXGXGXJXJXJXJXJXJXJXJXJXJXJXJXJXJXJXJXJXJXJXJXJXJXJXJXJXJXJXJXJXJXJXJXJXJXJXJXJXJXJXJXJXJXJXJXJXJXJXJXJXJXJXJXJXJXJXJXJXJXJXJXJXJXJXJXJXJXJXJXJXJXJXJXJXJXJXJXJXSXSXAXmX7X%X%XzX7X7X8XwX6X,X:.1X3X3X3X<X1X1X1X1X1X1X1X1X1X1X1X1X1X1X1X<X<X<X<X<X<X<X<X<X<X<X<X<X<X<X<X1X1X1X1X1X1X1X1X1X1X1X1X1X1X1X1X1X1X1X1X1X1X1X1X1X1X1X1X1X1X1X1X1X1X1X1X1X1X1X1X1X1X1X1X1X1X1X1X1X1X1X1X1X1X1X1X1X1X1X1X1X1X1X1X1X1X1X1X1X1X1X1X1X1X1X1X1X1X1X1X1X1X1X1X1X1X1X1X1X1X1X1X1X1X1X1X1X1X1X1X1X1X1X1X1X1X1X1X1X1X1X1X1X1X1X1X1X1X1X1X1X1X1X1X1X1X1X1X1X1X1X1X1X1X1X",
"1X1X1X1X1X1X1X1X1X1X1X1X1X1X1X1X<X<X<X<X<X<X<X<X<X<X<X<X<X<X<X<X<X<X4X4X<X<X<X1X:.:.<X4X4X>.[ ) ` ` ` ` ` ` ` ` ` ` ` ` ` ` ` ` ` ` ` ` ` ` ` ` ` ` ` ` ` ` ` ` ` ` ` ` ` ` ` ` ` ` ` ` ` ` ` ` o.o.o.` ` ` ` ` ` _ ' =.4X2X2X<X2X<X<X<X<X<X<X<X<X<X<X<X<X<X<X<X1X1X1X1X1X1X1X1X1X1X1X1X1X1X1X<X<X3X3X4X4X5X~.q 9 t p i i i 4.n.n.a.s.s.a.t.1.1.4 4 g <.3.t.a.b.b.b.b.m.m.m.m.b.b.b.b.b.b.b.b.b.b.b.b.b.b.b.b.b.b.b.b.b.c.c.c.c.c.c.c.c.c.c.c.c.c.c.c.c.c.c.c.c.z.z.z.z.z.z.z.z.z.z.z.z.c.c.c.c.m.m.m.m.m.m.m.m.z.b.m.M.M.z.3.4.i r r d < < C {.CXJXHXGXSXAXIXIXIXJXGXJXJXJXHXJXJXJXJXJXJXJXJXJXJXJXJXJXJXJXJXJXJXJXJXJXJXJXJXJXJXJXJXJXJXJXJXJXJXJXJXJXJXJXJXJXDXbXrXhXhXhXhXhXnXDXGXSXGXGXGXGXJXJXJXJXJXJXJXJXJXJXJXJXJXJXJXJXJXJXJXJXJXJXJXJXJXJXJXJXJXJXJXJXJXJXJXJXJXJXJXJXJXJXJXJXJXJXJXJXJXJXJXJXJXJXJXJXJXJXJXJXJXJXJXJXJXJXJXJXJXJXJXJXJXJXJXJXJXSXSXAXmX7X%X%XzX7X7X8XwX6X,X1X:.1X1X3X<X1X1X1X1X1X1X1X1X1X1X1X1X1X1X1X<X<X<X<X<X<X<X<X<X<X<X<X<X<X<X<X1X1X1X1X1X1X1X1X1X1X1X1X1X1X1X1X1X1X1X1X1X1X1X1X1X1X1X1X1X1X1X1X1X1X1X1X1X1X1X1X1X1X1X1X1X1X1X1X1X1X1X1X1X1X1X1X1X1X1X1X1X1X1X1X1X1X1X1X1X1X1X1X1X1X1X1X1X1X1X1X1X1X1X1X1X1X1X1X1X1X1X1X1X1X1X1X1X1X1X1X1X1X1X1X1X1X1X1X1X1X1X1X1X1X1X1X1X1X1X1X1X1X1X1X1X1X1X1X1X1X1X1X1X1X1X",
"1X1X1X1X1X1X1X1X1X1X1X1X1X1X1X1X<X<X<X<X<X<X<X<X<X<X<X<X<X<X<X<X<X<X4X4X<X<X<X1X:.:.<X1X4X=.' ' ` ` ` ` ` ` ` ` ` ` ` ` ` ` ` ` ` ` ` ` ` ` ` ` ` ` ` ` ` ` ` ` ` ` ` ` ` ` ` ` ` ` ` ` ` ` ` ` o.o.` ` ` ` ` ` ` ' ) -.>X2X2X<X2X<X<X<X<X<X<X<X<X<X<X<X<X<X<X<X1X1X1X1X1X1X1X1X1X1X1X1X1X1X1X1X<X3X<X4X4X5X+XV 0 t r i e e 4.n.M.a.s.s.a.s.t.3.<.g 4 4 <.2.t.r.b.b.b.b.b.b.b.m.b.b.b.b.b.b.b.b.b.b.b.b.b.b.b.b.b.b.b.b.c.c.c.c.c.c.c.c.c.c.c.c.c.c.c.c.c.c.c.c.z.z.z.z.z.z.z.z.z.z.z.z.c.c.c.c.m.m.m.m.m.m.b.b.b.b.m.M.M.b.3.2.i r d d < < c _.NXJXGXGXSXSXIXIXIXJXGXJXJXJXHXHXJXJXJXJXJXJXJXJXJXJXJXJXJXJXJXJXJXJXJXJXJXJXJXJXJXJXJXJXJXJXJXJXJXJXJXJXJXJXJXJXAXbXrXhXhXhXhXhXnXDXGXGXGXGXGXGXJXJXJXJXJXJXJXJXJXJXJXJXJXJXJXJXJXJXJXJXJXJXJXJXJXJXJXJXJXJXJXJXJXJXJXJXJXJXJXJXJXJXJXJXJXJXJXJXJXJXJXJXJXJXJXJXJXJXJXJXJXJXJXJXJXJXJXJXJXJXJXJXJXJXJXJXJXSXSXAXnXzX%XhXzX7X7X8XwX6X3X1X:.1X1X3X<X1X1X1X1X1X1X1X1X1X1X1X1X1X1X1X<X<X<X<X<X<X<X<X<X<X<X<X<X<X<X<X1X1X1X1X1X1X1X1X1X1X1X1X1X1X1X1X1X1X1X1X1X1X1X1X1X1X1X1X1X1X1X1X1X1X1X1X1X1X1X1X1X1X1X1X1X1X1X1X1X1X1X1X1X1X1X1X1X1X1X1X1X1X1X1X1X1X1X1X1X1X1X1X1X1X1X1X1X1X1X1X1X1X1X1X1X1X1X1X1X1X1X1X1X1X1X1X1X1X1X1X1X1X1X1X1X1X1X1X1X1X1X1X1X1X1X1X1X1X1X1X1X1X1X1X1X1X1X1X1X1X1X1X1X1X1X",
"1X1X1X1X1X1X1X1X1X1X1X1X1X1X1X1X<X<X<X<X<X<X<X<X<X<X<X<X<X<X<X<X<X<X<X<X<X<X<X1X:.1X<X4X4X-./ ) ` ` ` ` ` ` ` ` ` ` ` ` ` ` ` ` ` ` ` ` ` ` ` ` ` ` ` ` ` ` ` ` ` ` ` ` ` ` ` ` ` ` ` ` ` ` ` ` ` ` ` ` ` ` ` ` o._ ) -.;.4X2X<X2X<X<X<X<X<X<X<X<X<X<X<X<X<X<X<X1X1X1X1X1X1X1X1X1X1X1X1X1X1X1X1X<X3X<X4X4X5XwXU 0 d e i e e 4.s.M.a.a.a.a.a.a.r.t.3.1.<.g <.<.1.t.t.t.a.a.b.b.b.b.b.b.b.b.b.b.b.b.b.b.b.b.b.b.b.b.b.b.b.b.b.c.c.z.z.z.z.z.z.z.z.z.z.z.z.z.z.z.z.z.z.z.z.z.z.z.z.z.z.z.z.c.c.c.c.m.m.m.m.m.m.b.b.b.b.m.m.M.n.t.3.g e d d 7 < 0 `.NXJXJXGXGXSXIXIXIXJXIXJXJXJXHXHXJXJXJXJXJXJXJXJXJXJXJXJXJXJXJXJXJXJXJXJXJXJXJXJXJXJXJXJXJXJXJXJXJXJXJXJXJXJXJXJXSXbXhXhXhXhXhXhXbXDXGXGXGXJXGXGXJXJXJXJXJXJXJXJXJXJXJXJXJXJXJXJXJXJXJXJXJXJXJXJXJXJXJXJXJXJXJXJXJXJXJXJXJXJXJXJXJXJXJXJXJXJXJXJXJXJXJXJXJXJXJXJXJXJXJXJXJXJXJXJXJXJXJXJXJXJXJXJXSXJXJXJXJXSXSXSXNXcX%XhXxXzX7X8X8X6X3X,X1X1X,X3X<X1X1X1X1X1X1X1X1X1X1X1X1X1X1X1X<X<X<X<X<X<X<X<X<X<X<X<X<X<X<X<X1X1X1X1X1X1X1X1X1X1X1X1X1X1X1X1X1X1X1X1X1X1X1X1X1X1X1X1X1X1X1X1X1X1X1X1X1X1X1X1X1X1X1X1X1X1X1X1X1X1X1X1X1X1X1X1X1X1X1X1X1X1X1X1X1X1X1X1X1X1X1X1X1X1X1X1X1X1X1X1X1X1X1X1X1X1X1X1X1X1X1X1X1X1X1X1X1X1X1X1X1X1X1X1X1X1X1X1X1X1X1X1X1X1X1X1X1X1X1X1X1X1X1X1X1X1X1X1X1X1X1X1X1X1X1X",
"1X1X1X1X1X1X1X1X1X1X1X1X1X1X1X1X<X<X<X<X<X<X<X<X<X<X<X<X<X<X<X<X<X<X<X<X<X<X<X<X:.1X<X4X:.-./ ) ` ` ` ` ` ` ` ` ` ` ` ` ` ` ` ` ` ` ` ` ` ` ` ` ` ` ` ` ` ` ` ` ` ` ` ` ` ` ` ` ` ` ` ` ` ` ` ` ` ` ` ` ` ` ` ` ` _ / &.>.4X4X<X2X<X<X<X<X<X<X<X<X<X<X<X<X<X<X<X1X1X1X1X1X1X1X1X1X1X1X1X1X1X1X1X<X3X<X2X4X5XwXR 0 d t e e e g s.M.a.a.a.a.m.b.b.b.a.r.3.1.g 4 4 g <.2.t.a.a.b.b.b.b.b.b.b.b.b.b.b.b.b.b.b.b.b.b.b.b.b.b.b.b.c.c.z.z.z.z.z.z.z.z.z.z.z.z.z.z.z.z.z.z.z.z.z.z.z.z.z.z.z.z.c.c.c.c.m.m.m.m.c.m.b.b.m.b.z.m.m.n.r.3.z r e d 7 < 1 Y.BXHXGXHXGXGXIXIXIXJXIXJXJXJXHXHXJXJXJXJXJXJXJXJXJXJXJXJXJXJXJXJXJXJXJXJXJXJXJXJXJXJXJXJXJXJXJXJXJXJXJXJXJXJXJXJXGXbXhXhXhXhXhXhXbXCXGXGXGXJXGXGXJXJXJXJXJXJXJXJXJXJXJXJXJXJXJXJXJXJXJXJXJXJXJXJXJXJXJXJXJXJXJXJXJXJXJXJXJXJXJXJXJXJXJXJXJXJXJXJXJXJXJXJXJXJXJXJXJXJXJXJXJXJXJXJXJXJXJXJXJXJXJXJXSXGXJXJXJXSXSXSXUXmX%X%XzXzX7X8X8X6X6X,X1X1X3X3X<X1X1X1X1X1X1X1X1X1X1X1X1X1X1X1X<X<X<X<X<X<X<X<X<X<X<X<X<X<X<X<X1X1X1X1X1X1X1X1X1X1X1X1X1X1X1X1X1X1X1X1X1X1X1X1X1X1X1X1X1X1X1X1X1X1X1X1X1X1X1X1X1X1X1X1X1X1X1X1X1X1X1X1X1X1X1X1X1X1X1X1X1X1X1X1X1X1X1X1X1X1X1X1X1X1X1X1X1X1X1X1X1X1X1X1X1X1X1X1X1X1X1X1X1X1X1X1X1X1X1X1X1X1X1X1X1X1X1X1X1X1X1X1X1X1X1X1X1X1X1X1X1X1X1X1X1X1X1X1X1X1X1X1X1X1X1X",
"1X1X1X1X1X1X1X1X1X1X1X1X1X1X1X1X<X<X<X<X<X<X<X<X<X<X<X<X<X<X<X<X<X<X2X2X<X<X<X<X:.4X<X4X;.&.) ) ` ` ` ` ` ` ` ` ` ` ` ` ` ` ` ` ` ` ` ` ` ` ` ` ` ` ` ` ` ` ` ` ` ` ` ` ` ` ` ` ` ` ` ` ` ` ` ` ` ` ` ` ` ` ` ` ` _ ) [ =.>X4X2X2X<X<X<X<X<X<X<X<X<X<X<X<X<X<X<X1X1X1X1X1X1X1X1X1X1X1X1X1X1X1X1X3X1X<X<X2X>X9X .q 0 t e e e g s.n.a.a.a.a.a.b.b.b.m.b.r.t.1.<.g 4 4 <.1.3.t.a.a.b.b.b.b.b.b.b.b.b.b.b.b.b.b.b.b.b.b.b.b.b.b.b.b.z.z.z.z.z.z.z.z.z.z.z.z.z.z.z.z.z.z.z.z.z.z.z.z.z.z.z.z.c.c.c.c.b.b.c.c.c.c.b.b.m.b.z.z.m.n.b.s.4.r e t 7 < 1 A.BXHXHXHXGXIXPXIXIXJXIXJXJXJXJXJXJXJXJXJXJXJXJXJXJXJXJXJXJXJXJXJXJXJXJXJXJXJXJXJXJXJXJXJXJXJXJXJXJXJXJXJXJXJXJXJXJXbXhXhXhXrXhXhXbXCXGXGXJXJXGXGXJXJXJXJXJXJXJXJXJXJXJXJXJXJXJXJXJXJXJXJXJXJXJXJXJXJXJXJXJXJXJXJXJXJXJXJXJXJXJXJXJXJXJXJXJXJXJXJXJXJXJXJXJXJXJXJXJXJXJXJXJXJXJXJXJXJXJXJXJXJXJXJXSXGXJXJXJXSXSXSXDXmX%X%XzXzX7X7X8X6X6X,X1X1X3X3X<X1X1X1X1X1X1X1X1X1X1X1X1X1X1X1X<X<X<X<X<X<X<X<X<X<X<X<X<X<X<X<X1X1X1X1X1X1X1X1X1X1X1X1X1X1X1X1X1X1X1X1X1X1X1X1X1X1X1X1X1X1X1X1X1X1X1X1X1X1X1X1X1X1X1X1X1X1X1X1X1X1X1X1X1X1X1X1X1X1X1X1X1X1X1X1X1X1X1X1X1X1X1X1X1X1X1X1X1X1X1X1X1X1X1X1X1X1X1X1X1X1X1X1X1X1X1X1X1X1X1X1X1X1X1X1X1X1X1X1X1X1X1X1X1X1X1X1X1X1X1X1X1X1X1X1X1X1X1X1X1X1X1X1X1X1X1X",
"1X1X1X1X1X1X1X1X1X1X1X1X1X1X1X1X<X<X<X<X<X<X<X<X<X<X<X<X<X<X<X<X<X<X2X2X<X<X<X<X:.4X4X4X;.&.' ) ` ` ` ` ` ` ` ` ` ` ` ` ` ` ` ` ` ` ` ` ` ` ` ` ` ` ` ` ` ` ` ` ` ` ` ` ` ` ` ` ` ` ` ` ` ` ` ` ` ` ` ` ` ` ` ` _ _ ) ' =.>X4X2X2X<X<X<X<X<X<X<X<X<X<X<X<X<X<X<X1X1X1X1X1X1X1X1X1X1X1X1X1X1X1X1X1X1X2X<X2X>X9X~.V 0 7 e i e g t.a.a.a.a.a.a.a.a.a.a.a.a.a.t.3.1.4 4 4 g <.2.t.a.b.b.b.b.b.b.b.b.b.b.b.b.b.b.b.b.b.b.b.b.b.b.b.b.z.z.z.z.z.z.z.z.z.z.z.z.z.z.z.z.z.z.z.z.z.z.z.z.z.z.z.z.c.c.c.c.b.b.c.c.c.c.b.b.m.b.z.z.m.m.n.s.2.g e t d < 1 l.bXHXHXHXHXJXPXIXIXJXIXJXJXJXJXJXJXJXJXJXJXJXJXJXJXJXJXJXJXJXJXJXJXJXJXJXJXJXJXJXJXJXJXJXJXJXJXJXJXJXJXJXJXJXJXJXJXnXhXhXhXhXhXxXbXCXGXGXJXJXGXGXJXJXJXJXJXJXJXJXJXJXJXJXJXJXJXJXJXJXJXJXJXJXJXJXJXJXJXJXJXJXJXJXJXJXJXJXJXJXJXJXJXJXJXJXJXJXJXJXJXJXJXJXJXJXJXJXJXJXJXJXJXJXJXJXJXJXJXJXJXJXJXJXSXSXJXJXJXGXSXSXDXbX%XhXxXzX7X7X8X6X6X,X3X1X3X5X<X1X1X1X1X1X1X1X1X1X1X1X1X1X1X1X<X<X<X<X<X<X<X<X<X<X<X<X<X<X<X<X1X1X1X1X1X1X1X1X1X1X1X1X1X1X1X1X1X1X1X1X1X1X1X1X1X1X1X1X1X1X1X1X1X1X1X1X1X1X1X1X1X1X1X1X1X1X1X1X1X1X1X1X1X1X1X1X1X1X1X1X1X1X1X1X1X1X1X1X1X1X1X1X1X1X1X1X1X1X1X1X1X1X1X1X1X1X1X1X1X1X1X1X1X1X1X1X1X1X1X1X1X1X1X1X1X1X1X1X1X1X1X1X1X1X1X1X1X1X1X1X1X1X1X1X1X1X1X1X1X1X1X1X1X1X1X",
"1X1X1X1X1X1X1X1X1X1X1X1X1X1X1X1X<X<X<X<X<X<X<X<X<X<X<X<X<X<X<X<X3X3X2X2X2X2X1X1X:.4X4X4X=.' ) ) ` ` ` ` ` ` ` ` ` ` ` ` ` ` ` ` ` ` ` ` ` ` ` ` ` ` ` ` ` ` ` ` ` ` ` ` ` ` ` ` ` ` ` ` ` ` ` ` ` ` ` ` ` ` ` ` ` ) _ ) -.>X4X4X2X<X<X<X<X<X<X<X<X<X<X<X<X<X<X<X1X1X1X1X1X1X1X1X1X1X1X1X1X1X1X1X<X3X4X2X<X4X5X:XV 9 7 e 2 i g 3.s.h.h.a.a.m.b.a.b.b.b.b.a.r.r.r.1.1.4 4 4 g 1.3.t.t.a.b.m.m.b.a.b.b.b.b.b.b.b.b.b.b.b.b.b.b.z.z.c.c.c.c.c.c.c.c.c.c.c.c.c.c.c.c.b.b.b.b.b.b.b.b.b.b.b.b.b.b.b.b.b.b.c.c.c.c.b.b.m.m.c.c.b.b.n.s.2.i t t d < 1 l.dXKXHXAXGXJXIXJXJXJXJXGXGXGXJXJXJXJXJXJXJXJXJXJXJXJXJXJXJXJXJXJXJXJXJXJXJXJXJXJXJXJXJXJXJXJXJXJXJXJXJXJXJXJXJXJXJXnXxXxXhXhXhXhXcXNXGXJXGXJXJXJXGXGXGXGXGXGXJXJXJXJXJXJXJXJXJXJXJXJXJXJXJXJXJXJXJXJXJXJXJXJXJXJXJXJXJXJXJXJXJXJXJXJXJXJXJXJXJXJXJXJXJXJXJXJXJXJXJXJXJXJXJXJXJXJXJXJXJXJXJXJXJXJXJXJXJXJXJXJXJXFXFXnXzXxXxXzXzX7X:X:X6X,X1X3X3X3X<X1X1X1X1X1X1X1X1X1X1X1X1X1X1X1X<X<X<X<X<X<X<X<X<X<X<X<X<X<X<X<X1X1X1X1X1X1X1X1X1X1X1X1X1X1X1X1X1X1X1X1X1X1X1X1X1X1X1X1X1X1X1X1X1X1X1X1X1X1X1X1X1X1X1X1X1X1X1X1X1X1X1X1X1X1X1X1X1X1X1X1X1X1X1X1X1X1X1X1X1X1X1X1X1X1X1X1X1X1X1X1X1X1X1X1X1X1X1X1X1X1X1X1X1X1X1X1X1X1X1X1X1X1X1X1X1X1X1X1X1X1X1X1X1X1X1X1X1X1X1X1X1X1X1X1X1X1X1X1X1X1X1X1X1X1X1X",
"1X1X1X1X1X1X1X1X1X1X1X1X1X1X1X1X<X<X<X<X<X<X<X<X<X<X<X<X<X<X<X<X3X3X2X2X2X2X2X<X<X4X4X:.-.) ) ) ` ` ` ` ` ` ` ` ` ` ` ` ` ` ` ` ` ` ` ` ` ` ` ` ` ` ` ` ` ` ` ` ` ` ` ` ` ` ` ` ` ` ` ` ` ` ` ` ` ` ` ` ` ` ` ` ` ) _ ' -.>X4X2X2X<X<X<X<X<X<X<X<X<X<X<X<X<X<X<X1X1X1X1X1X1X1X1X1X1X1X1X1X1X1X1X1X4X2X2X4X4X5XwXR 0 7 e 2 i g 2.a.a.h.a.a.h.b.a.b.b.b.b.a.r.r.r.t.t.1.<.4 g <.<.1.3.t.b.m.m.b.a.b.b.b.b.z.b.b.b.b.b.b.b.b.b.b.z.c.c.c.c.c.c.c.c.c.c.c.c.c.c.c.c.b.b.b.b.b.b.b.b.b.b.b.b.b.b.b.b.b.b.c.c.c.c.b.b.b.b.z.z.b.b.n.s.2.i w t t < 5 k.dXKXHXAXGXJXJXJXIXIXJXJXGXGXJXJXJXJXJXJXJXJXJXJXJXJXJXJXJXJXJXJXJXJXJXJXJXJXJXJXJXJXJXJXJXJXJXJXJXJXJXJXJXJXJXJXJXnXxXxXhXhXhXhXxXNXGXJXGXJXJXJXGXGXGXGXGXGXJXJXJXJXJXJXJXJXJXJXJXJXJXJXJXJXJXJXJXJXJXJXJXJXJXJXJXJXJXJXJXJXJXJXJXJXJXJXJXJXJXJXJXJXJXJXJXJXJXJXJXJXJXJXJXJXJXJXJXJXJXJXJXJXJXJXJXJXJXJXJXJXJXFXFXnXzXxXxXzXzX7X:X8X6X,X,X1X3X3X1X1X1X1X1X1X1X1X1X1X1X1X1X1X1X1X<X<X<X<X<X<X<X<X<X<X<X<X<X<X<X<X1X1X1X1X1X1X1X1X1X1X1X1X1X1X1X1X1X1X1X1X1X1X1X1X1X1X1X1X1X1X1X1X1X1X1X1X1X1X1X1X1X1X1X1X1X1X1X1X1X1X1X1X1X1X1X1X1X1X1X1X1X1X1X1X1X1X1X1X1X1X1X1X1X1X1X1X1X1X1X1X1X1X1X1X1X1X1X1X1X1X1X1X1X1X1X1X1X1X1X1X1X1X1X1X1X1X1X1X1X1X1X1X1X1X1X1X1X1X1X1X1X1X1X1X1X1X1X1X1X1X1X1X1X1X1X",
"1X1X1X1X1X1X1X1X1X1X1X1X1X1X1X1X<X<X<X<X<X<X<X<X<X<X<X<X<X<X<X<X3X3X3X3X2X2X4X4X<X4X4X:.-./ ' ) ` ` ` ` ` ` ` ` ` ` ` ` ` ` ` ` ` ` ` ` ` ` ` ` ` ` ` ` ` ` ` ` ` ` ` ` ` ` ` ` ` ` ` ` ` ` ` ` ` ` ` ` ` ` ` ` ` T _ ' &.;.4X4X2X<X<X<X<X<X<X<X<X<X<X<X<X<X<X<X1X1X1X1X1X1X1X1X1X1X1X1X1X1X1X1X<X<X2X2X<X4X5XwXR 0 7 e 2 i d 2.s.a.h.a.a.h.b.a.b.b.b.b.a.a.r.r.b.a.t.3.1.<.4 4 <.1.1.t.r.b.b.b.n.b.b.z.b.b.b.b.b.b.b.b.b.b.b.b.c.c.c.c.c.c.c.c.c.c.c.c.c.c.c.c.b.b.b.b.b.b.b.b.b.b.b.b.b.b.b.b.b.b.c.c.c.c.b.b.z.z.z.z.b.n.n.n.3.g w e d < < C yXKXHXHXJXJXJXJXJXJXJXJXJXJXJXJXJXJXJXJXJXJXJXJXJXJXJXJXJXJXJXJXJXJXJXJXJXJXJXJXJXJXJXJXJXJXJXJXJXJXJXJXJXJXJXJXJXnXxXxXhXhXhXhXxXnXGXJXGXGXJXJXGXGXGXGXGXGXJXJXJXJXJXJXJXJXJXJXJXJXJXJXJXJXJXJXJXJXJXJXJXJXJXJXJXJXJXJXJXJXJXJXJXJXJXJXJXJXJXJXJXJXJXJXJXJXJXJXJXJXJXJXJXJXJXJXJXJXJXJXJXJXJXJXJXJXJXJXJXJXJXJXFXnXcXxXxXxXzX7X8X8X6X6X,X,X3X3X1X1X1X1X1X1X1X1X1X1X1X1X1X1X1X1X<X<X<X<X<X<X<X<X<X<X<X<X<X<X<X<X1X1X1X1X1X1X1X1X1X1X1X1X1X1X1X1X1X1X1X1X1X1X1X1X1X1X1X1X1X1X1X1X1X1X1X1X1X1X1X1X1X1X1X1X1X1X1X1X1X1X1X1X1X1X1X1X1X1X1X1X1X1X1X1X1X1X1X1X1X1X1X1X1X1X1X1X1X1X1X1X1X1X1X1X1X1X1X1X1X1X1X1X1X1X1X1X1X1X1X1X1X1X1X1X1X1X1X1X1X1X1X1X1X1X1X1X1X1X1X1X1X1X1X1X1X1X1X1X1X1X1X1X1X1X1X",
"1X1X1X1X1X1X1X1X1X1X1X1X1X1X1X1X<X<X<X<X<X<X<X<X<X<X<X<X<X<X<X<X3X3X3X3X2X2X4X4X1X4X4X;.&./ ' ) ` ` ` ` ` ` ` ` ` ` ` ` ` ` ` ` ` ` ` ` ` ` ` ` ` ` ` ` ` ` ` ` ` ` ` ` ` ` ` ` ` ` ` ` ` ` ` ` ` ` ` ` ` ` ` ` _ _ ` ' [ ;.4X,X2X<X<X<X<X<X<X<X<X<X<X<X<X<X<X<X1X1X1X1X1X1X1X1X1X1X1X1X1X1X1X1X1X1X2X2X4X4X4X9X .q 7 t e 3 e g t.a.h.a.a.h.b.a.b.b.b.b.b.a.a.a.b.b.a.r.t.1.<.<.4 4 <.<.1.t.t.a.b.b.b.b.b.b.b.b.b.b.b.b.b.b.b.b.c.c.c.c.c.c.c.c.c.c.c.c.c.c.c.c.b.b.b.b.b.b.b.b.b.b.b.b.b.b.b.b.b.b.c.c.c.c.b.b.b.b.z.c.b.n.n.n.3.z e e d < < C yXHXKXJXJXPXJXJXJXJXJXJXJXJXJXJXJXJXJXJXJXJXJXJXJXJXJXJXJXJXJXJXJXJXJXJXJXJXJXJXJXJXJXJXJXJXJXJXJXJXJXJXJXJXJXJXJXnXxXxXhXhXhXhXxXnXGXJXGXJXJXJXGXGXGXGXGXGXJXJXJXJXJXJXJXJXJXJXJXJXJXJXJXJXJXJXJXJXJXJXJXJXJXJXJXJXJXJXJXJXJXJXJXJXJXJXJXJXJXJXJXJXJXJXJXJXJXJXJXJXJXJXJXJXJXJXJXJXJXJXJXJXJXJXJXJXJXJXJXJXJXJXFXNXbXxXjXxXzX7X8X8X6X6X,X,X,X3X1X1X1X1X1X1X1X1X1X1X1X1X1X1X1X1X<X<X<X<X<X<X<X<X<X<X<X<X<X<X<X<X1X1X1X1X1X1X1X1X1X1X1X1X1X1X1X1X1X1X1X1X1X1X1X1X1X1X1X1X1X1X1X1X1X1X1X1X1X1X1X1X1X1X1X1X1X1X1X1X1X1X1X1X1X1X1X1X1X1X1X1X1X1X1X1X1X1X1X1X1X1X1X1X1X1X1X1X1X1X1X1X1X1X1X1X1X1X1X1X1X1X1X1X1X1X1X1X1X1X1X1X1X1X1X1X1X1X1X1X1X1X1X1X1X1X1X1X1X1X1X1X1X1X1X1X1X1X1X1X1X1X1X1X1X1X1X",
"1X1X1X1X1X1X1X1X1X1X1X1X1X1X1X1X<X<X<X<X<X<X<X<X<X<X<X<X<X<X<X<X3X3X3X3X2X2X4X<X1X1X4X>.[ / _ _ ` ` ` ` ` ` ` ` ` ` ` ` ` ` ` ` ` ` ` ` ` ` ` ` ` ` ` ` ` ` ` ` ` ` ` ` ` ` ` ` ` ` ` ` ` ` ` ` ` _ ` ` ` ` ` ` _ _ ` _ ' =.4X,X2X<X<X<X<X<X<X<X<X<X<X<X<X<X<X<X1X1X1X1X1X1X1X1X1X1X1X1X1X1X1X1X1X1X2X3X4X<X,X5X(.V 7 e e 2 e g t.r.h.a.a.a.b.a.b.b.b.b.b.b.b.b.a.a.b.b.a.t.3.3.<.g 4 4 4 <.2.t.t.r.b.n.M.M.M.m.b.b.b.b.b.b.b.b.b.b.b.b.b.b.b.b.b.b.b.b.b.b.b.b.b.b.b.b.b.b.b.b.b.b.b.b.b.b.b.b.b.b.c.c.z.z.b.b.b.b.z.z.b.n.n.n.3.g e e d 7 < C OXHXKXJXJXJXJXJXJXIXGXJXJXJXJXJXJXJXJXJXJXJXJXJXJXJXJXJXJXJXJXJXJXJXJXJXJXJXJXJXJXJXJXJXJXJXJXJXJXJXJXJXJXJXJXJXJXnXxXxXhXhXhXhXxXnXGXJXGXGXJXJXGXGXGXGXGXGXJXJXJXJXJXJXJXJXJXJXJXJXJXJXJXJXJXJXJXJXJXJXJXJXJXJXJXJXJXJXJXJXJXJXJXJXJXJXJXJXJXJXJXJXJXJXJXJXJXJXJXJXJXJXJXJXJXJXJXJXJXJXJXJXJXJXJXJXJXJXJXJXJXJXSXCXbXxXhXzXzX7X8X8X6X6X,X,X,X3X1X1X1X1X1X1X1X1X1X1X1X1X1X1X1X1X<X<X<X<X<X<X<X<X<X<X<X<X<X<X<X<X1X1X1X1X1X1X1X1X1X1X1X1X1X1X1X1X1X1X1X1X1X1X1X1X1X1X1X1X1X1X1X1X1X1X1X1X1X1X1X1X1X1X1X1X1X1X1X1X1X1X1X1X1X1X1X1X1X1X1X1X1X1X1X1X1X1X1X1X1X1X1X1X1X1X1X1X1X1X1X1X1X1X1X1X1X1X1X1X1X1X1X1X1X1X1X1X1X1X1X1X1X1X1X1X1X1X1X1X1X1X1X1X1X1X1X1X1X1X1X1X1X1X1X1X1X1X1X1X1X1X1X1X1X1X1X",
"1X1X1X1X1X1X1X1X1X1X1X1X1X1X1X1X<X<X<X<X<X<X<X<X<X<X<X<X<X<X<X<X3X3X3X3X2X2X3X1X1X1X<X-.' / ) ` ` ` ` ` ` ` ` ` ` ` ` ` ` ` ` ` ` ` ` ` ` ` ` ` ` ` ` ` ` ` ` ` ` ` ` ` ` ` ` ` ` ` ` ` ` ` ` ` ` _ ` ` ` ` ` ` _ _ _ _ ) -.>X4X2X<X<X<X<X<X<X<X<X<X<X<X<X<X<X<X1X1X1X1X1X1X1X1X1X1X1X1X1X1X1X1X1X1X4X2X4X4X:.5X+XV 7 t e 2 2 d t.r.a.h.a.a.b.a.b.b.b.b.b.b.b.b.a.b.b.b.b.a.r.t.t.2.1.4 4 4 <.<.3.t.t.b.m.M.M.M.b.b.b.b.b.b.b.b.b.b.b.b.b.b.b.b.b.b.b.b.b.b.b.b.b.b.b.b.b.b.b.b.b.b.b.b.b.b.b.b.b.b.c.c.z.z.b.b.z.z.z.z.b.b.b.n.3.g e e d 7 < c `.CXKXKXJXJXJXIXJXGXGXJXJXJXJXJXJXJXJXJXJXJXJXJXJXJXJXJXJXJXJXJXJXJXJXJXJXJXJXJXJXJXJXJXJXJXJXJXJXJXJXJXJXJXJXJXJXnXxXxXhXhXhXhXxXnXGXJXGXGXJXJXGXGXGXGXGXGXJXJXJXJXJXJXJXJXJXJXJXJXJXJXJXJXJXJXJXJXJXJXJXJXJXJXJXJXJXJXJXJXJXJXJXJXJXJXJXJXJXJXJXJXJXJXJXJXJXJXJXJXJXJXJXJXJXJXJXJXJXJXJXJXJXJXJXJXJXJXJXJXJXJXGXDXbXxXjXzX@X7X8X8X6X6X,X,X,X3X1X1X1X1X1X1X1X1X1X1X1X1X1X1X1X1X<X<X<X<X<X<X<X<X<X<X<X<X<X<X<X<X1X1X1X1X1X1X1X1X1X1X1X1X1X1X1X1X1X1X1X1X1X1X1X1X1X1X1X1X1X1X1X1X1X1X1X1X1X1X1X1X1X1X1X1X1X1X1X1X1X1X1X1X1X1X1X1X1X1X1X1X1X1X1X1X1X1X1X1X1X1X1X1X1X1X1X1X1X1X1X1X1X1X1X1X1X1X1X1X1X1X1X1X1X1X1X1X1X1X1X1X1X1X1X1X1X1X1X1X1X1X1X1X1X1X1X1X1X1X1X1X1X1X1X1X1X1X1X1X1X1X1X1X1X1X1X",
"1X1X1X1X1X1X1X1X1X1X1X1X1X1X1X1X<X<X<X<X<X<X<X<X<X<X<X<X<X<X<X<X3X3X3X3X2X2X3X1X1X4X:.-./ / ) ` ` ` ` ` ` ` ` ` ` ` ` ` ` ` ` ` ` ` ` ` ` ` ` ` ` ` ` ` ` ` ` ` ` ` ` ` ` ` ` ` ` ` ` ` ` ` ` ` ` _ ` ` ` ` ` ` _ _ _ _ ) -.>X4X2X<X<X<X<X<X<X<X<X<X<X<X<X<X<X<X1X1X1X1X1X1X1X1X1X1X1X1X1X1X1X1X1X1X4X2X4X4X:.>XwXR 7 t e 3 2 g 2.t.a.h.a.a.a.a.a.a.b.b.b.b.b.b.b.b.b.b.b.a.b.b.a.t.t.1.1.<.4 4 <.<.1.3.t.r.z.z.m.b.b.b.b.b.b.b.b.b.b.b.b.b.b.b.b.b.b.b.b.b.b.b.b.b.b.b.b.b.b.b.b.b.b.b.b.b.b.b.b.b.c.c.c.c.b.b.z.z.r.r.t.t.t.s.3.g e t f d < d `.NXKXKXJXJXGXGXJXIXGXJXJXJXJXJXJXJXJXJXJXJXJXJXJXJXJXJXJXJXJXJXJXJXJXJXJXJXJXJXJXJXJXJXJXJXJXJXJXJXJXJXJXJXJXJXJXnXxXxXhXhXhXhXhXnXSXJXGXGXJXJXGXGXGXGXGXGXJXJXJXJXJXJXJXJXJXJXJXJXJXJXJXJXJXJXJXJXJXJXJXJXJXJXJXJXJXJXJXJXJXJXJXJXJXJXJXJXJXJXJXJXJXJXJXJXJXJXJXJXJXJXJXJXJXJXJXJXJXJXJXJXJXJXJXJXJXJXJXJXJXJXGXAXnXxXjXzX@X7X8X8X6X6X3X,X,X3X1X1X1X1X1X1X1X1X1X1X1X1X1X1X1X1X<X<X<X<X<X<X<X<X<X<X<X<X<X<X<X<X1X1X1X1X1X1X1X1X1X1X1X1X1X1X1X1X1X1X1X1X1X1X1X1X1X1X1X1X1X1X1X1X1X1X1X1X1X1X1X1X1X1X1X1X1X1X1X1X1X1X1X1X1X1X1X1X1X1X1X1X1X1X1X1X1X1X1X1X1X1X1X1X1X1X1X1X1X1X1X1X1X1X1X1X1X1X1X1X1X1X1X1X1X1X1X1X1X1X1X1X1X1X1X1X1X1X1X1X1X1X1X1X1X1X1X1X1X1X1X1X1X1X1X1X1X1X1X1X1X1X1X1X1X1X1X",
"1X1X1X1X1X1X1X1X1X1X1X1X1X1X1X1X<X<X<X<X<X<X<X<X<X<X<X<X<X<X<X1X3X3X3X3X2X2X4X1X4X4X;.&./ ) ) o.` ` ` ` ` ` ` ` ` ` ` ` ` ` ` ` ` ` ` ` ` ` ` ` ` ` ` ` ` ` ` ` ` ` ` ` ` ` ` ` ` ` ` ` ` ` ` ` ` _ ` ` ` ` ` ` _ o._ _ ' &.;.4X2X<X<X<X<X1X1X1X<X<X<X<X<X<X<X<X1X1X1X1X1X1X1X1X1X1X1X1X1X1X1X1X1X1X4X2X4X4X<X>XwXR 9 s e 2 e d 2.t.a.h.a.a.a.r.a.a.b.b.b.b.b.b.m.b.b.a.a.b.m.m.a.a.r.t.3.1.<.4 4 4 4 4 1.1.t.t.m.m.b.b.b.b.b.b.b.b.b.b.b.b.b.b.b.b.b.b.b.b.b.b.b.b.b.b.b.b.b.b.b.b.b.b.b.b.b.b.b.b.c.c.c.b.b.b.r.r.t.t.t.t.3.3.3.g e t f d < d `.NXKXKXJXGXGXGXJXGXGXJXJXJXJXJXJXJXJXJXJXJXJXJXJXJXJXJXJXJXJXJXJXJXJXJXJXJXJXJXJXJXJXJXJXJXJXJXJXJXJXJXJXJXJXJXJXnXxXxXhXhXhXhXhXnXSXJXGXGXJXJXGXGXGXGXGXGXJXJXJXJXJXJXJXJXJXJXJXJXJXJXJXJXJXJXJXJXJXJXJXJXJXJXJXJXJXJXJXJXJXJXJXJXJXJXJXJXJXJXJXJXJXJXJXJXJXJXJXJXJXJXJXJXJXJXJXJXJXJXJXJXJXJXJXJXJXJXJXJXJXJXSXAXnXxXhXhXXX7X8X8XwX6X,X,X,X3X1X1X1X1X1X1X1X1X1X1X1X1X1X1X1X1X<X<X<X<X<X<X<X<X<X<X<X<X<X<X<X<X1X1X1X1X1X1X1X1X1X1X1X1X1X1X1X1X1X1X1X1X1X1X1X1X1X1X1X1X1X1X1X1X1X1X1X1X1X1X1X1X1X1X1X1X1X1X1X1X1X1X1X1X1X1X1X1X1X1X1X1X1X1X1X1X1X1X1X1X1X1X1X1X1X1X1X1X1X1X1X1X1X1X1X1X1X1X1X1X1X1X1X1X1X1X1X1X1X1X1X1X1X1X1X1X1X1X1X1X1X1X1X1X1X1X1X1X1X1X1X1X1X1X1X1X1X1X1X1X1X1X1X1X1X1X1X",
"1X1X1X1X1X1X1X1X1X1X1X1X1X1X1X1X1X1X1X1X1X1X1X1X1X1X1X1X1X1X1X1X3X3X1X<X<X<X<X<X4X4X;.[ / / _ _ ` ` ` ` ` ` ` ` ` ` ` ` ` ` ` ` ` ` ` ` ` ` ` ` ` ` ` ` ` ` ` ` ` ` ` ` ` ` ` ` ` ` ` ` ` ` ` ` ` _ ` ` ` ` ` ` ` _ _ _ _ ' >.4X4X<X<X<X1X1X1X1X1X1X<X<X<X<X<X<X1X1X1X1X1X1X1X1X1X1X1X1X1X1X1X<X3X3X2X2X<X<X2X5XwX{ q < 2 2 i e g 2.a.M.h.a.r.y.c.c.c.y.y.y.c.c.b.b.b.b.b.b.b.b.m.m.m.b.r.t.t.t.<.4 4 4 4 4 4 4 1.1.3.t.r.r.m.m.b.z.z.r.r.r.r.r.z.z.r.r.r.r.r.r.b.b.b.z.z.z.z.z.z.z.z.z.r.r.r.r.r.r.r.r.r.r.r.z.t.t.t.3.3.3.3.3.2.<.i i h f d < A.BXPXJXGXGXGXGXJXIXJXJXJXJXJXJXJXJXJXJXJXJXJXJXJXJXJXJXJXJXJXJXJXJXJXJXJXJXJXJXJXJXJXJXJXJXJXJXJXJXJXJXJXJXJXJXGXnXcXhXhXhXhXhXxXnXAXGXGXGXGXJXJXJXJXJXJXJXJXJXJXJXJXJXJXJXJXJXJXJXJXJXJXJXJXJXJXJXJXJXJXJXJXJXJXJXJXJXJXJXJXJXJXJXJXJXJXJXJXJXJXJXJXJXJXJXJXJXJXJXJXJXJXJXJXJXJXJXJXJXJXJXJXJXJXJXJXJXJXJXJXJXJXAXnXxXhXhX%X7X7X8X:X6X,X:.,X1X<X1X1X1X1X1X1X1X1X1X1X1X1X1X1X1X1X1X1X1X1X1X1X1X1X1X1X1X1X1X1X1X1X1X1X1X1X1X1X1X1X1X1X1X1X1X1X1X1X1X1X1X1X1X1X1X1X1X1X1X1X1X1X1X1X1X1X1X1X1X1X1X1X1X1X1X1X1X1X1X1X1X1X1X1X1X1X1X1X1X1X1X1X1X1X1X1X1X1X1X1X1X1X1X1X1X1X1X1X1X1X1X1X1X1X1X1X1X1X1X1X1X1X1X1X1X1X1X1X1X1X1X1X1X1X1X1X1X1X1X1X1X1X1X1X1X1X1X1X1X1X1X1X1X1X1X1X1X1X1X1X1X1X1X1X1X1X",
"1X1X1X1X1X1X1X1X1X1X1X1X1X1X1X1X1X1X1X1X1X1X1X1X1X1X1X1X1X1X1X1X3X3X1X1X<X<X<X<X4X4X>.[ / _ _ _ ` ` ` ` ` ` ` ` ` ` ` ` ` ` ` ` ` ` ` ` ` ` ` ` ` ` ` ` ` ` ` ` ` ` ` ` ` ` ` ` ` ` ` ` ` ` ` ` ` _ ` ` ` ` ` ` ` _ _ _ _ ' >.4X4X<X<X1X1X1X,X,X1X1X<X<X<X<X<X<X1X1X1X1X1X1X1X1X1X1X1X1X1X1X1X<X3X3X2X<X<X2X4X5XwX~.Z 7 2 e r e g 2.s.b.h.a.r.y.c.c.c.c.y.y.c.c.b.b.b.b.b.b.b.b.b.b.b.b.r.r.t.t.t.t.3.1.<.4 4 4 4 4 4 <.1.1.1.1.r.r.r.r.z.m.m.m.m.m.m.m.m.m.m.m.b.b.b.b.m.m.b.b.r.r.r.r.r.r.r.t.t.t.t.t.t.t.t.t.3.3.t.t.t.t.t.t.3.<.i i g g d 5 l.vXPXJXGXAXAXGXJXJXJXJXJXJXJXJXJXJXJXJXJXJXJXJXJXJXJXJXJXJXJXJXJXJXJXJXJXJXJXJXJXJXJXJXJXJXJXJXJXJXJXJXJXJXJXJXGXnXcXhXhXhXhXhXxXnXDXGXGXGXGXJXJXJXJXJXJXJXJXJXJXJXJXJXJXJXJXJXJXJXJXJXJXJXJXJXJXJXJXJXJXJXJXJXJXJXJXJXJXJXJXJXJXJXJXJXJXJXJXJXJXJXJXJXJXJXJXJXJXJXJXJXJXJXJXJXJXJXJXJXJXJXJXJXJXJXJXJXJXJXJXJXJXAXnXxXhXhX%X7X7X8X6X6X,X:.<X3X1X1X1X1X1X1X1X1X1X1X1X1X1X1X1X1X1X1X1X1X1X1X1X1X1X1X1X1X1X1X1X1X1X1X1X1X1X1X1X1X1X1X1X1X1X1X1X1X1X1X1X1X1X1X1X1X1X1X1X1X1X1X1X1X1X1X1X1X1X1X1X1X1X1X1X1X1X1X1X1X1X1X1X1X1X1X1X1X1X1X1X1X1X1X1X1X1X1X1X1X1X1X1X1X1X1X1X1X1X1X1X1X1X1X1X1X1X1X1X1X1X1X1X1X1X1X1X1X1X1X1X1X1X1X1X1X1X1X1X1X1X1X1X1X1X1X1X1X1X1X1X1X1X1X1X1X1X1X1X1X1X1X1X1X1X1X1X",
"1X1X1X1X1X1X1X1X1X1X1X1X1X1X1X1X1X1X1X1X1X1X1X1X1X1X1X1X1X1X1X1X1X1X1X1X<X<X<X<X4X4X=.' / ) _ _ ` ` ` ` ` ` ` ` ` ` ` ` ` ` ` ` ` ` ` ` ` ` ` ` ` ` ` ` ` ` ` ` ` ` ` ` ` ` ` ` ` ` ` ` ` ` ` ` ` _ ` ` ` ` ` ` ` _ _ _ _ ' =.4X4X<X<X1X1X1X,X,X1X1X<X<X<X<X<X<X1X1X1X1X1X1X1X1X1X1X1X1X1X1X1X1X1X1X<X1X<X<X2X2XwX+XZ 7 t i e e g 1.s.a.h.a.a.a.m.m.m.m.c.c.c.c.b.b.b.b.b.b.b.b.a.a.b.b.b.a.r.r.b.b.r.r.t.3.1.1.1.1.1.<.<.<.4 4 <.1.1.1.3.t.t.t.r.r.r.r.r.r.r.r.t.t.r.r.r.r.r.r.t.t.t.t.t.t.t.t.t.t.t.t.t.t.t.t.t.t.t.z.z.z.r.z.3.4.i i h h d < k.dXKXPXGXDXAXGXJXJXJXJXJXJXJXJXJXJXJXJXJXJXJXJXJXJXJXJXJXJXJXJXJXJXJXJXJXJXJXJXJXJXJXJXJXJXJXJXJXJXJXJXJXJXJXJXGXnXcXhXhXhXhXhXxXnXDXGXGXGXGXJXJXJXJXJXJXJXJXJXJXJXJXJXJXJXJXJXJXJXJXJXJXJXJXJXJXJXJXJXJXJXJXJXJXJXJXJXJXJXJXJXJXJXJXJXJXJXJXJXJXJXJXJXJXJXJXJXJXJXJXJXJXJXJXJXJXJXJXJXJXJXJXJXJXJXJXJXJXJXJXJXJXAXnXxXhXhXXX7X7X8X6X6X:.:.1X1X1X1X1X1X1X1X1X1X1X1X1X1X1X1X1X1X1X1X1X1X1X1X1X1X1X1X1X1X1X1X1X1X1X1X1X1X1X1X1X1X1X1X1X1X1X1X1X1X1X1X1X1X1X1X1X1X1X1X1X1X1X1X1X1X1X1X1X1X1X1X1X1X1X1X1X1X1X1X1X1X1X1X1X1X1X1X1X1X1X1X1X1X1X1X1X1X1X1X1X1X1X1X1X1X1X1X1X1X1X1X1X1X1X1X1X1X1X1X1X1X1X1X1X1X1X1X1X1X1X1X1X1X1X1X1X1X1X1X1X1X1X1X1X1X1X1X1X1X1X1X1X1X1X1X1X1X1X1X1X1X1X1X1X1X1X1X1X",
"1X1X1X1X1X1X1X1X1X1X1X1X1X1X1X1X1X1X1X1X1X1X1X1X1X1X1X1X1X1X1X1X1X1X1X1X<X<X<X<X4X:.-.' ) ) / _ ` ` ` ` ` ` ` ` ` ` ` ` ` ` ` ` ` ` ` ` ` ` ` ` ` ` ` ` ` ` ` ` ` ` ` ` ` ` ` ` ` ` ` ` ` ` ` ` ` _ ` ` ` ` ` ` ` _ _ _ _ ' -.:.4X<X<X1X1X1X,X1X1X1X<X<X<X<X<X<X1X1X1X1X1X1X1X1X1X1X1X1X1X1X1X1X1X1X1X1X<X<X<X4X5X#XR 0 t e e e g <.t.a.a.a.a.h.m.m.m.m.m.c.c.c.b.b.b.b.b.b.b.b.a.a.b.b.b.b.b.b.r.r.b.m.m.b.r.r.r.r.r.t.t.3.1.1.4 4 4 V.<.1.1.1.1.1.1.1.1.1.1.1.1.1.3.3.3.3.t.t.3.3.t.t.t.t.t.t.t.t.t.t.t.t.t.t.r.z.b.b.b.z.z.r.0.4.i i h h d < Z yXPXPXGXDXAXGXJXJXJXJXJXJXJXJXJXJXJXJXJXJXJXJXJXJXJXJXJXJXJXJXJXJXJXJXJXJXJXJXJXJXJXJXJXJXJXJXJXJXJXJXJXJXJXJXGXnXcXhXhXhXhXhXhXnXDXGXGXGXGXJXJXJXJXJXJXJXJXJXJXJXJXJXJXJXJXJXJXJXJXJXJXJXJXJXJXJXJXJXJXJXJXJXJXJXJXJXJXJXJXJXJXJXJXJXJXJXJXJXJXJXJXJXJXJXJXJXJXJXJXJXJXJXJXJXJXJXJXJXJXJXJXJXJXJXJXJXJXJXJXJXJXAXnXxXhXzXXX7X7X8X6X6X,X:.1X1X1X1X1X1X1X1X1X1X1X1X1X1X1X1X1X1X1X1X1X1X1X1X1X1X1X1X1X1X1X1X1X1X1X1X1X1X1X1X1X1X1X1X1X1X1X1X1X1X1X1X1X1X1X1X1X1X1X1X1X1X1X1X1X1X1X1X1X1X1X1X1X1X1X1X1X1X1X1X1X1X1X1X1X1X1X1X1X1X1X1X1X1X1X1X1X1X1X1X1X1X1X1X1X1X1X1X1X1X1X1X1X1X1X1X1X1X1X1X1X1X1X1X1X1X1X1X1X1X1X1X1X1X1X1X1X1X1X1X1X1X1X1X1X1X1X1X1X1X1X1X1X1X1X1X1X1X1X1X1X1X1X1X1X1X1X1X1X",
"1X1X1X1X1X1X1X1X1X1X1X1X1X1X1X1X1X1X1X1X1X1X1X1X1X1X1X1X1X1X1X1X1X1X1X1X1X1X<X<X4X;.-./ _ _ / ` ` ` ` ` ` ` ` ` ` ` ` ` ` ` ` ` ` ` ` ` ` ` ` ` ` ` ` ` ` ` ` ` ` ` ` ` ` ` ` ` ` ` ` ` ` ` ` ` ` _ ` ` ` ` ` ` ` _ _ _ ) ) -.;.4X<X<X1X1X3X3X1X1X1X<X<X<X<X1X1X1X1X1X1X1X1X1X1X1X1X1X1X1X1X1X1X1X1X1X1X<X<X<X2X5XwXR 0 7 r e e g g 3.a.a.h.a.a.b.b.b.m.m.c.c.c.b.b.b.b.b.b.b.b.b.b.b.b.b.b.b.b.r.r.b.b.b.b.b.b.m.m.m.m.b.b.b.a.t.t.t.t.3.1.1.1.1.1.1.1.1.1.1.1.1.1.1.1.3.3.3.3.t.t.t.t.t.t.t.t.z.z.z.z.z.z.z.z.b.b.b.b.z.z.z.b.3.4.i i g g d < c yXPXPXGXHXGXHXJXJXJXJXJXJXJXJXJXJXJXJXJXJXJXJXJXJXJXJXJXJXJXJXJXJXJXJXJXJXJXJXJXJXJXJXJXJXJXJXJXJXJXJXJXJXJXJXGXnXcXhXhXhXhXhXhXbXDXGXGXGXJXJXJXJXJXJXJXJXJXJXJXJXJXJXJXJXJXJXJXJXJXJXJXJXJXJXJXJXJXJXJXJXJXJXJXJXJXJXJXJXJXJXJXJXJXJXJXJXJXJXJXJXJXJXJXJXJXJXJXJXJXJXJXJXJXJXJXJXJXJXJXJXJXJXJXJXJXJXJXJXJXJXJXAXnXxXhXzXzX7X7X8X6X6X,X:.1X1X1X1X1X1X1X1X1X1X1X1X1X1X1X1X1X1X1X1X1X1X1X1X1X1X1X1X1X1X1X1X1X1X1X1X1X1X1X1X1X1X1X1X1X1X1X1X1X1X1X1X1X1X1X1X1X1X1X1X1X1X1X1X1X1X1X1X1X1X1X1X1X1X1X1X1X1X1X1X1X1X1X1X1X1X1X1X1X1X1X1X1X1X1X1X1X1X1X1X1X1X1X1X1X1X1X1X1X1X1X1X1X1X1X1X1X1X1X1X1X1X1X1X1X1X1X1X1X1X1X1X1X1X1X1X1X1X1X1X1X1X1X1X1X1X1X1X1X1X1X1X1X1X1X1X1X1X1X1X1X1X1X1X1X1X1X1X1X",
"1X1X1X1X1X1X1X1X1X1X1X1X1X1X1X1X1X1X1X1X1X1X1X1X1X1X1X1X1X1X1X1X1X1X1X1X1X1X<X<X4X>.[ ) _ _ ) ` ` ` ` ` ` ` ` ` ` ` ` ` ` ` ` ` ` ` ` ` ` ` ` ` ` ` ` ` ` ` ` ` ` ` ` ` ` ` ` ` ` ` ` ` ` ` ` ` ` _ ` ` ` ` ` ` ` _ _ _ ) ) &.>.4X<X<X<X1X1X3X1X1X1X<X<X<X<X1X1X1X1X1X1X1X1X1X1X1X1X1X1X1X1X1X1X1X1X1X1X<X<X<X<X4XwX .q 0 t e i i g 2.a.a.a.a.a.b.b.b.b.b.m.b.b.b.b.b.b.b.b.b.b.m.m.b.a.a.a.b.b.m.b.b.r.r.r.r.r.b.b.m.m.b.b.m.m.m.m.m.b.r.r.r.r.t.t.t.t.t.t.t.t.t.t.t.t.t.t.t.t.t.t.r.r.r.r.r.b.z.z.z.z.z.z.z.z.b.b.z.r.z.z.r.b.3.4.i i h h t 2 c yXPXJXHXGXGXHXJXJXJXJXJXJXJXJXJXJXJXJXJXJXJXJXJXJXJXJXJXJXJXJXJXJXJXJXJXJXJXJXJXJXJXJXJXJXJXJXJXJXJXJXJXJXJXJXGXNXcXhXhXhXhXhXhXbXDXGXGXGXJXJXJXJXJXJXJXJXJXJXJXJXJXJXJXJXJXJXJXJXJXJXJXJXJXJXJXJXJXJXJXJXJXJXJXJXJXJXJXJXJXJXJXJXJXJXJXJXJXJXJXJXJXJXJXJXJXJXJXJXJXJXJXJXJXJXJXJXJXJXJXJXJXJXJXJXJXJXJXJXJXJXJXAXnXcXjXxXsX7X7X8XwX6X,X:.1X1X1X1X1X1X1X1X1X1X1X1X1X1X1X1X1X1X1X1X1X1X1X1X1X1X1X1X1X1X1X1X1X1X1X1X1X1X1X1X1X1X1X1X1X1X1X1X1X1X1X1X1X1X1X1X1X1X1X1X1X1X1X1X1X1X1X1X1X1X1X1X1X1X1X1X1X1X1X1X1X1X1X1X1X1X1X1X1X1X1X1X1X1X1X1X1X1X1X1X1X1X1X1X1X1X1X1X1X1X1X1X1X1X1X1X1X1X1X1X1X1X1X1X1X1X1X1X1X1X1X1X1X1X1X1X1X1X1X1X1X1X1X1X1X1X1X1X1X1X1X1X1X1X1X1X1X1X1X1X1X1X1X1X1X1X1X1X1X",
"1X1X1X1X1X1X1X1X1X1X1X1X1X1X1X1X1X1X1X1X1X1X1X1X1X1X1X1X1X1X1X1X1X1X1X1X1X1X<X<X4X-.' ) _ _ _ _ ` ` ` ` ` ` ` ` ` ` ` ` ` ` ` ` ` ` ` ` ` ` ` ` ` ` ` ` ` ` ` ` ` ` ` ` ` ` ` ` ` ` ` ` ` ` ` ` ` _ ` ` ` ` ` ` ` _ _ _ ) ) [ =.4X<X<X<X1X1X1X1X1X1X<X<X<X<X3X3X1X1X1X1X1X1X1X1X1X1X1X1X1X1X1X1X1X1X<X<X<X<X<X<X2X>X .q 0 t e i i g 2.s.a.h.a.a.b.b.b.b.b.h.b.b.b.b.b.b.b.b.b.b.b.b.a.r.r.r.a.b.r.r.z.b.b.b.b.b.m.b.b.z.r.r.r.r.z.z.b.b.m.m.m.m.m.m.m.m.m.m.m.m.r.r.r.r.r.r.r.r.b.b.b.b.b.b.b.b.z.z.z.z.z.z.z.z.z.z.z.r.r.t.t.t.2.4.i i i r t 2 d eXHXJXHXGXGXHXJXJXJXJXJXJXJXJXJXJXJXJXJXJXJXJXJXJXJXJXJXJXJXJXJXJXJXJXJXJXJXJXJXJXJXJXJXJXJXJXJXJXJXJXJXJXJXJXGXnXcXhXhXhXhXhXhXbXDXGXGXGXJXJXJXJXJXJXJXJXJXJXJXJXJXJXJXJXJXJXJXJXJXJXJXJXJXJXJXJXJXJXJXJXJXJXJXJXJXJXJXJXJXJXJXJXJXJXJXJXJXJXJXJXJXJXJXJXJXJXJXJXJXJXJXJXJXJXJXJXJXJXJXJXJXJXJXJXJXJXJXJXJXJXJXAXnXxXxXxXsXzX7X8XwX6X,X:.1X1X1X1X1X1X1X1X1X1X1X1X1X1X1X1X1X1X1X1X1X1X1X1X1X1X1X1X1X1X1X1X1X1X1X1X1X1X1X1X1X1X1X1X1X1X1X1X1X1X1X1X1X1X1X1X1X1X1X1X1X1X1X1X1X1X1X1X1X1X1X1X1X1X1X1X1X1X1X1X1X1X1X1X1X1X1X1X1X1X1X1X1X1X1X1X1X1X1X1X1X1X1X1X1X1X1X1X1X1X1X1X1X1X1X1X1X1X1X1X1X1X1X1X1X1X1X1X1X1X1X1X1X1X1X1X1X1X1X1X1X1X1X1X1X1X1X1X1X1X1X1X1X1X1X1X1X1X1X1X1X1X1X1X1X1X1X1X1X",
"1X1X1X1X1X1X1X1X1X1X1X1X1X1X1X1X1X1X1X1X1X1X1X1X1X1X1X1X1X1X1X1X1X1X1X1X1X1X<X2X4X-.' ) _ _ _ _ ` ` ` ` ` ` ` ` ` ` ` ` ` ` ` ` ` ` ` ` ` ` ` ` ` ` ` ` ` ` ` ` ` ` ` ` ` ` ` ` ` ` ` ` ` ` ` ` ` _ ` ` ` ` ` ` ` _ _ _ ) ) ' =.4X4X<X2X<X1X1X1X1X1X<X<X<X<X1X3X1X1X1X1X1X1X1X1X1X1X1X1X1X1X1X1X1X1X1X<X2X2X<X<X<X>X .V 9 7 e i i g 2.s.a.a.a.a.a.a.b.b.b.a.b.b.b.b.b.b.b.b.b.b.b.a.r.r.r.r.b.b.r.r.b.m.m.m.m.m.r.r.r.r.r.r.b.b.m.m.b.b.b.b.b.z.z.z.z.b.b.b.b.b.m.m.z.z.z.z.r.r.m.m.b.b.b.r.r.r.z.z.z.z.b.b.b.b.b.b.b.z.t.t.3.1.2.g i i r e t t d eXAXGXHXAXAXSXJXJXJXJXJXJXJXJXJXJXJXJXJXJXJXJXJXJXJXJXJXJXJXJXJXJXJXJXJXJXJXJXJXJXJXJXJXJXJXJXJXJXJXJXJXJXJXJXGXnXcXhXhXhXhXhXhXbXDXGXGXGXJXJXJXJXJXJXJXJXJXJXJXJXJXJXJXJXJXJXJXJXJXJXJXJXJXJXJXJXJXJXJXJXJXJXJXJXJXJXJXJXJXJXJXJXJXJXJXJXJXJXJXJXJXJXJXJXJXJXJXJXJXJXJXJXJXJXJXJXJXJXJXJXJXJXJXJXJXJXJXJXJXJXJXAXnXxXxXxXsXzX7X8X6X6X,X:.1X1X1X1X1X1X1X1X1X1X1X1X1X1X1X1X1X1X1X1X1X1X1X1X1X1X1X1X1X1X1X1X1X1X1X1X1X1X1X1X1X1X1X1X1X1X1X1X1X1X1X1X1X1X1X1X1X1X1X1X1X1X1X1X1X1X1X1X1X1X1X1X1X1X1X1X1X1X1X1X1X1X1X1X1X1X1X1X1X1X1X1X1X1X1X1X1X1X1X1X1X1X1X1X1X1X1X1X1X1X1X1X1X1X1X1X1X1X1X1X1X1X1X1X1X1X1X1X1X1X1X1X1X1X1X1X1X1X1X1X1X1X1X1X1X1X1X1X1X1X1X1X1X1X1X1X1X1X1X1X1X1X1X1X1X1X1X1X1X",
"1X1X1X1X1X1X1X1X1X1X1X1X1X1X1X1X1X1X1X1X1X1X1X1X1X1X1X1X1X1X1X1X1X1X1X1X3X<X:.,X;.&./ ) _ o.` o.` ` ` ` ` ` ` ` ` ` ` ` ` ` ` ` ` ` ` ` ` ` ` ` ` ` ` ` ` ` ` ` ` ` ` ` ` ` ` ` ` ` ` ` ` ` ` ` ` _ ` ` ` ` ` ` ` _ _ ) ) ) [ -.;.4X<X<X3X1X,X<X1X1X<X<X1X1X1X3X1X1X1X1X1X1X1X1X1X1X1X1X1X1X1X1X1X1X<X2X2X2X4X4X4X2X+XV 9 7 i 3 i g 4.2.a.a.a.a.a.a.M.M.M.m.a.a.b.b.b.b.b.b.b.b.b.b.b.b.a.b.b.b.b.b.b.b.b.b.b.b.b.b.b.b.b.b.b.b.b.b.b.b.b.b.b.b.b.b.b.b.b.b.b.b.b.b.z.b.b.b.r.r.r.r.b.b.z.b.b.b.z.z.b.b.m.z.z.r.z.r.t.t.3.1.1.<.2.g i i i r t < 7 S.nXIXIXSXSXSXSXSXSXGXSXSXJXJXJXJXJXJXJXJXJXJXJXJXJXJXJXJXJXJXJXJXJXJXJXJXJXJXJXJXJXJXJXJXJXJXJXJXJXJXJXJXJXJXGXnXxXhXhXhXhXhXhXnXDXGXGXGXGXJXJXJXJXJXJXJXJXJXJXJXJXJXJXJXJXJXJXJXJXJXJXJXJXJXJXJXJXJXJXJXJXJXJXJXJXJXJXJXJXJXJXJXJXJXJXJXJXJXJXJXJXJXJXJXJXJXJXJXJXJXJXJXJXJXJXJXJXJXJXJXJXJXGXJXJXJXJXGXGXGXKXDXbXxXxXxXsX7X7X8X6X6X,X1X1X3X1X1X1X1X1X1X1X1X1X1X1X1X1X1X1X1X1X1X1X1X1X1X1X1X1X1X1X1X1X1X1X1X1X1X1X1X1X1X1X1X1X1X1X1X1X1X1X1X1X1X1X1X1X1X1X1X1X1X1X1X1X1X1X1X1X1X1X1X1X1X1X1X1X1X1X1X1X1X1X1X1X1X1X1X1X1X1X1X1X1X1X1X1X1X1X1X1X1X1X1X1X1X1X1X1X1X1X1X1X1X1X1X1X1X1X1X1X1X1X1X1X1X1X1X1X1X1X1X1X1X1X1X1X1X1X1X1X1X1X1X1X1X1X1X1X1X1X1X1X1X1X1X1X1X1X1X1X1X1X1X1X1X1X1X1X1X1X",
"1X1X1X1X1X1X1X1X1X1X1X1X1X1X1X1X1X1X1X1X1X1X1X1X1X1X1X1X1X1X1X1X1X1X1X1X3X1X,X<X;.&./ ) _ o.` o.` ` ` ` ` ` ` ` ` ` ` ` ` ` ` ` ` ` ` ` ` ` ` ` ` ` ` ` ` ` ` ` ` ` ` ` ` ` ` ` ` ` ` ` ` ` ` ` ` _ ` ` ` ` ` ` ` _ _ ) ) / ' -.;.4X4X<X4X1X<X1X1X1X<X<X1X1X1X1X1X1X1X1X1X1X1X1X1X1X1X1X1X1X1X1X1X1X<X2X2X2X4X4X<X4X:XV 9 7 i e i g g 1.t.a.a.m.b.b.b.b.b.a.a.a.b.b.b.b.b.b.b.b.b.b.b.b.b.b.b.b.b.b.b.b.b.b.b.b.b.b.b.b.b.b.b.b.b.b.b.b.b.b.b.b.b.b.b.b.b.b.b.b.b.b.z.z.b.b.r.r.b.b.r.r.r.r.r.r.b.b.z.z.z.z.z.z.t.3.3.1.1.1.1.2.2.z g i i i e 2 7 A.vXIXIXAXAXSXSXSXGXGXSXSXJXJXJXJXJXJXJXJXJXJXJXJXJXJXJXJXJXJXJXJXJXJXJXJXJXJXJXJXJXJXJXJXJXJXJXJXJXJXJXJXJXJXGXnXcXrXhXhXhXhXhXnXDXGXGXGXGXJXJXJXJXJXJXJXJXJXJXJXJXJXJXJXJXJXJXJXJXJXJXJXJXJXJXJXJXJXJXJXJXJXJXJXJXJXJXJXJXJXJXJXJXJXJXJXJXJXJXJXJXJXJXJXJXJXJXJXJXJXJXJXJXJXJXJXJXJXJXJXJXJXGXGXJXJXJXGXGXGXJXCXcXhXxXzXsX7X7X8X6X6X,X1X1X3X1X1X1X1X1X1X1X1X1X1X1X1X1X1X1X1X1X1X1X1X1X1X1X1X1X1X1X1X1X1X1X1X1X1X1X1X1X1X1X1X1X1X1X1X1X1X1X1X1X1X1X1X1X1X1X1X1X1X1X1X1X1X1X1X1X1X1X1X1X1X1X1X1X1X1X1X1X1X1X1X1X1X1X1X1X1X1X1X1X1X1X1X1X1X1X1X1X1X1X1X1X1X1X1X1X1X1X1X1X1X1X1X1X1X1X1X1X1X1X1X1X1X1X1X1X1X1X1X1X1X1X1X1X1X1X1X1X1X1X1X1X1X1X1X1X1X1X1X1X1X1X1X1X1X1X1X1X1X1X1X1X1X1X1X1X1X1X",
"1X1X1X1X1X1X1X1X1X1X1X1X1X1X1X1X1X1X1X1X1X1X1X1X1X1X1X1X1X1X1X1X1X1X1X1X<X1X<X<X>.&.) _ _ o.` o.` ` ` ` ` ` ` ` ` ` ` ` ` ` ` ` ` ` ` ` ` ` ` ` ` ` ` ` ` ` ` ` ` ` ` ` ` ` ` ` ` ` ` ` ` ` ` ` ` _ ` ` ` ` ` ` ` _ _ _ ) / ) &.;.4X4X<X3X<X<X1X1X1X<X<X1X1X1X1X1X1X1X1X1X1X1X1X1X1X1X1X1X1X1X1X1X1X2X2X2X2X4X4X<X4XwXY > 7 e i e e g g 1.t.a.M.b.b.b.a.a.a.b.b.b.b.b.b.b.b.b.b.b.b.b.b.a.b.b.b.b.c.c.c.c.c.c.c.c.c.c.c.c.c.c.c.b.b.b.b.b.b.b.b.b.b.b.b.b.b.b.b.b.b.b.b.b.b.r.r.b.b.r.r.r.r.r.r.z.z.z.z.z.r.t.t.1.1.1.1.1.1.t.t.3.2.g r i i e t < l.dXIXIXDXDXAXSXSXGXGXGXSXJXJXJXJXJXJXJXJXJXJXJXJXJXJXJXJXJXJXJXJXJXJXJXJXJXJXJXJXJXJXJXJXJXJXJXJXJXJXJXJXJXJXGXnXcXhXhXhXhXhXhXnXDXGXGXGXGXJXJXJXJXJXJXJXJXJXJXJXJXJXJXJXJXJXJXJXJXJXJXJXJXJXJXJXJXJXJXJXJXJXJXJXJXJXJXJXJXJXJXJXJXJXJXJXJXJXJXJXJXJXJXJXJXJXJXJXJXJXJXJXJXJXJXJXJXJXJXJXJXJXGXGXJXJXJXJXGXSXJXCXzX%XxXxXzX7X8X8X6X6X,X1X1X1X1X1X1X1X1X1X1X1X1X1X1X1X1X1X1X1X1X1X1X1X1X1X1X1X1X1X1X1X1X1X1X1X1X1X1X1X1X1X1X1X1X1X1X1X1X1X1X1X1X1X1X1X1X1X1X1X1X1X1X1X1X1X1X1X1X1X1X1X1X1X1X1X1X1X1X1X1X1X1X1X1X1X1X1X1X1X1X1X1X1X1X1X1X1X1X1X1X1X1X1X1X1X1X1X1X1X1X1X1X1X1X1X1X1X1X1X1X1X1X1X1X1X1X1X1X1X1X1X1X1X1X1X1X1X1X1X1X1X1X1X1X1X1X1X1X1X1X1X1X1X1X1X1X1X1X1X1X1X1X1X1X1X1X1X1X1X1X",
"1X1X1X1X1X1X1X1X1X1X1X1X1X1X1X1X1X1X1X1X1X1X1X1X1X1X1X1X1X1X1X1X1X1X1X1X,X,X<X<X=.[ ) _ _ o.o.` ` ` ` ` ` ` ` ` ` ` ` ` ` ` ` ` ` ` ` ` ` ` ` ` ` ` ` ` ` ` ` ` ` ` ` ` ` ` ` ` ` ` ` ` ` ` ` ` ` _ ` ` ` ` ` ` _ _ _ _ _ / ) [ >.4X4X<X2X<X1X3X1X1X<X<X1X1X1X1X1X1X1X1X1X1X1X1X1X1X1X1X1X1X1X1X1X1X2X2X2X2X4X4X:.4XwXR 0 7 e i e e i g g <.3.t.s.a.b.n.b.b.b.b.b.b.b.b.b.b.b.b.b.b.b.a.b.b.b.z.b.c.c.c.c.c.c.c.c.c.c.c.c.c.c.c.b.b.b.b.b.b.b.b.b.b.b.b.b.b.b.b.b.b.b.b.b.b.r.r.b.b.b.r.r.r.r.r.z.z.z.z.r.t.3.1.1.1.1.1.3.t.t.r.s.2.g i i i e t 2 Z yXIXIXDXDXSXSXSXGXGXGXGXJXJXJXJXJXJXJXJXJXJXJXJXJXJXJXJXJXJXJXJXJXJXJXJXJXJXJXJXJXJXJXJXJXJXJXJXJXJXJXJXJXJXGXnXcXhXhXhXhXhXhXnXDXGXGXGXGXJXJXJXJXJXJXJXJXJXJXJXJXJXJXJXJXJXJXJXJXJXJXJXJXJXJXJXJXJXJXJXJXJXJXJXJXJXJXJXJXJXJXJXJXJXJXJXJXJXJXJXJXJXJXJXJXJXJXJXJXJXJXJXJXJXJXJXJXJXJXJXJXJXGXGXGXJXJXJXGXAXAXnXzX%XzXzXzX7X8X8X6X,X,X1X1X1X1X1X1X1X1X1X1X1X1X1X1X1X1X1X1X1X1X1X1X1X1X1X1X1X1X1X1X1X1X1X1X1X1X1X1X1X1X1X1X1X1X1X1X1X1X1X1X1X1X1X1X1X1X1X1X1X1X1X1X1X1X1X1X1X1X1X1X1X1X1X1X1X1X1X1X1X1X1X1X1X1X1X1X1X1X1X1X1X1X1X1X1X1X1X1X1X1X1X1X1X1X1X1X1X1X1X1X1X1X1X1X1X1X1X1X1X1X1X1X1X1X1X1X1X1X1X1X1X1X1X1X1X1X1X1X1X1X1X1X1X1X1X1X1X1X1X1X1X1X1X1X1X1X1X1X1X1X1X1X1X1X1X1X1X1X1X1X",
"1X1X1X1X1X1X1X1X1X1X1X1X1X1X1X1X1X1X1X1X1X1X1X1X1X1X1X1X1X1X1X1X1X1X1X1X,X,X<X:.-.[ ) _ _ o.o.` ` ` ` ` ` ` ` ` ` ` ` ` ` ` ` ` ` ` ` ` ` ` ` ` ` ` ` ` ` ` ` ` ` ` ` ` ` ` ` ` ` ` ` ` ` ` ` ` ` _ ` ` ` ` ` ` _ _ _ _ ) / / / -.:.4X<X3X<X3X3X1X1X<X<X1X1X1X1X1X1X1X1X1X1X1X1X1X1X1X1X1X1X1X1X1X3X<X2X2X2X4X4X<X4X9X .0 7 s i i e i 3 3 g 1.2.t.s.s.n.M.M.b.b.b.b.b.b.b.b.b.b.b.b.b.b.b.b.b.b.b.c.c.c.c.c.c.c.c.c.c.c.c.c.c.c.b.b.b.b.b.b.b.b.b.b.b.b.b.b.b.b.b.b.b.b.b.b.r.r.b.b.b.b.b.b.b.b.b.z.r.t.3.1.1.1.1.1.t.t.r.z.z.r.s.2.z i e e e t 7 c '.IXPXAXDXFXSXSXJXJXJXJXJXJXJXJXJXJXJXJXJXJXJXJXJXJXJXJXJXJXJXJXJXJXJXJXJXJXJXJXJXJXJXJXJXJXJXJXJXJXJXJXJXJXGXnXcXhXhXhXhXhXhXnXDXGXGXGXGXJXJXJXJXJXJXJXJXJXJXJXJXJXJXJXJXJXJXJXJXJXJXJXJXJXJXJXJXJXJXJXJXJXJXJXJXJXJXJXJXJXJXJXJXJXJXJXJXJXJXJXJXJXJXJXJXJXJXJXJXJXJXJXJXJXJXJXJXJXJXJXJXJXGXGXGXGXJXJXSXAXDXbX%X%X7XzXzX7X8XwX6X,X,X1X1X1X1X1X1X1X1X1X1X1X1X1X1X1X1X1X1X1X1X1X1X1X1X1X1X1X1X1X1X1X1X1X1X1X1X1X1X1X1X1X1X1X1X1X1X1X1X1X1X1X1X1X1X1X1X1X1X1X1X1X1X1X1X1X1X1X1X1X1X1X1X1X1X1X1X1X1X1X1X1X1X1X1X1X1X1X1X1X1X1X1X1X1X1X1X1X1X1X1X1X1X1X1X1X1X1X1X1X1X1X1X1X1X1X1X1X1X1X1X1X1X1X1X1X1X1X1X1X1X1X1X1X1X1X1X1X1X1X1X1X1X1X1X1X1X1X1X1X1X1X1X1X1X1X1X1X1X1X1X1X1X1X1X1X1X1X1X1X1X",
"1X1X1X1X1X1X1X1X1X1X1X1X1X1X1X1X1X1X1X1X1X1X1X1X1X1X1X1X1X1X1X1X1X1X1X1X,X<X<X;.-.' ) _ _ o.o.` ` ` ` ` ` ` ` ` ` ` ` ` ` ` ` ` ` ` ` ` ` ` ` ` ` ` ` ` ` ` ` ` ` ` ` ` ` ` ` ` ` ` ` ` ` ` ` ` ` _ ` ` ` ` ` ` _ ` _ _ ) / / / -.;.4X<X2X<X3X1X1X1X<X<X1X1X1X1X1X1X1X1X1X1X1X1X1X1X1X1X1X1X1X1X1X1X<X<X2X2X4X4X1X2X9X$XV 9 t e e e i 3 3 4 g g 1.2.t.s.n.n.b.a.b.b.b.b.b.b.b.b.a.b.b.b.b.b.b.b.b.c.c.c.c.c.c.c.c.c.c.c.c.c.c.c.b.b.b.b.b.b.b.b.b.b.b.b.b.b.b.b.b.b.b.b.b.b.r.r.b.b.b.b.b.r.r.r.z.t.t.1.1.1.1.3.t.t.r.b.b.b.b.b.s.2.z d i w w e t 0 `.AXIXSXSXIXSXSXJXJXSXGXJXJXJXJXJXJXJXJXJXJXJXJXJXJXJXJXJXJXJXJXJXJXJXJXJXJXJXJXJXJXJXJXJXJXJXJXJXJXJXJXJXJXGXnXcXhXhXhXhXhXhXnXDXGXGXGXGXJXJXJXJXJXJXJXJXJXJXJXJXJXJXJXJXJXJXJXJXJXJXJXJXJXJXJXJXJXJXJXJXJXJXJXJXJXJXJXJXJXJXJXJXJXJXJXJXJXJXJXJXJXJXJXJXJXJXJXJXJXJXJXJXJXJXJXJXJXJXJXJXJXJXGXSXGXJXJXSXAXNXcX%X%X%XzX7X7X8XwX6X,X,X1X1X1X1X1X1X1X1X1X1X1X1X1X1X1X1X1X1X1X1X1X1X1X1X1X1X1X1X1X1X1X1X1X1X1X1X1X1X1X1X1X1X1X1X1X1X1X1X1X1X1X1X1X1X1X1X1X1X1X1X1X1X1X1X1X1X1X1X1X1X1X1X1X1X1X1X1X1X1X1X1X1X1X1X1X1X1X1X1X1X1X1X1X1X1X1X1X1X1X1X1X1X1X1X1X1X1X1X1X1X1X1X1X1X1X1X1X1X1X1X1X1X1X1X1X1X1X1X1X1X1X1X1X1X1X1X1X1X1X1X1X1X1X1X1X1X1X1X1X1X1X1X1X1X1X1X1X1X1X1X1X1X1X1X1X1X1X1X1X1X",
"1X1X1X1X1X1X1X1X1X1X1X1X1X1X1X1X1X1X1X1X1X1X1X1X1X1X1X1X1X1X1X1X1X1X1X1X1X1X,X;.&./ ) o.` o.o.` ` ` ` ` ` ` ` ` ` ` ` ` ` ` ` ` ` ` ` ` ` ` ` ` ` ` ` ` ` ` ` ` ` ` ` ` ` ` ` ` ` ` ` ` ` ` ` ` ` _ ` ` ` ` ` ` _ ` ` _ ) ) / / [ ;.<X2X3X<X3X<X<X<X<X<X1X1X1X1X1X1X1X1X1X1X1X1X1X1X1X1X1X1X1X1X1X1X1X1X<X<X4X4X4X4X9X+XV 9 7 e e e i g g g g g g <.2.3.s.s.b.b.b.b.b.b.b.b.b.b.b.b.b.b.b.b.b.b.b.c.c.c.c.c.c.c.c.c.c.c.c.c.c.c.b.b.b.b.b.b.b.b.b.b.b.b.b.b.b.b.b.b.z.b.b.z.r.r.b.b.r.r.r.r.t.t.3.3.1.1.3.t.t.t.b.b.b.b.b.b.b.b.s.t.4.g i e e e 2 < S.DXIXSXSXIXSXSXGXJXSXSXJXJXJXJXJXJXJXJXJXJXJXJXJXJXJXJXJXJXJXJXJXJXJXJXJXJXJXJXJXJXJXJXJXJXJXJXJXJXJXJXJXJXGXNXcXhXhXhXhXhXhXnXDXGXGXGXGXJXJXJXJXJXJXJXJXJXJXJXJXJXJXJXJXJXJXJXJXJXJXJXJXJXJXJXJXJXJXJXJXJXJXJXJXJXJXJXJXJXJXJXJXJXJXJXJXJXJXJXJXJXJXJXJXJXJXJXJXJXJXJXJXJXJXJXJXJXJXJXJXJXJXGXSXGXJXJXGXAXbXcX%X7X7X7X7X8X8X6X6X,X,X3X1X1X1X1X1X1X1X1X1X1X1X1X1X1X1X1X1X1X1X1X1X1X1X1X1X1X1X1X1X1X1X1X1X1X1X1X1X1X1X1X1X1X1X1X1X1X1X1X1X1X1X1X1X1X1X1X1X1X1X1X1X1X1X1X1X1X1X1X1X1X1X1X1X1X1X1X1X1X1X1X1X1X1X1X1X1X1X1X1X1X1X1X1X1X1X1X1X1X1X1X1X1X1X1X1X1X1X1X1X1X1X1X1X1X1X1X1X1X1X1X1X1X1X1X1X1X1X1X1X1X1X1X1X1X1X1X1X1X1X1X1X1X1X1X1X1X1X1X1X1X1X1X1X1X1X1X1X1X1X1X1X1X1X1X1X1X1X1X1X",
"1X1X1X1X1X1X1X1X1X1X1X1X1X1X1X1X1X1X1X1X1X1X1X1X1X1X1X1X1X1X1X1X1X1X1X1X<X3X,X>.[ / ) o._ o.o.` ` ` ` ` ` ` ` ` ` ` ` ` ` ` ` ` ` ` ` ` ` ` ` ` ` ` ` ` ` ` ` ` ` ` ` ` ` ` ` ` ` ` ` ` ` ` ` ` ` ` ` ` ` ` ` ` ` o.` ' ) ) ) ' / >.<X4X4X<X<X<X<X1X1X1X1X1X1X1X1X1X1X1X1X1X1X1X1X1X1X1X1X1X1X1X1X1X1X1X<X<X<X<X<X2X5X+XV < 7 e e e i g 4.4.g g 3 4 <.2.t.s.a.b.b.b.b.b.b.b.b.b.b.b.b.b.b.b.b.b.c.c.c.c.c.c.c.c.c.c.c.c.c.c.c.c.c.c.b.c.b.c.b.c.b.c.b.c.b.c.b.b.b.b.b.b.b.b.r.r.m.b.r.r.t.t.t.t.1.1.1.3.t.r.z.z.z.b.b.b.m.m.b.b.s.s.2.g i e e t 2 < S.UXAXSXSXIXSXSXSXGXSXSXJXJXJXJXJXJXJXJXJXJXJXJXJXJXJXJXJXJXJXJXJXJXJXJXJXJXJXJXJXJXJXJXJXJXJXJXJXJXJXJXJXJXGXNXcXhXhXhXhXhXhXnXDXGXGXGXGXJXJXJXJXJXJXJXJXJXJXJXJXJXJXJXJXJXJXJXJXJXJXJXJXJXJXJXJXJXJXJXJXJXJXJXJXJXJXJXJXJXJXJXJXJXJXJXJXJXJXJXJXJXJXJXJXJXJXJXJXJXJXJXJXJXJXJXJXJXGXGXGXJXJXGXAXSXJXJXGXDXbXxX7X7X7X7X7X8X8X6X,X,X,X1X1X1X1X1X1X1X1X1X1X1X1X1X1X1X1X1X1X1X1X1X1X1X1X1X1X1X1X1X1X1X1X1X1X1X1X1X1X1X1X1X1X1X1X1X1X1X1X1X1X1X1X1X1X1X1X1X1X1X1X1X1X1X1X1X1X1X1X1X1X1X1X1X1X1X1X1X1X1X1X1X1X1X1X1X1X1X1X1X1X1X1X1X1X1X1X1X1X1X1X1X1X1X1X1X1X1X1X1X1X1X1X1X1X1X1X1X1X1X1X1X1X1X1X1X1X1X1X1X1X1X1X1X1X1X1X1X1X1X1X1X1X1X1X1X1X1X1X1X1X1X1X1X1X1X1X1X1X1X1X1X1X1X1X1X1X1X1X1X1X",
"1X1X1X1X1X1X1X1X1X1X1X1X1X1X1X1X1X1X1X1X1X1X1X1X1X1X1X1X1X1X1X1X3X<X3X<X<X<X<X-./ / ) _ ` ` ` ` ` ` ` ` ` ` ` ` ` ` ` ` ` ` ` ` ` ` ` ` ` ` ` ` ` ` ` ` ` ` ` ` ` ` ` ` ` ` ` ` ` ` ` ` ` ` ` ` ` ` ` ` ` ` ` ` ` ` ` ` ` ' ' ' ' >.4X2X<X3X<X3X1X1X1X1X1X1X1X1X1X1X1X1X1X1X1X1X1X1X1X1X1X1X1X1X1X1X1X1X<X1X1X:.:.4X>XwXR 0 2 e e e i g 2.s.3.4.g g g g g 1.3.t.a.a.a.a.a.a.a.a.t.r.r.z.c.c.z.r.c.c.c.y.y.y.y.y.r.r.y.y.c.c.c.c.c.c.c.c.z.c.r.r.r.r.r.r.z.c.m.m.z.z.b.m.m.b.r.r.m.r.t.t.3.3.3.3.t.z.z.z.z.c.m.m.b.z.a.b.a.a.m.M.s.s.8.4.g i r t < < l.dXIXDXUXFXIXIXFXSXGXGXIXGXGXGXGXJXGXJXJXJXJXJXJXJXJXJXJXJXJXJXJXJXJXJXJXJXJXJXJXJXJXJXJXJXJXJXJXJXJXJXJXJXJXDXcXXXhXxXhXhXhXbXDXSXAXGXJXGXJXJXJXJXJXJXJXJXJXJXJXJXJXJXJXJXJXJXJXJXJXJXJXJXJXJXJXJXJXJXJXJXJXJXJXJXJXJXJXJXJXJXJXJXJXJXJXJXJXJXJXJXJXJXJXJXJXJXJXJXJXJXJXJXFXFXJXJXKXKXKXKXJXAXDXSXJXFXCXbXhX%X%X7X7X7X8X8XwX6X,X,X:.1X1X1X1X1X1X1X1X1X<X<X<X<X1X1X1X1X1X1X1X1X1X1X1X1X1X1X1X1X1X1X1X1X1X1X1X1X1X1X1X1X1X1X1X1X1X1X1X1X1X1X1X1X1X1X1X1X1X1X1X1X1X1X1X1X1X1X1X1X1X1X1X1X1X1X1X1X1X1X1X1X1X1X1X1X1X1X1X1X1X1X1X1X1X1X1X1X1X1X1X1X1X1X1X1X1X1X1X1X1X1X1X1X1X1X1X1X1X1X1X1X1X1X1X1X1X1X1X1X1X1X1X1X1X1X1X1X1X1X1X1X1X1X1X1X1X1X1X1X1X1X1X1X1X1X1X1X1X1X1X1X1X1X1X1X1X1X1X1X1X",
"1X1X1X1X1X1X1X1X1X1X1X1X1X1X1X1X1X1X1X1X1X1X1X1X1X1X1X1X1X1X1X1X3X<X3X2X<X4X<X-./ / ) _ ` ` ` ` ` ` ` ` ` ` ` ` ` ` ` ` ` ` ` ` ` ` ` ` ` ` ` ` ` ` ` ` ` ` ` ` ` ` ` ` ` ` ` ` ` ` ` ` ` ` ` ` ` ` ` ` ` ` ` ` ` ` ` ` ` ` ` ' ) =.4X4X<X3X<X3X1X1X1X1X1X1X1X1X1X1X1X1X1X1X1X1X1X1X1X1X1X1X1X1X1X1X<X<X<X1X1X:.:.3X>XwX~.0 t i i e e g 2.s.0.3.2.1.g g 4 g 1.1.t.t.a.a.m.m.b.a.r.r.r.r.r.r.z.c.c.c.c.c.c.r.y.y.y.y.y.y.y.c.c.c.r.r.r.r.r.c.c.c.c.c.c.m.m.c.c.c.m.m.b.r.r.r.r.r.t.t.3.3.3.3.t.t.z.z.z.z.z.z.m.m.m.b.b.a.a.a.m.h.s.s.s.2.4.g r 2 < < Z sXIXAXDXIXIXIXFXSXGXGXGXGXGXGXGXGXGXGXKXJXJXJXJXJXJXJXJXJXJXJXJXJXJXJXJXJXJXJXJXJXJXJXJXJXJXJXJXJXJXJXJXJXJXDXcXXXrXhXhXhXhXbXCXSXAXGXJXGXJXJXJXJXJXJXJXJXJXJXJXJXJXJXJXJXJXJXJXJXJXJXJXJXJXJXJXJXJXJXJXJXJXJXJXJXJXJXJXJXJXJXJXJXJXJXJXJXJXJXJXJXJXJXJXJXJXJXJXJXJXJXJXJXFXFXFXJXKXJXJXKXGXAXAXFXFXAXnXcXhX%X%X7X7X8X8X8X6X6X,X:.:.:.1X1X1X1X1X1X1X1X<X<X<X<X1X1X1X1X1X1X1X1X1X1X1X1X1X1X1X1X1X1X1X1X1X1X1X1X1X1X1X1X1X1X1X1X1X1X1X1X1X1X1X1X1X1X1X1X1X1X1X1X1X1X1X1X1X1X1X1X1X1X1X1X1X1X1X1X1X1X1X1X1X1X1X1X1X1X1X1X1X1X1X1X1X1X1X1X1X1X1X1X1X1X1X1X1X1X1X1X1X1X1X1X1X1X1X1X1X1X1X1X1X1X1X1X1X1X1X1X1X1X1X1X1X1X1X1X1X1X1X1X1X1X1X1X1X1X1X1X1X1X1X1X1X1X1X1X1X1X1X1X1X1X1X1X1X1X1X1X1X",
"1X1X1X1X1X1X1X1X1X1X1X1X1X1X1X1X1X1X1X1X1X1X1X1X1X1X1X1X1X1X1X1X3X2X3X<X3X4X>X-./ / ) _ ` ` ` ` ` ` ` ` ` ` ` ` ` ` ` ` ` ` ` ` ` ` ` ` ` ` ` ` ` ` ` ` ` ` ` ` ` ` ` ` ` ` ` ` ` ` ` ` ` ` ` ` ` ` ` ` ` ` ` ` ` ` ` ` ' ' ` ' ) =.>X4X2X1X1X<X1X1X<X1X1X1X1X1X1X1X1X1X1X1X1X1X1X1X1X1X1X1X1X1X1X<X<X<X<X1X1X:.:.1X>XwX~.q 7 e e e e i 4.s.s.s.s.3.2.<.4 4 4 4 <.1.3.t.a.m.M.m.a.a.r.r.r.r.b.c.r.r.r.r.r.r.r.r.c.c.y.y.y.y.r.r.z.z.z.m.m.c.m.m.m.m.c.z.r.z.r.r.b.z.r.r.r.r.t.t.1.1.3.3.t.t.t.r.z.z.z.z.a.a.a.b.m.b.b.b.b.b.b.b.M.n.s.3.4.g i t < < C tXIXDXDXSXIXIXFXSXGXGXGXGXGXGXGXGXGXGXJXJXJXJXJXJXJXJXJXJXJXJXJXJXJXJXJXJXJXJXJXJXJXJXJXJXJXJXJXJXJXJXJXJXGXCXbXrXrXhXhXhXhXbXCXGXSXGXJXGXJXJXJXJXJXJXJXJXJXJXJXJXJXJXJXJXJXJXJXJXJXJXJXJXJXJXJXJXJXJXJXJXJXJXJXJXJXJXJXJXJXJXJXJXJXJXJXJXJXJXJXJXJXJXJXJXJXJXJXJXJXJXJXJXFXFXJXJXGXGXGXJXSXSXSXFXSXUXmX%XxX%X%X7X7X8X8XwX6X6X,X:.:.:.1X1X1X1X1X1X1X1X1X1X1X1X1X1X1X1X1X1X1X1X1X1X1X1X1X1X1X1X1X1X1X1X1X1X1X1X1X1X1X1X1X1X1X1X1X1X1X1X1X1X<X<X<X<X<X<X<X<X<X<X<X<X<X<X<X<X<X<X<X<X<X<X<X<X<X<X<X<X<X<X<X<X<X<X<X<X<X<X<X<X<X<X<X<X<X<X<X<X<X<X<X<X<X<X<X<X<X<X<X<X<X<X<X<X1X1X1X1X1X1X1X1X1X1X1X1X1X1X1X1X<X<X<X<X<X<X<X<X<X<X2X<X<X<X<X<X<X<X<X<X<X<X2X<X<X<X<X<X<X<X<X<X<X<X<X<X<X<X<X",
"1X1X1X1X1X1X1X1X1X1X1X1X1X1X1X1X1X1X1X1X1X1X1X1X1X1X1X1X1X1X1X1X2X3X3X<X4X4X;.&./ / ) _ ` ` ` ` ` ` ` ` ` ` ` ` ` ` ` ` ` ` ` ` ` ` ` ` ` ` ` ` ` ` ` ` ` ` ` ` ` ` ` ` ` ` ` ` ` ` ` ` ` ` ` ` ` ` ` ` ` ` ` ` ` ` ` ` ' ' ' ' / -.;.4X4X2X<X<X1X1X1X1X1X1X1X1X1X1X1X1X1X1X1X1X1X1X1X1X1X1X1X1X1X<X<X<X1X1X:.:.:.:.;.wX+XZ 7 e e e e e z 0.g.s.s.s.t.3.1.<.4 4 4 g g 1.3.t.a.a.a.a.b.b.b.a.r.r.r.r.r.r.r.r.r.r.m.c.m.y.r.r.r.r.m.m.m.m.b.c.b.c.b.z.r.r.r.r.m.m.r.r.t.t.t.t.t.3.3.3.t.t.r.r.b.b.b.z.z.z.a.a.a.r.b.b.b.b.b.b.b.b.n.n.s.3.2.4.i 2 d < C OXIXDXSXIXIXIXFXSXGXGXGXGXGXGXGXGXGXGXJXJXJXJXJXJXJXJXJXJXJXJXJXJXJXJXJXJXJXJXJXJXJXJXJXJXJXJXJXJXJXJXJXJXGXDXbXrXrXhXrXhXhXcXCXGXGXGXJXGXJXJXJXJXJXJXJXJXJXJXJXJXJXJXJXJXJXJXJXJXJXJXJXJXJXJXJXJXJXJXJXJXJXJXJXJXJXJXJXJXJXJXJXJXJXJXJXJXJXJXJXJXJXJXJXJXJXJXJXJXJXJXJXJXFXFXGXGXGXGXGXGXSXFXFXSXUXbXzXXXzX%X%X7X8X8X8XwX6X6X,X:.:.:.:.1X1X1X1X1X1X1X1X1X1X1X1X1X1X1X1X1X1X1X1X1X1X1X1X1X1X1X1X1X1X1X1X1X1X1X1X1X1X1X1X1X1X1X1X1X1X1X1X1X<X<X<X<X<X<X<X<X<X<X<X<X<X<X<X<X<X<X<X<X<X<X<X<X<X<X<X<X<X<X<X<X<X<X<X<X<X<X<X<X<X<X<X<X<X<X<X<X<X<X<X<X<X<X<X<X<X<X<X<X<X<X<X<X1X1X1X1X1X1X1X1X1X1X1X1X1X1X1X1X<X<X<X<X<X<X<X<X<X<X<X<X<X<X<X<X<X<X<X<X<X<X<X<X<X<X<X<X<X<X<X<X<X<X<X<X<X<X<X",
"1X1X1X1X1X1X1X1X1X1X1X1X1X1X1X1X1X1X1X1X1X1X1X1X1X1X1X1X1X1X1X1X2X3X2X<X4X4X>.[ / ) ) ' _ ` ` ` ` ` ` ` ` ` ` ` ` ` ` ` ` ` ` ` ` ` ` ` ` ` ` ` ` ` ` ` ` ` ` ` ` ` ` ` ` ` ` ` ` ` ` ` ` ` ` ` ` ` ` ` ` ` ` ` ` ` ` ` ' ) ) ' ) &.;.4X4X2X<X<X1X1X1X1X1X1X<X1X1X1X1X1X1X1X1X1X1X1X1X1X1X1X1X1X3X3X3X1X1X1X:.:.:.:.,X9X#XZ 0 z r r e e g 8.g.n.s.s.s.s.t.t.3.2.g g g g g 1.1.2.t.t.a.b.m.b.r.t.a.r.a.a.a.m.b.m.a.a.a.r.a.r.a.r.a.z.a.b.b.b.b.b.m.m.m.m.m.m.m.m.r.t.3.1.1.1.3.t.t.t.r.r.b.m.m.b.z.r.a.a.a.a.a.a.r.a.a.b.a.a.a.a.s.s.s.3.2.g i 2 d < c _.UXAXIXIXIXIXFXSXGXGXGXGXGXGXGXGXGXGXJXJXJXJXJXJXJXJXJXJXJXJXJXJXJXJXJXJXJXJXJXJXJXJXJXJXJXJXJXJXJXJXJXJXGXDXbXhXrXhXrXhXhXcXNXSXGXGXJXGXJXJXJXJXJXJXJXJXJXJXJXJXJXJXJXJXJXJXJXJXJXJXJXJXJXJXJXJXJXJXJXJXJXJXJXJXJXJXJXJXJXJXJXJXJXJXJXJXJXJXJXJXJXJXJXJXJXJXJXJXJXJXJXJXJXGXGXGXGXGXGXGXSXFXFXDXbXcXzXzXzXXX@X7X8X8XwXwX6X6X,X1X:.:.:.:.1X1X1X1X1X1X3X3X3X1X1X1X1X1X1X1X1X1X1X1X1X1X1X1X1X1X1X1X1X1X1X1X1X1X1X1X1X1X1X1X1X1X1X1X1X1X1X1X3X3X3X3X3X3X3X3X1X3X3X3X3X3X3X3X3X3X3X3X3X3X3X3X3X3X3X3X3X3X1X1X3X3X3X3X3X3X3X3X1X3X3X3X3X3X3X3X3X3X3X3X3X3X3X3X3X3X3X3X3X3X1X1X<X<X<X<X<X<X<X<X<X<X<X<X<X<X<X<X<X<X<X<X<X<X<X<X<X<X<X<X<X<X<X<X<X<X<X<X<X<X<X<X<X<X<X<X<X<X<X<X<X<X<X<X<X<X<X",
"1X1X1X1X1X1X1X1X1X1X1X1X1X1X1X1X1X1X1X1X1X1X1X1X1X1X1X1X1X1X1X1X2X3X2X<X4X4X=./ / ) ' _ _ ` ` ` ` ` ` ` ` ` ` ` ` ` ` ` ` ` ` ` ` ` ` ` ` ` ` ` ` ` ` ` ` ` ` ` ` ` ` ` ` ` ` ` ` ` ` ` ` ` ` ` ` ` ` ` ` ` ` ` ` ` ` ` ' ) ] ' ) [ >.4X4X2X<X4X4X4X1X1X1X1X4X<X1X1X1X1X1X1X1X1X1X1X1X1X1X1X1X1X<X3X3X1X1X1X:.:.:.1X3X0XwXR 0 f t r e t d 2.s.s.f.s.s.s.a.a.a.a.t.3.2.1.g 4 4 4 g 1.2.t.a.a.a.a.a.a.a.a.b.m.b.m.a.a.a.a.a.a.a.a.b.b.b.m.m.m.M.M.M.M.M.M.m.b.t.t.3.1.1.1.3.t.t.r.r.r.r.z.b.b.a.a.r.r.a.a.a.a.a.a.t.t.r.a.a.a.s.s.t.2.1.<.g g g d d 0 C _.UXIXIXIXPXIXFXSXGXGXGXGXGXGXGXGXGXGXJXJXJXJXJXJXJXJXJXJXJXJXJXJXJXJXJXJXJXJXJXJXJXJXJXJXJXJXJXJXJXJXJXJXGXAXnXxXhXhXrXhXhXcXnXSXGXGXJXGXJXJXJXJXJXJXJXJXJXJXJXJXJXJXJXJXJXJXJXJXJXJXJXJXJXJXJXJXJXJXJXJXJXJXJXJXJXJXJXJXJXJXJXJXJXJXJXJXJXJXJXJXJXJXJXJXJXJXJXJXJXJXJXJXGXGXGXGXGXGXSXGXSXSXDXnXcXzXzXxXzX@X@X8X8X8XwX6X6X6X,X,X:.:.:.:.1X1X1X1X1X1X3X3X3X3X1X1X1X1X1X1X1X1X1X1X1X1X1X1X1X1X1X1X1X1X1X1X1X1X1X1X1X1X1X1X1X1X1X1X1X1X1X1X3X3X3X3X3X3X1X1X1X3X3X3X3X3X3X3X1X3X3X3X3X3X3X3X3X3X3X3X3X3X1X1X3X3X3X3X3X3X1X1X1X3X3X3X3X3X3X3X1X3X3X3X3X3X3X3X3X3X3X3X3X3X1X1X<X<X<X<X<X<X<X<X<X<X<X<X<X<X<X<X<X<X<X<X<X<X<X<X<X<X<X<X<X<X<X<X<X<X<X<X<X<X<X<X<X<X<X<X<X<X<X<X<X<X<X<X<X<X<X",
"1X1X1X1X1X1X1X1X1X1X1X1X1X1X1X1X1X1X1X1X1X1X3X3X1X1X1X1X1X1X1X1X3X3X<X2X4X<X-./ ) ) ' _ _ ` ` ` ` ` ` ` ` ` ` ` ` ` ` ` ` ` ` ` ` ` ` ` ` ` ` ` ` ` ` ` ` ` ` ` ` ` ` ` ` ` ` ` ` ` ` ` ` ` ` ` ` ` ` ` ` ` ` ` ` ` ` ` ` ` ` ' ) ' =.>X4X2X<X4X4X4X4X4X4X4X<X<X<X1X1X1X1X1X1X1X1X1X1X1X1X1X1X3X3X3X3X3X1X:.:.:.:.1X3X9X0X!.0 < 7 e e t d 2.s.s.s.s.s.s.a.s.h.M.a.a.s.t.2.1.g g 4 4 g g 1.2.3.t.t.t.t.t.r.r.a.a.a.r.a.a.a.a.b.b.m.m.m.m.m.m.m.m.b.b.a.r.t.3.1.1.1.1.t.r.b.m.b.a.r.b.b.b.b.b.a.r.b.b.b.a.a.a.a.a.a.r.a.s.s.i.i.i.2.g 4 2 2 2 d c c Z S.sXAXIXIXSXPXIXFXIXGXGXJXJXJXJXGXGXGXGXJXJXJXJXJXJXJXJXJXJXJXJXJXJXJXJXJXJXJXJXJXJXJXJXJXJXJXJXJXJXJXJXJXJXJXGXnXcXhXhXhXhXhXcXnXSXJXGXJXGXJXJXJXJXJXJXJXJXJXJXJXJXJXJXJXJXJXJXJXJXJXJXJXJXJXJXJXJXJXJXJXJXJXJXJXJXJXJXJXJXJXJXJXJXJXJXJXJXJXJXJXJXJXJXJXJXJXJXJXJXJXJXJXJXGXGXGXGXGXGXSXSXDXCXbXcXxXhXjXzXzX@X7X8X8X6X6X6X5X3X<X<X:.:.:.:.1X1X1X1X1X1X3X3X3X3X1X1X1X1X1X1X1X1X1X1X1X1X1X1X1X1X1X1X1X1X1X1X1X1X1X1X1X1X1X1X1X1X1X1X1X1X1X1X3X3X3X3X3X3X3X1X1X1X3X3X3X3X3X3X3X1X3X3X3X3X3X3X3X3X3X3X3X3X3X1X3X3X3X3X3X3X3X1X1X1X3X3X3X3X3X3X3X1X3X3X3X3X3X3X3X3X3X3X3X3X3X1X<X<X<X<X<X<X<X<X<X<X<X<X<X<X2X<X<X<X<X<X<X<X<X<X<X<X<X<X<X<X<X<X<X<X<X<X<X<X<X<X<X<X<X<X<X<X<X<X<X<X<X<X<X<X<X",
"1X1X1X1X1X1X1X1X1X1X1X1X1X1X1X1X1X1X1X1X1X1X3X3X1X1X1X1X1X1X1X1X3X3X<X2X2X>X&./ ) ' _ _ ` ` ` ` ` ` ` ` ` ` ` ` ` ` ` ` ` ` ` ` ` ` ` ` ` ` ` ` ` ` ` ` ` ` ` ` ` ` ` ` ` ` ` ` ` ` ` ` ` ` ` ` ` ` ` ` ` ` ` ` ` ` ` ` ` ` ` ' ) ' =.>X4X4X,X4X4X4X4X4X4X4X4X<X<X1X1X1X1X1X1X1X1X1X1X1X1X3X1X3X3X3X3X3X1X:.:.:.:.1X<X9XMX~.0 < < t e t g 2.s.s.s.s.s.s.s.s.s.a.a.a.M.M.M.a.t.3.1.g 4 3 2 4 g <.3.3.3.3.t.t.t.t.t.r.a.a.a.b.b.m.b.b.b.a.t.t.t.t.1.1.1.<.<.1.1.1.3.t.r.m.m.m.b.r.b.b.b.b.b.b.b.b.m.m.m.m.m.h.b.b.a.a.a.s.s.i.2.x g 3 2 2 2 2 5 c i.S.dXDXPXIXDXSXIXIXFXIXGXGXJXJXJXJXGXGXGXGXJXJXJXJXJXJXJXJXJXJXJXJXJXJXJXJXJXJXJXJXJXJXJXJXJXJXJXJXJXJXJXJXJXJXJXGXNXcXhXhXhXxXhXxXnXSXJXGXJXGXJXJXJXJXJXJXJXJXJXJXJXJXJXJXJXJXJXJXJXJXJXJXJXJXJXJXJXJXJXJXJXJXJXJXJXJXJXJXJXJXJXJXJXJXJXJXJXJXJXJXJXJXJXJXJXJXJXJXJXJXJXJXJXJXGXGXGXGXGXGXSXSXDXnXcXhXhXjXjXrX7X7X8X8XwX6X6X5X5X3X<X<X:.:.:.:.1X1X1X1X1X1X3X3X3X3X1X1X1X1X1X1X1X1X1X1X1X1X1X1X1X1X1X1X1X1X1X1X1X1X1X1X1X1X1X1X1X1X1X1X1X1X1X1X3X3X3X3X3X3X1X1X1X1X3X3X3X3X3X3X1X1X3X3X3X3X3X3X3X3X3X3X3X3X3X1X3X3X3X3X3X3X1X1X1X1X3X3X3X3X3X3X1X1X3X3X3X3X3X3X3X3X3X3X3X3X3X1X<X<X<X<X<X<X<X<X<X<X<X<X<X<X2X<X<X<X<X<X<X<X<X<X<X<X<X<X<X<X<X<X<X<X<X<X<X<X<X<X<X<X<X<X<X<X<X<X<X<X<X<X<X<X<X",
"1X1X1X,X1X1X<X1X1X1X,X,X,X1X1X1X<X<X<X<X<X<X,X,X<X<X<X,X<X<X<X<X3X4X2X4X4X>.[ / ) _ _ o.o.` o.` ` ` ` ` ` ` ` ` ` ` ` ` ` ` ` ` ` ` ` ` ` ` ` ` ` ` ` ` ` ` ` ` ` ` ` ` ` ` ` ` ` ` ` ` ` ` ` ` ` ` ` ` ` ` ` ` ` ` ` ` ` ` ` ' ) [ -.;.4X4X4X4X4X4X4X4X4X4X4X4X2X3X3X3X2X2X2X3X3X3X3X3X3X3X3X3X5X5X3X3X1X:.:.:.:.:.,X9X0X#XV - < t t 2 e 4.3.7.s.s.s.s.s.s.s.a.a.a.a.h.h.h.a.a.t.t.3.1.1.g g 4 g g <.<.<.<.<.<.1.1.1.1.1.2.2.2.1.1.1.<.<.<.<.g <.<.1.1.2.3.t.t.z.r.r.r.r.r.b.b.M.b.b.a.a.a.b.b.m.m.m.m.m.m.m.b.a.s.s.2.2.x g 2 < < 2 5 2 < d C S.yXDXLXLXIXIXIXIXIXIXFXFXSXGXSXJXJXJXJXGXGXJXJXJXJXJXJXJXJXJXJXJXJXJXJXJXJXJXJXJXJXJXJXJXJXJXJXJXJXJXJXJXJXJXJXGXGXDXbXhXrXhXhXhXhXbXAXJXJXJXGXJXJXJXJXJXJXJXJXJXJXJXJXJXJXJXJXJXJXJXJXJXJXJXJXJXJXJXJXJXJXJXJXJXJXJXJXJXJXJXJXJXJXJXJXJXJXJXJXJXJXJXJXJXJXJXJXGXGXJXJXJXJXJXJXKXJXAXJXKXKXAXCXbXvXjXhXhXjXxXxX7X8X8XwX9X6X6X6X,X<X<X1X:.:.:.:.1X1X<X<X<X1X3X3X3X3X1X1X1X1X1X1X<X<X<X1X1X1X<X<X1X1X1X1X1X1X<X<X1X1X1X1X1X1X1X1X<X1X1X1X1X1X1X1X3X3X3X3X3X3X3X3X3X3X3X3X3X3X3X3X3X3X3X3X3X3X3X3X3X3X3X3X3X3X1X1X3X3X3X3X3X3X1X1X3X3X3X3X3X3X3X3X3X3X3X3X3X3X3X3X3X3X3X3X3X3X1X3X3X3X3X3X3X3X3X3X3X3X3X3X3X3X3X3X1X1X1X1X1X1X1X<X1X1X1X1X1X1X1X1X1X1X1X1X1X1X1X1X1X1X1X1X1X1X1X1X1X1X1X1X1X1X1X",
"3X3X3X3X1X1X1X1X3X3X3X3X3X3X3X3X3X3X3X3X3X3X3X3X3X3X3X3X3X3X3X3X<X<X<X4X4X>.[ / ) _ _ _ o.` o.o.` ` ` ` ` ` ` ` ` ` ` ` ` ` ` ` ` ` ` ` ` ` ` ` ` ` ` ` ` ` ` ` ` ` ` ` ` ` ` ` ` ` ` ` ` ` ` ` ` ` ` ` ` ` ` ` ` ` ` ` ` ` ` ` ) ' -.;.4X4X4X4X4X4X4X4X4X4X4X4X2X<X<X<X<X<X<X<X<X<X<X1X<X1X<X<X5X5X3X3X1X:.:.:.:.1X<X5X0X#XR 9 < t t t e i 4.4.s.s.s.s.h.h.s.a.a.a.a.a.a.a.a.n.s.a.s.t.t.t.3.2.1.<.<.1.<.<.1.1.<.<.<.<.<.<.<.1.<.<.<.1.1.2.2.2.3.3.3.t.t.s.a.a.a.z.r.b.b.b.b.b.M.b.b.a.a.a.b.b.m.m.m.m.m.M.M.M.s.3.4.<.g e 2 2 7 7 < < 5 c k.`.yXvXIXLXPXIXIXIXIXIXFXFXFXFXGXGXJXJXJXJXGXGXJXJXJXJXJXJXJXJXJXJXJXJXJXJXJXJXJXJXJXJXJXJXJXJXJXJXJXJXJXJXJXJXJXJXGXGXDXbXhXrXhXhXhXhXbXDXJXJXJXGXJXJXJXJXJXJXJXJXJXJXJXJXJXJXJXJXJXJXJXJXJXJXJXJXJXJXJXJXJXJXJXJXJXJXJXJXJXJXJXJXJXJXJXJXJXJXJXJXJXJXJXJXJXJXJXJXGXGXJXJXJXJXGXGXJXJXFXJXKXAXCXnXcXxXjXhXhXhXhXzX7X8X8X6X6X6X6X,X,X,X<X1X:.:.:.:.1X1X<X<X<X<X<X3X<X<X<X<X<X<X1X1X<X<X<X1X1X1X<X<X<X<X<X<X<X<X<X<X<X<X<X<X<X<X<X<X<X<X<X<X<X<X<X<X3X3X3X3X1X1X1X1X1X1X1X1X1X1X1X1X1X1X1X1X1X1X1X1X1X1X1X1X1X1X1X1X1X1X1X1X1X1X1X1X1X1X1X1X1X1X1X1X1X1X1X1X1X1X1X1X1X1X1X1X1X1X1X1X1X1X1X1X1X1X1X1X<X<X1X1X1X1X1X1X<X<X<X<X<X<X<X<X<X<X<X<X<X1X1X1X<X<X<X<X1X1X<X<X<X<X<X<X<X<X<X<X<X<X<X<X<X1X1X",
"2X3X2X3X2X3X1X1X2X3X2X3X2X3X2X3X2X<X3X2X2X3X<X3X2X3X2X<X2X<X3X3X<X<X<X4X4X=.' / ) _ _ ` ` ` o.o.` ` ` ` ` ` ` ` ` ` ` ` ` ` ` ` ` ` ` ` ` ` ` ` ` ` ` ` ` ` ` ` ` ` ` ` ` ` ` ` ` ` ` ` ` ` ` ` ` ` ` ` ` ` ` ` ` ` ` ` ` ` ` ` ) ) [ =.>X4X4X4X4X4X4X4X4X4X4X4X2X2X2X2X2X2X2X2X2X2X2X<X2X<X2X<X3X3X<X<X1X:.:.:.:.1X2X5XwXwX~.0 9 7 t e e 2 i g 2.3.s.s.s.h.h.h.h.h.a.a.a.a.a.a.a.a.n.n.M.M.m.m.a.a.s.t.t.t.t.t.t.t.t.t.t.t.t.t.t.t.t.t.a.a.b.b.a.a.n.n.b.b.b.b.a.a.b.m.b.b.b.b.b.b.b.b.a.n.b.b.m.m.m.M.M.b.s.s.2.<.i e e e t 7 9 9 9 0 Z A.'.dXvXUXDXIXIXIXIXIXIXIXFXIXIXIXJXJXJXJXGXGXGXGXGXGXJXJXJXJXJXJXJXJXJXJXJXJXJXJXJXJXJXJXJXJXJXJXJXJXJXJXJXJXJXJXJXJXGXGXDXnXxXhXhXhXhXhXbXDXGXJXJXGXJXJXJXJXJXJXJXJXJXJXJXJXJXJXJXJXJXJXJXJXJXJXJXJXJXJXJXJXJXJXJXJXJXJXJXJXJXJXJXJXJXJXJXJXJXJXJXJXJXJXJXJXJXJXJXJXJXJXGXGXGXGXGXGXFXJXJXJXSXCXbXcXhXjXxXzXzXxXzX7X8X8XwX6X6X6X,X,X,X<X<X:.:.:.:.:.1X1X<X<X<X<X2X2X<X<X<X<X1X1X1X1X<X<X<X<X1X<X<X<X<X<X<X<X<X<X<X<X<X<X<X<X<X<X<X<X<X<X<X<X<X<X<X<X<X<X<X<X<X<X<X<X<X<X<X<X<X<X1X1X<X<X<X<X1X<X<X<X1X1X<X<X1X1X<X<X1X1X<X<X<X<X<X<X<X<X<X<X<X<X1X1X<X<X<X<X1X<X<X<X3X3X3X3X3X3X1X3X<X<X<X<X<X<X<X<X<X<X<X<X<X<X<X<X<X1X<X<X<X<X<X<X<X<X<X<X<X<X1X1X<X<X<X<X<X<X<X<X<X1X<X<X<X<X<X<X<X<X<X<X<X1X1X",
"2X2X2X2X2X2X<X<X2X2X2X2X2X2X2X2X2X2X4X2X2X2X2X2X2X2X2X2X2X2X4X4X4X<X2X4X4X=.' ) ' _ ` ` ` ` ` ` ` ` ` ` ` ` ` ` ` ` ` ` ` ` ` ` ` ` ` ` ` ` ` ` ` ` ` ` ` ` ` ` ` ` ` ` ` ` ` ` ` ` ` ` ` ` ` ` ` ` ` ` ` ` ` ` ` ` ` ` ` ` ` ` ) / [ =.>X4X4X4X4X4X4X4X4X4X4X4X4X4X4X4X4X4X4X4X4X3X4X3X2X3X4X2X5X5X2X2X1X1X:.:.1X1X4X5XwX0X+XV 0 7 7 d p w e i g g 4.2.s.s.n.N.s.s.s.s.s.s.s.a.a.a.a.s.M.M.M.M.n.n.b.b.s.a.a.a.b.b.n.n.n.n.n.n.b.b.b.b.b.b.b.b.b.b.b.b.b.b.b.b.b.b.b.b.b.b.b.a.a.a.a.n.n.b.b.b.M.M.b.s.s.3.2.4.i i e e w e t 9 9 > V R _.fXfXdXdXmXUXDXIXIXIXIXIXIXIXIXIXIXJXJXJXJXGXGXGXGXGXGXJXJXJXJXJXJXJXJXJXJXJXJXJXJXJXJXJXJXJXJXJXJXJXJXJXJXJXJXJXJXJXJXGXGXDXnXcXhXhXhXxXhXcXNXSXGXGXJXJXJXJXJXJXJXJXJXJXJXJXJXJXJXJXJXJXJXJXJXJXJXJXJXJXJXJXJXJXJXJXJXJXJXJXJXJXJXJXJXJXJXJXJXJXJXJXJXJXJXJXJXJXJXJXJXJXJXGXGXGXGXGXGXFXJXSXDXnXbXcXzXrXzXzXzX7X7X7X8XwXwX6X6X5X5X3X3X<X<X<X<X<X:.1X1X1X1X3X3X4X3X4X3X3X3X3X3X3X3X3X1X4X3X4X3X3X3X3X3X1X1X3X3X3X3X1X1X3X3X3X3X3X3X3X3X2X3X2X3X3X3X3X3X4X4X3X3X3X3X3X3X4X4X4X4X4X4X4X4X4X4X4X4X4X4X4X4X4X3X4X4X4X4X4X4X4X3X4X4X4X4X4X4X4X4X4X4X4X4X4X4X4X4X4X4X4X4X4X4X4X4X4X4X4X4X4X4X3X3X3X3X3X3X3X3X2X2X2X2X3X3X3X3X4X4X3X3X4X4X4X4X4X4X4X4X3X3X3X3X4X4X4X4X3X3X3X3X4X4X3X3X4X4X4X4X4X4X4X4X3X3X4X",
"4X4X4X4X4X4X4X4X4X4X4X4X4X4X4X4X4X4X4X4X4X4X4X4X4X4X4X4X4X4X4X4X<X<X<X4X;.-.) ) _ _ ` ` ` ` ` ` ` ` ` ` ` ` ` ` ` ` ` ` ` ` ` ` ` ` ` ` ` ` ` ` ` ` ` ` ` ` ` ` ` ` ` ` ` ` ` ` ` ` ` ` ` ` ` ` ` ` ` ` ` ` ` ` ` ` ` ` ` ` ` ' _ ) [ =.;.4X4X4X4X4X4X4X4X4X4X4X<X<X<X<X<X<X<X<X<X<X<X<X<X<X<X2X2X2X<X<X<X1X:.:.<X<X,X>X>X0X:XE V q 9 8 y r e 2 i i i g 4.2.s.s.s.s.s.s.s.s.s.s.s.a.a.a.a.a.a.h.a.b.a.a.s.s.s.a.n.b.n.b.b.b.b.b.a.a.a.s.b.b.b.b.b.b.b.b.b.b.b.b.b.b.a.a.a.a.s.b.b.b.b.b.M.M.M.M.n.s.3.2.4.g g g i y y t 7 7 9 9 q R ~.#XfXsXsXsXsXsXmXUXSXIXSXSXSXSXSXIXIXIXJXJXJXJXGXGXGXGXGXGXJXJXJXJXJXJXJXJXJXJXJXJXJXJXJXJXJXJXJXJXJXJXJXJXJXJXJXJXJXJXJXJXGXGXAXnXcXhXhXhXxXhXxXnXAXGXGXJXJXJXJXJXJXJXJXJXJXJXJXJXJXJXJXJXJXJXJXJXJXJXJXJXJXJXJXJXJXJXJXJXJXJXJXJXJXJXJXJXJXJXJXJXJXJXJXJXJXJXJXJXJXJXJXJXJXGXGXGXGXGXGXGXSXDXCXnXcXxXzXzXzXzXzX@X@X7X8X8XwX6X6X6X5X3X2X2X<X<X:.:.:.:.:.1X<X<X<X<X2X2X2X2X2X2X2X2X<X<X<X<X<X<X<X<X<X<X<X<X<X<X<X<X<X<X<X<X<X<X<X<X<X<X<X<X<X<X<X<X<X<X<X<X<X<X<X<X<X<X<X<X<X<X<X<X<X<X<X<X<X<X<X<X<X<X<X<X<X<X<X<X<X<X<X<X<X<X<X<X<X<X<X<X<X<X<X<X<X<X<X<X<X<X<X<X<X<X<X<X<X<X<X<X<X<X<X<X<X<X<X<X<X<X<X<X<X<X<X<X<X<X<X<X<X<X<X<X<X<X<X<X<X<X<X<X<X<X<X<X<X<X<X<X<X<X<X<X<X<X<X<X<X<X<X<X<X<X<X<X<X<X<X",
"4X4X<X<X4X4X4X4X4X4X4X4X<X<X4X4X4X4X4X4X4X4X4X4X4X4X2X2X4X4X4X4X4X4X4X4X;.&./ ) _ _ ` ` ` ` ` ` ` ` ` ` ` ` ` ` ` ` ` ` ` ` ` ` ` ` ` ` ` ` ` ` ` ` ` ` ` ` ` ` ` ` ` ` ` ` ` ` ` ` ` ` ` ` ` ` ` ` ` ` ` ` ` ` ` ` ` ` ` ` ` ' ` ' &.-.;.>X4X4X4X4X4X4X4X4X4X4X4X4X4X4X4X4X4X4X4X4X4X4X4X2X4X4X4X2X2X<X<X<X<X<X<X<X<X2X5X0XwX+X~.R n 8 7 t w w i e e e d g 4.4.8.t.s.s.s.s.s.s.s.s.M.n.n.n.a.a.b.b.b.M.n.n.M.M.n.n.n.n.b.b.b.b.b.b.b.b.n.M.M.M.b.b.b.b.b.b.b.b.b.b.a.r.a.a.a.s.M.M.M.b.b.b.a.a.3.2.g g e e r d r u 7 7 9 9 n W $X#XMXmXmX@X@XsXsXmXmXUXDXIXIXFXFXSXIXIXIXIXJXJXJXJXGXGXGXGXGXGXJXJXJXJXJXJXJXJXJXJXJXJXJXJXJXJXJXJXJXJXJXJXJXJXJXJXJXJXJXJXJXJXSXGXAXNXbXxXhXhXxXhXhXbXDXGXGXJXJXJXJXJXJXJXJXJXJXJXJXJXJXJXJXJXJXJXJXJXJXJXJXJXJXJXJXJXJXJXJXJXJXJXJXJXJXJXJXJXJXJXJXJXJXJXJXJXJXJXJXJXJXJXJXJXGXGXJXJXGXGXAXAXCXNXbXcXzXzXzXzXzXzX7X7X7X8X8XwX9X6X5X5X5X2X2X2X<X<X<X:.:.<X<X<X<X<X<X<X2X2X2X2X2X2X2X2X2X2X<X<X<X<X<X<X<X<X<X<X<X<X<X<X<X<X<X<X<X<X<X<X<X<X<X<X<X<X<X<X<X<X<X4X4X4X4X4X4X4X4X4X4X4X4X4X4X4X4X4X4X4X4X4X4X4X4X4X4X4X4X4X4X4X4X4X4X4X4X4X4X4X4X4X4X4X4X4X4X4X4X4X4X4X4X4X4X4X4X4X4X4X4X4X4X4X4X4X4X4X4X4X4X4X4X4X4X4X4X4X4X4X4X4X4X<X4X<X4X4X4X<X4X4X4X4X4X4X4X4X4X4X4X<X4X4X4X4X4X<X4X<X4X4X4X<X4X4X4X4X4X<X4X",
"4X4X4X4X4X4X4X4X4X4X4X4X4X4X4X4X4X4X4X4X4X4X4X4X4X4X4X4X4X4X4X4X4X4X4X>X=.&.) ' _ _ ` ` ` ` ` ` ` ` ` ` ` ` ` ` ` ` ` ` ` ` ` ` ` ` ` ` ` ` ` ` ` ` ` ` ` ` ` ` ` ` ` ` ` ` ` ` ` ` ` ` ` ` ` ` ` ` ` ` ` ` ` ` ` ` ` ` ` ` ` ' _ ) ' -.>.;.>X>X4X4X4X4X4X4X4X4X4X4X4X4X4X4X4X4X4X4X4X4X2X4X4X2X4X2X2X<X<X<X<X<X<X<X,X4X5X0X9X0X8X#XG.U n u p p p p r r e e i i z x 4.2.3.s.s.s.s.s.s.n.n.M.M.n.b.b.b.b.b.b.M.M.b.b.b.b.a.a.a.a.b.b.b.b.b.b.b.b.b.b.b.b.b.a.a.a.b.b.b.b.a.a.a.a.b.b.a.t.t.3.2.2.<.g i e e e t t 7 7 9 m n R ~.#XwX0X0XwX8X8X@X@X@X7XmXmXMXIXFXFXIXIXIXIXIXIXJXJXJXJXGXGXGXGXGXGXJXJXJXJXJXJXJXJXJXJXJXJXJXJXJXJXJXJXJXJXJXJXJXJXJXJXJXJXJXJXJXJXSXJXGXNXbXxXhXhXxXhXrXbXDXSXSXJXJXJXJXJXJXJXJXJXJXJXJXJXJXJXJXJXJXJXJXJXJXJXJXJXJXJXJXJXJXJXJXJXJXJXJXJXJXJXJXJXJXJXJXJXJXJXJXJXJXJXJXJXJXJXJXJXGXGXJXJXGXDXCXCXbXbXcXhX%XzX7XzX@X@X@X8X8XwXwX6X6X5X5X5X2X4X4X2X<X<X:.:.:.<X<X<X<X<X<X<X4X4X4X4X2X4X4X4X4X4X4X4X<X<X4X<X<X<X<X<X<X<X<X<X<X<X<X<X<X<X<X<X<X<X<X<X<X<X<X<X<X<X<X<X4X4X4X4X4X4X4X4X4X4X4X4X4X4X4X4X4X4X4X4X4X4X4X4X4X4X4X4X4X4X4X<X4X4X4X4X4X4X4X4X4X4X4X4X4X4X4X4X4X4X4X4X4X4X4X4X4X4X4X4X4X4X4X4X4X4X4X4X4X4X4X4X4X4X4X4X4X4X4X4X4X4X4X4X4X4X4X4X4X4X4X4X4X4X4X4X4X4X4X4X4X4X4X4X4X4X4X4X4X4X4X4X4X4X4X4X4X4X4X",
"=.=.=.=.=.=.=.>.>.>.=.=.=.=.=.=.=.=.=.>.>.>.=.=.=.=.=.=.=.=.=.=.=.>.>.=.-./ / ) _ _ ` ` ` ` ` ` ` ` ` ` ` ` ` ` ` ` ` ` ` ` ` ` ` ` ` ` ` ` ` ` ` ` ` ` ` ` ` ` ` ` ` ` ` ` ` ` ` ` ` ` ` ` ` ` ` ` ` ` ` ` ` ` ` ` ` ` ` ` ` ` ) T ) &.=.;.;.;.;.;.;.;.;.;.;.;.;.;.;.;.;.;.;.;.;.;.;.;.;.;.;.;.;.;.;.;.;.;.;.;.;.;.;.;.>X>X>XwXwX0XwX$XR n f u u y y y r r e e e e d g z 2.8.8.s.s.s.s.s.s.s.s.s.a.n.m.n.m.n.M.b.b.b.a.a.a.a.a.b.b.b.b.b.b.b.b.b.b.b.a.a.a.s.t.a.a.b.b.b.b.s.a.s.s.t.3.2.<.g i i i e r r u 7 9 9 9 q V E $XwXwXwXwXwX#X#X8X@X#X@X@X7XmXUXSXSXMXIXIXIXIXIXGXGXGXJXJXGXGXGXGXGXGXJXJXJXJXJXJXJXJXJXJXJXJXJXJXJXJXJXJXJXJXJXJXJXJXJXJXJXJXJXJXJXJXAXJXSXUXmXzXzXhXxXrXrXvXDXGXAXJXJXJXJXJXJXJXJXJXJXJXJXJXJXJXJXJXJXJXJXJXJXJXJXJXJXJXJXJXJXJXJXJXKXKXJXJXJXJXJXJXJXJXJXJXJXJXJXJXGXGXJXJXJXJXJXJXSXSXJXGXAXCXnXnXcXjXhXhXzXzX7X@X@X@X#X8X:X:X:X:X;X;.;.;.;.;.;.;.;.;.;.;.;.;.;.;.;.;.;.;.;.;.;.;.;.;.;.;.;.;.;.;.;.;.;.;.;.;.;.;.;.;.;.;.;.;.;.;.;.;.;.;.;.;.;.;.;.;.;.;.;.;.;.;.;.;.;.;.;.;.;.;.;.;.;.;.;.;.;.;.;.;.;.;.;.;.;.;.;.;.;.;.;.;.;.;.;.;.;.;.;.;.;.;.;.;.;.;.;.;.;.;.;.;.;.;.;.;.;.;.;.;.;.;.;.;.;.;.;.;.;.;.;.;.;.;.;.;.;.;.;.;.;.;.;.;.;.;.;.;.;.;.;.;.;.;.;.;.;.;.;.;.;.;.;.;.;.;.;.;.;.;.;.;.;.;.;.;.;.;.;.;.;.",
"' ' [ [ [ ' ' ' ' [ [ ' ' [ [ [ [ [ [ [ [ [ [ [ [ [ ' ' ' [ [ [ ' ' ' ' ' ' ' ' ` ` ` ` ` ` ` ` ` ` ` ` ` ` ` ` ` ` ` ` ` ` ` ` ` ` ` ` ` ` ` ` ` ` ` ` ` ` ` ` ` ` ` ` ` ` ` ` ` ` ` ` ` ` ` ` ` ` ` ` ` ` ` ` ` ` ` ` ` ` ` ` ' ' ' [ &.&.-.-.&.&.&.&.&.&.&.&.[ [ [ [ [ [ [ [ [ [ [ [ [ [ [ [ [ [ [ [ [ [ [ [ -.&.[ &.&.[ &.*.=.=.+X+X$XG.U m 8 8 u y y y i r w e i i i i g g 4.4.2.7.s.s.s.s.n.h.n.s.s.a.s.a.s.a.b.b.b.b.b.b.a.a.a.a.a.a.a.a.t.s.a.a.b.b.n.a.h.a.a.s.s.s.3.2.4.4.g g i e e r r u u 7 9 9 9 m q U E E  .*.$X=.-.-.*.=.+X#X#X@X7X@X@XmXnXUXSXIXIXIXSXSXSXIXIXIXGXIXIXGXGXGXGXGXJXJXJXJXJXJXJXJXJXJXJXJXJXJXJXJXSXFXSXJXJXFXFXFXFXFXFXFXFXFXFXFXFXFXFXUXmXzX7XzXhXxXrXxXNXSXFXAXJXJXJXJXJXJXJXJXJXJXJXJXJXJXJXJXJXJXJXJXJXJXJXJXJXJXJXJXJXJXJXKXKXKXKXJXJXJXJXFXFXFXFXJXGXGXGXGXPXGXGXGXSXSXFXFXFXFXAXDXnXmXzXhXjXjXjXjXzXzX7X7X8X#X+X......} [ &.&.&.&.&.&.[ [ &.&.&.&.&.&.&.&.&.&.&.&.&.&.&.&.&.&.&.&.&.&.&.&.[ [ [ [ [ [ [ [ [ [ [ [ [ [ [ [ [ [ [ [ [ [ [ [ [ [ [ [ [ [ [ [ [ [ [ &.[ &.&.&.&.&.&.&.[ [ [ &.[ &.&.&.&.&.&.&.[ [ [ &.[ &.&.&.[ [ [ &.&.&.[ &.[ [ [ &.[ &.&.&.&.&.&.&.[ [ [ &.[ &.&.&.&.&.&.&.[ [ [ [ [ [ &.[ &.[ [ [ [ [ [ [ [ [ &.[ &.[ [ [ [ [ [ [ [ [ &.[ &.[ [ [ [ [ [ [ [ [ [ [ [ [ &.[ &.[ [ [ [ [ [ ",
"' ' ' ' ' ' ' ' ' ' ' ' ' ' ' ' ' ' ' ' ' ' ' ' ' ' ' ' ' ' ' ' ' ` ` ` ` ` ` ` ` ` ` ` ` ` ` ` ` ` ` ` ` ` ` ` ` ` ` ` ` ` ` ` ` ` ` ` ` ` ` ` ` ` ` ` ` ` ` ` ` ` ` ` ` ` ` ` ` ` ` ` ` ` ` ` ` ` ` ` ` ` ` ` ` ` ` ` ` ` ` ` ' ' ' ' ' ' ' ' ' ' ' ' ' ' ' ) ' ' ' ' ' ' ' ' ' ' ' ' ' ' ) ' ) ) ) ) ' ' ' ' ' ' ' ' ' ) T T ) ' [ *.*. .E R V n 8 8 8 u u y w r r r e e r i e i g g 4.2.2.3.s.s.s.s.s.s.s.s.s.s.s.s.s.s.s.s.a.a.s.s.a.s.a.a.s.s.s.s.s.s.s.t.3.3.2.2.1.4.<.<.i i e e r t r d 7 8 8 9 m q V U R E  . .] ] T T ' ' [  .$X+X#X#X@X@X7XzXmXUXDXFXIXIXIXIXIXIXIXIXGXGXIXGXGXGXGXGXGXJXJXJXJXJXJXJXJXJXJXJXJXJXJXJXJXJXJXJXFXFXFXFXJXFXSXSXSXFXJXJXJXFXFXUXmXzXzXhXzXhXrXxXnXDXFXFXJXJXJXJXJXJXJXJXJXJXJXJXJXJXJXJXJXJXJXJXJXJXJXJXJXJXJXJXJXJXJXJXKXKXKXJXJXJXFXFXSXSXFXJXJXJXJXJXGXHXGXGXSXSXSXFXAXDXnXbXcXzXhXhXjXjXhXhXzX7X7X#X#X(. .] ] ' ' ) ' ' ' ' ' ' ) ) ' ' ' ' ' ' ' ' ' ' ' ' ' ' ' ' ' ' ' ' ' ' ' ' ' ' ' ' ' ' ' ' ' ' ' ' ' ' ' ' ' ' ' ' ' ' ' ' ' ' ' ' ' ' ' ' ' ' ' ' ' ' ' ' ' ' ' ' ' ' ' ' ' ' ' ' ' ' ' ' ' ' ' ' ' ' ' ' ' ' ' ' ' ' ' ' ' ' ' ' ' ' ' ' ' ' ' ' ' ' ' ' ' ' ' ' ' ' ' ' ' ' ' ' ' ' ' ' ' ' ' ' ' ' ' ' ' ' ' ' ' ' ' ' ' ' ' ' ' ' ' ' ' ' ' ' ' ' ' ' ' ' ' ' ' ' ' ' ' ' ' ' ' ' ' ",
"' ) ) ) ) ' ) ) ) ' ' ' ) ' ) ) ' ' ' ' ' ' ' ' ) ' ' ' ' ' ' ' ' ' ' ` ` ` o.o.` ` ` ` ` ` ` ` ` ` ` ` ` ` ` ` ` ` ` ` ` ` ` ` ` ` ` ` ` ` ` ` ` ` ` ` ` ` ` ` ` ` ` ` ` ` ` ` ` ` ` ` ` ` ` ` ` ` ` ` ` ` ` ` ` ` ` ` ` ` ` ` ` ` _ ' ) ) T T ) ) ) ' _ _ _ _ ' ' ` ` ` ` ` ` ' ' ' ' _ _ ' ' ) ' ) ) ' ' _ ` ' ' ' ` ` ) T G ) ) ` ] ] E  . .R W V q 0 8 8 8 u y r u t s s s w w e e i g g z z x x 2.2.2.3.2.t.t.t.t.s.s.s.s.t.t.t.t.t.t.t.t.t.3.2.2.2.2.4.4.g g g i i i i e i i r r t 7 7 9 9 m q q U W R E E  . .] ] ] T T T T ) ] ..+X#X7X@X@X7XzXmXnXUXSXIXIXIXIXIXIXIXIXIXIXIXIXGXJXJXGXGXGXGXGXGXGXGXJXGXGXGXGXGXGXGXGXJXJXJXJXKXJXJXJXJXFXJXFXJXFXJXJXSXDXDXnXmXxXrXrXhXhXhXhXbXCXJXPXJXJXJXJXJXJXJXJXJXJXJXJXJXJXJXJXJXJXJXJXJXJXJXJXJXJXJXJXJXJXJXJXJXJXKXJXJXJXFXFXFXFXFXJXJXGXGXGXAXGXGXJXSXSXDXDXnXbXbXcXhXjXhXjXjXhXhX%X7X@X#X+X~. . .] T T ) ) ' ) ) ) ' ) ) ) ' ' ' ' ' ' ' ' ' ' ' ' ` ` ` ` ' ' ' ' ' ` ` ` ` ` ` ' ` ` ` ` ' ' ' ' ' ' ' ' ' ' ' ' ' ' ' ' ' ' ' ' ' ' ' ' ' ' ' ' ) ) ) ) ) ) ) ) ' ' ' _ ) ) ) ) ) ) ) ) ' ' ' ' ) ) ) ) ' ' ' ) ) ) ) ) ' ' ' ' ) ) ) ) ) ) ) ) ' ' _ ' ) ) ) ) ) ) ) ) ' ' ' ' ' ' ' ` ' ' ' ' ' ' ' ' ' ' ` ` ' ' ' ' ' ' ' ' ' ' ` ` ' ' ' ' ` ` ' ' ' ' ' ' ' ' ` ` ' ' ' ' ' ' ' ",
"_ _ ' ' ) ) ) ) ) ) ) ) ) ) ) ) ` ` ` ` ` ` ` ` ' ` ` ` ` ` ` ` ` ` ` ` ` ` ` ` ` ` ` ` ` ` ` ` ` ` ` ` ` ` ` ` ` ` ` ` ` ` ` ` ` ` ` ` ` ` ` ` ` ` ` ` ` ` ` ` ` ` ` ` ` ` ` ` ` ` ` ` ` ` ` ` ` ` ` ` ` ` ` ` ` ` ` ` ` ` ` ` ` ` ` ` ` _ _ _ _ _ _ ` ` ` ` ` ` _ ` ` ` ` ` ` ` ` ` ` ` _ _ _ _ _ _ _ ` ` ` ` ` ` o.&.&.o._ T ` ' ` ) T T T ] E E E W V q m 9 8 u 8 7 7 7 t t t r w t e e e e e e e d d g g g z z z z z z z z g g g g z g g g g g g g d d d g 2 e i i i e e s e u t 8 8 8 0 0 q V W E E E E E T ] ] ` ` ` ` ) ) ) ' ]  .+X#X8X@X7X7XzXcXmXUXDXSXIXIXIXIXIXIXSXIXIXIXIXGXGXGXGXGXGXGXGXSXSXSXGXGXSXSXSXSXSXSXGXGXGXGXGXGXGXGXJXSXJXJXKXJXJXAXDXnXnXbXcXxXjXrXrXhX&X%XhXzXnXSXPXGXGXGXGXGXGXGXGXGXGXGXGXGXGXGXGXJXJXJXJXJXJXJXJXJXJXJXJXJXJXJXJXJXJXJXJXJXFXFXFXFXFXJXJXJXHXHXAXAXFXJXJXDXCXnXbXcXcXxXxXhXhXjXhXhX%X7X7X@X#X(.~. . .] ] ] ` ` _ o._ _ o._ _ _ _ _ _ _ _ ` ` ` ` ` ` ` ` ` ` ` ` ` ` ` ` ` ` ` ` ` ` ` ` ` ` ` ` ` ` ` ` ` ` ` ` ` ` ` ` ` ` ` ` ` ` ` ` ` ` ` ` ` ` ` ` ` ` ` ` ' ' ' ' ` ` ` ` ` ` ` ` ' ' ' ' ` ` ` ` ` ` ` ` ` ` ` ` ' ' ` ` ` ` ` ` ` ` ` ` ' ' ' ' ` ` ` ` ` ` ` ` ' ' ' ' ` ` ` ` ` ` ` ` ` ` ` ` ` ` ` ` ` ` ` ` ` ` ` ` ` ` ` ` ` ` ` ` ` ` ` ` ` ` ` ` ` ` ` ` ` ` ` ` ` ` ` ` ` ` ` ",
"' ' ' ' ' ' ' ' ' ` ` ' _ _ ` ` ` ` ` ` ` ` ` ` ` ` ` ` ` ` ` ` ` ` ` ` ` ` ` ` ` ` ` ` ` ` ` ` ` ` ` ` ` ` ` ` ` ` ` ` ` ` ` ` ` ` ` ` ` ` ` ` ` ` ` ` ` ` ` ` ` ` ` ` ` ` ` ` ` ` ` ` ` ` ` ` ` ` ` ` ` ` ` ` ` ` ` ` ` ` ` ` ` ` o.o.o.o.o.o.o.` o.` ` ` ` ` ` ` ` o.` ` ` o.` ` ` ` ` _ _ _ _ _ _ _ ` ` ` ` T ` ` o.o.o._ _ ) _ ` ` ' ) ) ] T T E E E R U q m 8 8 8 8 8 8 u t u w w w w w w e e w w e i i i i i i i i i i i i i i i i i i i i i e e e e e e i y p y r w t 7 9 9 9 9 q n U W Y T E  . .] ] ] ] ' ' ) _ ' _ ) _ ' ' ]  ...+X#X@X@X7XzXzXcXnXnXSXSXIXIXIXIXSXSXIXIXSXSXSXSXGXSXGXGXSXSXSXSXJXJXFXFXFXFXFXJXJXJXAXAXAXAXSXSXGXGXJXJXGXGXDXCXnXnXcXcXxXjXjXjXjXhXjX&X%X%XhXbXDXGXGXGXGXGXGXGXGXGXGXGXGXGXGXGXGXGXJXJXJXJXJXJXJXJXJXJXJXJXJXJXJXJXGXGXJXJXJXFXFXFXFXFXJXJXJXJXGXGXFXAXAXCXnXbXcXhXhXxXxXxXxXjXhXhXzX7X7X#X#X(. . .] ] ] ] ` ` _ ) o.o.o.o._ _ _ _ _ _ ` ` ` ` ` ` o.o.o.o.` ` ` ` o.o.o.o.o.o.o.o.o.` ` o.` ` ` ` ` ` ` ` ` ` ` ` ` ` ` ` ` ` ` ` ` ` ` ` ` ` ` ` ` ` ` ` _ _ ` ` ` ` ` ` _ _ ` ` ` ` ` ` ` ` ` ` ` ` ` ` _ _ ` ` ` ` ` ` ` ` ` ` ` ` ` ` _ _ ` ` ` ` ` ` _ ` _ _ ` ` ` ` ` ` ` ` ` ` ` ` ` ` ` ` ` ` ` ` ` ` ` ` ` ` ` ` ` ` ` ` ` ` ` ` ` ` ` ` ` ` ` ` ` ` ` ` ` ` ` ` ` ` ` ` ` ` ` ` ` ` ` ",
"_ _ _ _ ' ' _ _ _ _ _ _ _ _ _ _ ` ` ` ` ` ` ` ` ` ` ` ` ` ` ` ` ` ` ` ` ` ` ` ` ` ` ` ` ` ` ` ` ` ` ` ` ` ` ` ` ` ` ` ` ` ` ` ` ` ` ` ` ` ` ` ` ` ` ` ` ` ` ` ` ` ` ` ` ` ` ` ` ` ` ` ` ` ` ` ` ` ` ` ` ` ` ` ` ` ` ` ` ` ` ` ` ` ` ` ` ` ` _ ` o.o.o.o.o.` ` ` o.o.o.o.o.o.o.o.o.` o.` o.` o.` o._ o.` o.` o.` ` ` ` o.o._ o._ _ _ ` _ _ _ ) ) ) ] ] ] ] E E E W U n q m 9 8 8 7 7 u u w a p p r e w w r w w i i i i i i i i i i i i i i i e e p p r r e e e r y u u 8 7 8 8 8 m m q V W R E E ] ] ] ] ] ] ] ` ) ) ) ) _ _ _ ' ` ` ' ]  ...(.#X#X@X@XzXzXxXcXmXDXDXSXSXFXFXIXIXIXIXSXSXSXSXSXSXIXJXJXJXJXJXJXJXJXJXJXJXJXJXJXJXJXJXGXGXGXGXSXSXAXDXCXnXbXcXxXxXzXzXhXjXjXjXjXjXhX%X%X%XhXcXnXDXGXGXGXGXGXGXGXGXGXGXGXGXGXGXGXGXJXJXJXJXJXJXJXJXJXJXJXJXJXJXJXJXJXJXJXJXFXFXFXFXAXFXJXKXKXJXJXJXAXCXnXbXcXhXhXrXhXxXxXxXzXzXzX7X7X#X#X(.~. . .] ] ] ] ` ` _ ) _ o.o.o.o.o.o.o._ o.` o.o.o.o.o.o.o.o.o.o.o.` o.o.o.o.o.o.o.o.o.o.o.o.o.o.o.o.o.` o.` o.` o.` o.` o.` o.` o.` o.o.o.` o.` ` ` o.` o.o.` ` _ ` ` ` ` ` ` ` ` ` o.o.` ` ` ` ` ` ` ` o.o.` ` _ _ _ ` ` ` ` _ ` ` ` ` o.o.` ` _ _ _ ` ` ` ` ` ` ` o.o.` ` ` ` ` ` ` ` ` ` ` ` ` ` ` ` ` ` ` ` ` ` ` ` ` ` ` ` ` ` ` ` ` ` ` ` ` ` ` ` ` ` ` ` ` ` ` ` ` ` ` ` ` ` ` ` ` ` ` ` ` ` ` ",
"_ _ ` ` ` ` ` ` ` ` ` ` _ _ ` ` _ ` ` _ ` _ _ ` _ _ _ _ ` ` ` ` ' ' ` ` ` ` ` ` ` ` ` ` ` ` ` ` ` ` ` ` ` ` ` ` ` ` ` ` ` ` ` ` ` ` ` ` ` ` ` ` ` ` ` ` ` ` ` ` ` ` ` ` ` ` ` ` ` ` ` ` ` ` ` ` ` ` ` ` ` ` ` ` ` ` ` ` ` ` ` ` ` ` ` ` ` ` _ ` ` ` ` ` ` ` ` ` _ _ _ ` ` ` ` ` _ _ ` ` _ _ _ _ _ _ _ _ ` ` ` ` o.` ` ` o./ / / _ _ _ _ _ ` ` ` ` ` ] ] ] ] ] ] E E R W U q q q m 8 8 8 8 u u u y y y r u w w w y r y r y r r r p p y r r r r r y y u u u u u 8 8 9 9 m m q q q W W E E E E  .] ] ] ] ] T T ) ) ` _ _ _ ` _ _ ` ` ` ` ] ]  .(.(.#X@X@XsXxXxXxXcXnXnXUXDXSXSXSXSXSXSXSXSXSXSXSXSXFXFXIXFXFXFXFXFXFXFXFXFXJXFXJXJXJXGXSXSXDXCXCXCXnXbXbXcXxXhXhXhXhXhXxXxXxXhXhXhX%X%X%X%XhXhXvXBXGXGXGXGXGXGXGXGXGXGXGXGXGXGXGXGXJXJXJXJXJXJXJXJXJXJXJXJXJXJXJXJXJXFXFXFXFXFXFXFXJXFXJXJXSXDXDXDXnXbXcXhXhXrXrXhXhXzXzXzX@X@X@X@X#X+X~. . . .] ] ] ] ` ` ` ` ` ` _ _ _ _ _ _ _ _ ` ` ` ` ` ` ` ` ` ` ` ` ` ` ` ` ` ` ` ` ` ` ` ` ` ` ` ` ` ` ` ` ` ` ` ` ` ` ` ` ` ` ` ` ` ` ` ` ` ` ` ` ` ` ` ` _ _ _ _ _ _ _ _ _ _ ` _ _ _ _ _ _ _ _ _ _ _ _ _ _ _ _ _ _ _ _ _ _ _ _ _ _ _ _ _ _ _ _ _ _ _ _ _ _ _ _ _ _ _ _ _ _ _ _ _ _ _ _ _ ` ) ` ) ` ) ` ) ` ) ` ) ` ) ` ) ` ) ` ) ` ) ` ) ` ) ` ) ` ) ` ) ` ) ` ) ` ' ` ) ` ) ` ) ` ) ` ) ` ) ` ) ` ) ` ",
"` ` ` ` ` ` ` ` ` ` ` ` ` ` ` ` ` ` ` ` ` ` ` ` ` ` ` ` ` ` ` ` ` ` ` ` ` ` ` ` ` ` ` ` ` ` ` ` ` ` ` ` ` ` ` ` ` ` ` ` ` ` ` ` ` ` ` ` ` ` ` ` ` ` ` ` ` ` ` ` ` ` ` ` ` ` ` ` ` ` ` ` ` ` ` ` ` ` ` ` ` ` ` ` ` ` ` ` ` ` ` ` ` ` ` ` ` ` ` ` ` ` ` ` ` ` ` ` ` ` ` ` ` ` ` ` ` ` ` ` ` ` ` _ _ _ ` ` ` ` ] ` ` ` ` ` _ / / / _ _ _ _ ` ` ` ` o.` T ` ` o.` ]  . . .E E E W W q q q m 8 8 8 8 f f u u 8 8 8 8 8 8 8 8 8 8 8 8 8 8 8 8 8 8 8 8 8 8 8 8 8 8 8 m q q q V U W W E E E E E ] ] ] ] ` ` ] T T T ) ` ` ` ` ` ` ` ` ` ` ) ` ` ] ] ..(.#X@X@XsXsXxXxXzXxXcXbXnXDXDXAXAXSXSXSXSXSXSXSXSXSXSXSXSXSXSXSXSXSXSXSXSXSXSXSXSXDXDXCXnXnXbXcXcXhXhXhXhXhXxXxXxXhXhXzXzX7X%X%X%X%X%X%X%XhXrXjXbXGXGXGXGXGXGXGXGXGXGXGXGXGXGXGXGXJXJXJXJXJXJXJXJXJXJXJXJXJXJXJXJXFXFXFXFXFXFXFXFXJXJXSXDXCXnXbXbXxXzXhXrXrXrXhXhXXX@X7X@X@X#X#X#X$X.. .] ] ] ] ] ] o.o.` ` ' ` ' _ _ _ _ _ _ ` ` ` ` ` ` ` ` ` ` ` ` ` ` ` ` ` ` ` ` ` ` ` ` ` ` ` ` ` ` ` ` ` ` ` ` ` ` ` ` ` ` ` ` ` ` ` ` ` ` ` ` ` ` ` ` ` ` ` ` ` ` ` ` ` ` ` ` ` ` ` ` ` ` ` ` ` ` ` ` ` ` ` ` ` ` ` ` ` ` ` ` ` ` ` ` ` ` ` ` ` ` ` ` ` ` ` ` ` ` ` ` ` ` ` ` ` ` ` ` ` ` ` ` ` ` ` ` ` ` ` ` ` ` ` ` ` ` ` ` ` ` ` ` ` ` ` ` ` ` ` ` ` ` ` ` ` ` ` ` ` ` ` ` ` ` ` ` ` ` ` ` ` ` ` ` ` ",
"` ` ` ` ` ` ` ` ` ` ` ` ` ` ` ` ` ` ` ` ` ` ` ` ` ` ` ` ` ` ` ` ` ` ` ` ` ` ` ` ` ` ` ` ` ` ` ` ` ` ` ` ` ` ` ` ` ` ` ` ` ` ` ` ` ` ` ` ` ` ` ` ` ` ` ` ` ` ` ` ` ` ` ` ` ` ` ` ` ` ` ` ` ` ` ` ` ` ` ` ` ` ` ` ` ` ` ` ` ` ` ` ` ` ` ` ` ` ` ` ` ` ` ` ` ` ` ` ` ` ` ` ` ` ` ` ` ` ` ` ` ` ` _ _ _ ` ` ` ` ] ] ` ` ` _ _ _ / / o.o.o.o.o.o.o.] ] ` ` ` ` _ _ ` ` ] ] ] E ] E E E E W W U U n n V V n n n q q q q q q q q q q q q q q m m m q m m m q q q U U U W Y Y E E E E  .] ] ] ] ] ` ` ` T T T ) ` ` ` ` ` ` ` ` ` ` ] ` ) ) ) ` ] ]  . .#X#XsXsXsXsXxXxXxXxXxXcXmXnXUXAXSXSXSXSXFXSXFXSXSXSXSXSXSXSXSXSXSXSXSXSXAXDXDXUXnXnXbXcXhXhXrXXXrXhXzXzXzXzXhXhX%X7X7X@X#X#XoXoX@X%X%X%XhXhXjXjXnXNXCXAXSXGXGXSXGXGXGXGXGXGXGXGXSXSXSXSXSXSXSXSXPXJXJXSXSXSXSXGXSXFXFXFXJXFXSXSXDXDXnXbXcXcXxXxXhXhXrXhXhXzXhX@X@X@X#X#X#X+X(... .] ] ] ] ] ] ` ` ` ` _ ` ` ` ` _ _ _ _ _ _ ` ` ` ` ` ` ` ` ` ` ` ` ` ` ` ` ` ` ` ` ` ` ` ` ` ` ` ` ` ` ` ` ` ` ` ` ` ` ` ` ` ` ` ` ` ` ` ` ` ` ` ` ` ` ` ` ` ` ` ` ` ` ` ` ` ` ` ` ` ` ` ` ` ` ` ` ` ` ` ` ` ` ` ` ` ` ` ` ` ` ` ` ` ` ` ` ` ` ` ` ` ` ` ` ` ` ` ` ` ` ` ` ` ` ` ` ` ` ` ` ` ` ` ` ` ` ` ` ` ` ` ` ` ` ` ` ` ` ` ` ` ` ` ` ` ` ` ` ` ` ` ` ` ` ` ` ` ` ` ` ` ` ` ` ` ` ` ` ` ` ` ` ` ` ` ` ` ",
"` ` ` ` ` ` ` ` ` ` ` ` ` ` ` ` ` ` ` ` ` ` ` ` ` ` ` ` ` ` ` ` ` ` ` ` ` ` ` ` ` ` ` ` ` ` ` ` ` ` ` ` ` ` ` ` ` ` ` ` ` ` ` ` ` ` ` ` ` ` ` ` ` ` ` ` ` ` ` ` ` ` ` ` ` ` ` ` ` ` ` ` ` ` ` ` ` ` ` ` ` ` ` ` ` ` ` ` ` ` ` ` ` ` ` ` ` ` ` ` ` ` ` ` ` ` ` ` ` ` ` ` ` ` ` ` ` ` ` ` ` ` ` ` _ _ _ ` ` ` ` ` ` ` ` _ _ _ / _ o.o.o.o.o.o.o.o.] ` ` ` ` _ _ _ _ _ ` ` ` ` ] ] ]  .E E E E E E E E E E E W R W W W W W W W W W W W W W W W W U W W W W E E E E E E E E E E T T ] ] ] ` ` ` ` ` ` ` T ` ` ` ` ` ` ` ` ` ` ` ] ` ) ) ' ` ] ]  . .$X#X@XsXsXsXsXxXxXxXxXxXxXcXbXnXnXnXnXnXUXUXUXUXDXDXAXDXDXDXDXDXDXCXnXnXnXbXbXmXcXcXxXxXzXzXzXzXXXXXXX%X7XzXzX7X X X}.(.(.(.~.~.#X@X%XhXhXjXjXjXvXbXnXCXAXSXGXSXAXAXSXGXGXGXJXJXJXJXJXJXJXJXJXJXSXJXJXJXGXGXSXSXSXSXSXSXDXDXNXnXbXbXcXcXzXhXhXhXhXhXrXXXzXzX7X7X7X#X#X+X$X . .] ] ] ] ] ] ] ` ` ` ` _ _ _ _ _ _ _ _ _ _ _ _ ` ` ` ` ` ` ` ` ` ` ` ` ` ` ` ` ` ` ` ` ` ` ` ` ` ` ` ` ` ` ` ` ` ` ` ` ` ` ` ` ` ` ` ` ` ` ` ` ` ` ` ` ` ` ` ` ` ` ` ` ` ` ` ` ` ` ` ` ` ` ` ` ` ` ` ` ` ` ` ` ` ` ` ` ` ` ` ` ` ` ` ` ` ` ` ` ` ` ` ` ` ` ` ` ` ` ` ` ` ` ` ` ` ` ` ` ` ` ` ` ` ` ` ` ` ` ` ` ` ` ` ` ` ` ` ` ` ` ` ` ` ` ` ` ` ` ` ` ` ` ` ` ` ` ` ` ` ` ` ` ` ` ` ` ` ` ` ` ` ` ` ` ` ` ` ` ` ",
"` ` ` ` ` ` ` ` ` ` ` ` ` ` ` ` ` ` ` ` ` ` ` ` ` ` ` ` ` ` ` ` ` ` ` ` ` ` ` ` ` ` ` ` ` ` ` ` ` ` ` ` ` ` ` ` ` ` ` ` ` ` ` ` ` ` ` ` ` ` ` ` ` ` ` ` ` ` ` ` ` ` ` ` ` ` ` ` ` ` ` ` ` ` ` ` ` ` ` ` ` ` ` ` ` ` ` ` ` ` ` ` ` ` ` ` ` ` ` ` ` ` ` ` ` ` ` ` ` ` ` ` ` _ _ _ _ _ _ ` ` ` ` ` _ _ _ ` ` ` ` ` ` ` ` _ _ _ _ _ o.o.o.o.o.o.o.o.` ` ` ` ` _ _ _ _ _ ` ` ` ` ` ] ] ] ] ] ] ] ] ] ] ] ] ] ] ] ] ] ] ] ] ]  .]  . .E E E E E E E ] ] ] ]  .] @.*.*.] ] ] ] ] ] ` ` ] ` ` ` ` ` ` ` T ` ` ` _ _ _ _ _ _ ` ` ` ` ` ` ` ` ` ` ] ] ]  . .~.#X#X@XsXsXsXsXxXxXxXxXzXxXxXcXcXcXcXmXmXmXmXmXmXbXmXbXmXbXmXcXcXxXxXzXzXzXzXsXzXsXzXzXXXXXXX7X@X@X@X@X@X XoX(.(... . . . . .+X#X7X%XhXhXhXhXhXxXcXnXNXDXAXGXGXGXGXGXGXGXGXGXSXSXSXSXSXSXSXSXSXSXFXJXJXJXFXFXAXDXDXNXnXbXmXcXhXhX%X%X%X%X%X%XhX%XXX@X7X7X#X#X+X$X$X . .] ] ] ] ] ] ] ] ` ` ` ` ` _ _ _ _ _ _ _ _ _ _ ` ` ` ` ` ` ` ` ` ` ` ` ` ` ` ` ` ` ` ` ` ` ` ` ` ` ` ` ` ` ` ` ` ` ` ` ` ` ` ` ` ` ` ` ` ` ` ` ` ` ` ` ` ` ` ` ` ` ` ` ` ` ` ` ` ` ` ` ` ` ` ` ` ` ` ` ` ` ` ` ` ` ` ` ` ` ` ` ` ` ` ` ` ` ` ` ` ` ` ` ` ` ` ` ` ` ` ` ` ` ` ` ` ` ` ` ` ` ` ` ` ` ` ` ` ` ` ` ` ` ` ` ` ` ` ` ` ` ` ` ` ` ` ` ` ` ` ` ` ` ` ` ` ` ` ` ` ` ` ` ` ` ` ` ` ` ` ` ` ` ` ` ` ` ` ` ` ` ` ",
"` ` ` ` ` ` ` ` ` ` ` ` ` ` ` ` ` ` ` ` ` ` ` ` ` ` ` ` ` ` ` ` ` ` ` ` ` ` ` ` ` ` ` ` ` ` ` ` ` ` ` ` ` ` ` ` ` ` ` ` ` ` ` ` ` ` ` ` ` ` ` ` ` ` ` ` ` ` ` ` ` ` ` ` ` ` ` ` ` ` ` ` ` ` ` ` ` ` ` ` ` ` ` ` ` ` ` ` ` ` ` ` ` ` ` ` ` ` ` ` ` ` ` ` ` ` ` ` ` ` ` ` ` _ _ _ _ _ _ _ ` ` ` ` _ _ _ _ ` ` ` ` ` ` ` ` _ _ _ _ o.o.o.o.o.o.o.` ` ` ` ` ` ` ` _ _ ` ` ` ` ` ` ` ` ` ` ` ` ` ] ] ] ] ] ` ` ] ` ] ] ] ` ` ` ] ] ] ] ] ` ] ] ] ] ] ` ] ` ` ` ` ` ` ` ` ` ` ` ` ` ` ` ` ` ` ` ` ` ` ` ` ` _ _ _ _ _ _ _ _ _ ` ` ` ` ` ` ` ` ` ] ] ] ]  .~.(.#X#X@XsXsXsXzXzXzXzXzXzXzXzX7XzXzXzXzXzXzXzXhXrXrXrXzXzXzXhXhXhXhXhXzXzXXX@X@X7X@X@X@X@X@X#X#X#X#X(.(.~.{ |  .] ] ] ] ] ~.+X#X7X%X%XhXhXhXhXhXxXbXnXCXDXGXGXGXGXGXGXGXGXGXSXSXSXSXSXSXSXFXFXFXSXSXDXDXDXnXnXnXbXcXzXzXhXhXhX%X%X%X%X%X%X7X7X7X7X@X#X+X$X . .] ] ] ] ] ] ] ] ` ` ` ` ` ` ` ` ` _ _ _ _ _ _ _ _ _ ` ` ` ` ` ` ` ` ` ` ` ` ` ` ` ` ` ` ` ` ` ` ` ` ` ` ` ` ` ` ` ` ` ` ` ` ` ` ` ` ` ` ` ` ` ` ` ` ` ` ` ` ` ` ` ` ` ` ` ` ` ` ` ` ` ` ` ` ` ` ` ` ` ` ` ` ` ` ` ` ` ` ` ` ` ` ` ` ` ` ` ` ` ` ` ` ` ` ` ` ` ` ` ` ` ` ` ` ` ` ` ` ` ` ` ` ` ` ` ` ` ` ` ` ` ` ` ` ` ` ` ` ` ` ` ` ` ` ` ` ` ` ` ` ` ` ` ` ` ` ` ` ` ` ` ` ` ` ` ` ` ` ` ` ` ` ` ` ` ` ` ` ` ` ` ` ` ` ` ",
"` ` ` ` ` ` ` ` ` ` ` ` ` ` ` ` ` ` ` ` ` ` ` ` ` ` ` ` ` ` ` ` ` ` ` ` ` ` ` ` ` ` ` ` ` ` ` ` ` ` ` ` ` ` ` ` ` ` ` ` ` ` ` ` ` ` ` ` ` ` ` ` ` ` ` ` ` ` ` ` ` ` ` ` ` ` ` ` ` ` ` ` ` ` ` ` ` ` ` ` ` ` ` ` ` ` ` ` ` ` ` ` ` ` ` ` ` ` ` ` ` ` ` ` ` ` ` ` ` ` ` ` ` _ _ _ _ _ _ _ ` ` ` ` _ _ _ _ _ ` ` ` ` ` ` ` ` _ ` ` o.` o.o.` ` ` ` _ _ _ ` ` ` ` ` ` ` ` ` ` ` ` ` ` ` ` ` ` ` ` ` ` ` ` o.` ` o.` _ _ ` ` ` ) T ) ) ) _ ` ` ` ` ` ` ` ` ` ` _ _ ` ` ` ` ` ` ` ` ` ` ` ` ` ` ` ` ` ` _ _ _ _ _ _ _ _ _ _ _ ` ` ` ` ` ` ` ` ` ] ] ] ] ]  . .~.(.#X#X#X@X7X7X7X@X@X@X7X7X7X7X7X7X7X7X7X7X7X7X7X7X7X7X7X7X%XXXXXXX%X7X@X#X@X#X#X#X#X#X#X+X(.~... . . .] ] ] ] ] ` ` ]  ...+X#X7X7X%XhXzXzXrXrXhXcXbXnXnXnXNXNXDXDXDXDXSXSXSXSXSXSXSXSXSXDXDXnXnXbXbXmXcXcXxXxXxXhXhXhXhX%X%X%X7X7X7X7X7X#X#X#X+X$X . .] ] ] ] ] ` ` o.` ` ` ` ` ` ` ` ` _ _ _ _ ' _ _ _ ` ` ` ` ` ` ` ` ` ` ] ` ] ` ` ` ` ` ` ` ` ` ` ` ` ` ` ` ` ` ` ` ` ` ` ` ` ` ` ` ` ` ` ` ` ` ` ` ` ` ` ` ` ` ` ` ` ` ` ` ` ` ` ` ` ` ` ` ` ` ` ` ` ` ` ` ` ` ` ` ` ` ` ` ` ` ` ` ` ` ` ` ` ` ` ` ` ` ` ` ` ` ` ` ` ` ` ` ` ` ` ` ` ` ` ` ` ` ` ` ` ` ` ` ` ` ` ` ` ` ` ` ` ` ` ` ` ` ` ` ` ` ` ` ` ` ` ` ` ` ` ` ` ` ` ` ` ` ` ` ` ` ` ` ` ` ` ` ` ` ` ` ` ` ` ` ` ` ` ` ` ` ",
"` ` ` ` ` ` ` ` ` ` ` ` ` ` ` ` ` ` ` ` ` ` ` ` ` ` ` ` ` ` ` ` ` ` ` ` ` ` ` ` ` ` ` ` ` ` ` ` ` ` ` ` ` ` ` ` ` ` ` ` ` ` ` ` ` ` ` ` ` ` ` ` ` ` ` ` ` ` ` ` ` ` ` ` ` ` ` ` ` ` ` ` ` ` ` ` ` ` ` ` ` ` ` ` ` ` ` ` ` ` ` ` ` ` ` ` ` ` ` ` ` ` ` ` ` ` ` ` ` ` ` ` ` _ _ _ _ _ _ _ ` ` ` ` _ _ _ _ _ _ _ ` ` ` ` ` ` ` ` ` ` ` ` o.` ` ` _ _ _ _ ` ` ` ` ` ` ` ` ` ` ` ` ` ` ` ` ` ` ` ` ` ` ` ` o.` o.o.o.` ` ` ` ` ` ` ` _ _ _ _ ` ` ` ` ` ` ` ` ` ` ` ` ` ` ` ` ` ` ` ` ` ` ` ` ` ` ` ` ` _ _ _ _ _ _ _ _ _ _ _ ` ` ` ` ' ` ` ' ] ] ] ] ] ] ] ]  . .~.(.+X#X#X#X8X7X8X7X7X7X7X7X7X7X7X7X7X7X7X7X7X7X7X7X7X7X@XXXXX7X@X@X8X8X#X#X#X+X+X$X.. . .] ] ] ] ] ] ] ] ] ` ` ` ] ]  .*.+X#X@X7X7XzXzXzXrXhXhXzXzXxXcXcXvXbXbXbXbXnXnXnXnXnXnXnXnXbXmXcXzXxXzXzXzXrXrXrXrXhXhXjXhXhXhX%X7X7X7X@X@X#X+X+X$X . . .] ] ] ] ] ` ` ` ` ` ` ` ` ` ` ` ` ` ` ` ' _ _ ) _ _ ` ` ` ` ` ` ` ` ` ` ] ` ] ` ` ` ` ` ` ` ` ` ` ` ` ` ` ` ` ` ` ` ` ` ` ` ` ` ` ` ` ` ` ` ` ` ` ` ` ` ` ` ` ` ` ` ` ` ` ` ` ` ` ` ` ` ` ` ` ` ` ` ` ` ` ` ` ` ` ` ` ` ` ` ` ` ` ` ` ` ` ` ` ` ` ` ` ` ` ` ` ` ` ` ` ` ` ` ` ` ` ` ` ` ` ` ` ` ` ` ` ` ` ` ` ` ` ` ` ` ` ` ` ` ` ` ` ` ` ` ` ` ` ` ` ` ` ` ` ` ` ` ` ` ` ` ` ` ` ` ` ` ` ` ` ` ` ` ` ` ` ` ` ` ` ` ` ` ` ` ` ` ",
"` ` ` ` ` ` ` ` ` ` ` ` ` ` ` ` ` ` ` ` ` ` ` ` ` ` ` ` ` ` ` ` ` ` ` ` ` ` ` ` ` ` ` ` ` ` ` ` ` ` ` ` ` ` ` ` ` ` ` ` ` ` ` ` ` ` ` ` ` ` ` ` ` ` ` ` ` ` ` ` ` ` ` ` ` ` ` ` ` ` ` ` ` ` ` ` ` ` ` ` ` ` ` ` ` ` ` ` ` ` ` ` ` ` ` ` ` ` ` ` ` ` ` ` ` ` ` ` ` ` ` ` ` _ _ _ _ _ _ _ ` ` ` ` _ _ _ _ _ _ _ _ _ _ ` ` ` ` ` ` ` ` ` ` ` ` ` ` _ _ ` ` ` ` ` ` ` ` ` ` ` ` ` ` ` ` ` ` ` ` ` ` _ _ ` ` _ ` ` ` ` ` ` ` ` ` ` ` _ _ _ ` ` ` ` ` ` ` ` ` ` ` ` ` ` ` ` ` ` ` ` ` ` ` ` ` _ _ ` ` ` _ _ _ _ _ _ _ _ _ ` ` ` ` ` ` ' ' ' ] ] ' ' ' ` ' ' ] ] ]  . . ...$X+X+X+X#X#X#X#X@X@X@X@X@X@X7X7X7X7X7X7X7X7X@X7X7X7X@X@X@X#X#X+X+X$X.. . . . .] ] T T ) ] ) ) ) ` ` ` ` o.o.` ]  .*.+X#X@X7XrXhXzXzXzXrXrXrXzXzXzXzXzXzXzXzXzXzXzXzXzXzXzXzX%X%X%X%X%XhXhXzXhXrXrXrXhXjXjXjXhXhX7X@X@X#X#X#X$X*. . . .] ] ] ` ` ] ] ` ` ` ` ` ` ` ` ` ` ` ` ` ` ` _ ' ) ) _ _ ` ` ` ` ` ` ` ` ` ` ` ] ` ] ` ` ` ` ` ` ` ` ` ` ` ` ` ` ` ` ` ` ` ` ` ` ` ` ` ` ` ` ` ` ` ` ` ` ` ` ` ` ` ` ` ` ` ` ` ` ` ` ` ` ` ` ` ` ` ` ` ` ` ` ` ` ` ` ` ` ` ` ` ` ` ` ` ` ` ` ` ` ` ` ` ` ` ` ` ` ` ` ` ` ` ` ` ` ` ` ` ` ` ` ` ` ` ` ` ` ` ` ` ` ` ` ` ` ` ` ` ` ` ` ` ` ` ` ` ` ` ` ` ` ` ` ` ` ` ` ` ` ` ` ` ` ` ` ` ` ` ` ` ` ` ` ` ` ` ` ` ` ` ` ` ` ` ` ` ` ` ` ",
"` ` ` ` ` ` ` ` ` ` ` ` ` ` ` ` ` ` ` ` ` ` ` ` ` ` ` ` ` ` ` ` ` ` ` ` ` ` ` ` ` ` ` ` ` ` ` ` ` ` ` ` ` ` ` ` ` ` ` ` ` ` ` ` ` ` ` ` ` ` ` ` ` ` ` ` ` ` ` ` ` ` ` ` ` ` ` ` ` ` ` ` ` ` ` ` ` ` ` ` ` ` ` ` ` ` ` ` ` ` ` ` ` ` ` ` ` ` ` ` ` ` ` ` ` ` ` ` ` ` ` ` ` _ _ _ _ _ _ ` ` ` ` ` _ _ _ _ _ _ _ _ _ ` ` ` ` ` ` ` ` ` ` ` ` ` ` ` ` ` ` ` ` ` ` ` ` ` ` ` ` ` ` ` ` ` ` ` ` ` ` ` ` ` ` ` ` ` ` ` ` ` ` ` ` ` ` T ` ` ` _ T T ` ` ` ` ` ` ` ` ` ` o.o.o.o.` ` ` _ _ _ _ _ _ _ _ _ ` ` _ _ ` _ ` _ ` ` ` ` ` ` ` ` ' ' ' ' ' ' ' ' ) ' ` ` ] ] ] ] ] ]  .......$X$X+X#X#X#X#X#X#X#X#X#X#X#X#X#X#X#X#X#X#X#X#X(.(.(. . . . . .] ] ] ] ] ] ` ` ` _ _ ` ` ` ` ` ` ` ` o.` ]  .*.+X#X7X@XXXXXXXsXsXzXzXzXzXzXzXzXzXzXzXhXhX%X7X7X%XhXhXzXzXzXzXzXzXzXrXxXzXhXrXhXhX%X%X%X%X@X#X#X(.(.~. .] ] ] ] ] ] ` ` ` ] ] ` ` ` ` ` ` ` ` ` ` ` ` ` ` ` ` _ ' ' _ ` ` ` ` ` ` ` ` ` ` ` ` ] ] ] ` ` ` ` ` ` ` ` ` ` ` ` ` ` ` ` ` ` ` ` ` ` ` ` ` ` ` ` ` ` ` ` ` ` ` ` ` ` ` ` ` ` ` ` ` ` ` ` ` ` ` ` ` ` ` ` ` ` ` ` ` ` ` ` ` ` ` ` ` ` ` ` ` ` ` ` ` ` ` ` ` ` ` ` ` ` ` ` ` ` ` ` ` ` ` ` ` ` ` ` ` ` ` ` ` ` ` ` ` ` ` ` ` ` ` ` ` ` ` ` ` ` ` ` ` ` ` ` ` ` ` ` ` ` ` ` ` ` ` ` ` ` ` ` ` ` ` ` ` ` ` ` ` ` ` ` ` ` ` ` ` ` ` ` ` ` ` ` ",
"` ` ` ` ` ` ` ` ` ` ` ` ` ` ` ` ` ` ` ` ` ` ` ` ` ` ` ` ` ` ` ` ` ` ` ` ` ` ` ` ` ` ` ` ` ` ` ` ` ` ` ` ` ` ` ` ` ` ` ` ` ` ` ` ` ` ` ` ` ` ` ` ` ` ` ` ` ` ` ` ` ` ` ` ` ` ` ` ` ` ` ` ` ` ` ` ` ` ` ` ` ` ` ` ` ` ` ` ` ` ` ` ` ` ` ` ` ` ` ` ` ` ` ` ` ` ` ` ` ` ` ` ` _ _ _ _ _ ` ` ` ` ` ` _ _ _ _ _ _ _ ` ` ` ` ` ` ] ] ` ` ` ` ` ` ` ` ` ` ` ` ` ` ` ` ` ` ` ` ` ` ` ` ` ` ` ` ` ` ` ` ` ` ` ` ` ` ` ` ` ` ` ` ` ` ` ` ` ` ` ` ` ` ` ` ` ` ` ` ` ` ` ` ` ` ` ` ` ` ` ` ` ` ` ` ` ` ` ` ` ` ` ` ` ` ` ` ` ` ` ` ` ` ` ` ` ` ' ' ' ' ' ' ' ` ` ` ` ` ] ] ] ] ' ] ] ] ] ] ]  .*.........$X..........~....... ..... . . . . .] ] ] ] ] ] ] ] ` ` ` ` ` ` ` ` ` ` ` ` ` ` ` ` ` ` ] ] [ *.=.+X#X@X@X7XzXzXzXzXzXhXhXxXxXxXxXxXxXzXzXzXzXzXzXsXXXzXzXzXzXrXzXzXsXsXsXsX7XXX X@X#X(.(.~. . . .] ] ] ] ] ] ] ` ` ` ` ` ` ` ` ` ` ` ` ` ` ` ` ` ` ` ` ` ` ` ` ` ` ` ` ` ` ` ` ` ` ` ` ` ` ` ` ` ` ` _ _ _ ` ` ` ` ` ` ` ` ` ` ` ` ` ` ` ` ` ` ` ` ` ` ` ` ` ` ` ` ` ` ` ` ` ` ` ` ` ` ` ` ` ` ` ` ` ` ` ` ` ` ` ` ` ` ` ` ` ` ` ` ` ` ` ` ` ` ` ` ` ` ` ` ` ` ` ` ` ` ` ` ` ` ` ` ` ` ` ` ` ` ` ` ` ` ` ` ` ` ` ` ` ` ` ` ` ` ` ` ` ` ` ` ` ` ` ` ` ` ` ` ` ` ` ` ` ` ` ` ` ` ` ` ` ` ` ` ` ` ` ` ` ` ` ` ` ` ` ` ` ` ` ` ` ` ` ` ` ` ` ` ` ` ` ",
"` ` ` ` ` ` ` ` ` ` ` ` ` ` ` ` ` ` ` ` ` ` ` ` ` ` ` ` ` ` ` ` ` ` ` ` ` ` ` ` ` ` ` ` ` ` ` ` ` ` ` ` ` ` ` ` ` ` ` ` ` ` ` ` ` ` ` ` ` ` ` ` ` ` ` ` ` ` ` ` ` ` ` ` ` ` ` ` ` ` ` ` ` ` ` ` ` ` ` ` ` ` ` ` ` ` ` ` ` ` ` ` ` ` ` ` ` ` ` ` ` ` ` ` ` ` ` ` ` ` ` ` ` ` _ _ _ _ ` ` ` ` ` ` _ _ _ _ _ _ ` ` ` ` ` ` ] ] ] ` ` ` ` ` ` ` ` ` ` ` ` ` ` ` ` ` ` ` ` ` ` ` ` ` ` ` ` ` ` ` ` ` _ _ ` ` ` ` _ _ ` ` ` ` ` ` ` ` ` ` ` ` ` ` ` ` ` ` ` ` ` ` ` ` ` ` ` ` ` ` ` ` ` ` ` ` ` ` ` ` ` ` ` ` ` ` ` ` ` ` ` ` ` ` ` ` ` _ ` ' ' ' ` ` ` ` ' ` ' ' ` ' ' ' ' ` ` ` ] ] ] ] ] ] ] ] ]  .] ] ] ] ] ] ] ] ] ] ] ] ] ] ] T ] ` ` ` ` ` ` ` ` ` ` ` ` ` ` ` ` ` ` ` ` ` ` ` ` ` ` ` ] @.&.*.(.(.#X#X7X7X7XzXXXXXXX%XhXhXhXhXXXXXXXXXXXXX@XXXXXXXzXhXXX%XzX7X@X@X@X@X#XoX#X+X(... . .] ] ] ] ` ` ` ` ` ` ` ` ` ` ` ` ` ` ` ` ` ` ` ` ` ` ` ` ` ` ` ` ` ` ` ` ` ` ` ` ` ` ` ` ` ` ` ` ` ` ` ` _ _ _ _ _ _ ` ` ` ` ` ` ` ` ` ` ` ` ` ` ` ` ` ` ` ` ` ` ` ` ` ` ` ` ` ` ` ` ` ` ` ` ` ` ` ` ` ` ` ` ` ` ` ` ` ` ` ` ` ` ` ` ` ` ` ` ` ` ` ` ` ` ` ` ` ` ` ` ` ` ` ` ` ` ` ` ` ` ` ` ` ` ` ` ` ` ` ` ` ` ` ` ` ` ` ` ` ` ` ` ` ` ` ` ` ` ` ` ` ` ` ` ` ` ` ` ` ` ` ` ` ` ` ` ` ` ` ` ` ` ` ` ` ` ` ` ` ` ` ` ` ` ` ` ` ` ` ` ` ` ` ` ` ` ` ` ` ",
"` ` ` ` ` ` ` ` ` ` ` ` ` ` ` ` ` ` ` ` ` ` ` ` ` ` ` ` ` ` ` ` ` ` ` ` ` ` ` ` ` ` ` ` ` ` ` ` ` ` ` ` ` ` ` ` ` ` ` ` ` ` ` ` ` ` ` ` ` ` ` ` ` ` ` ` ` ` ` ` ` ` ` ` ` ` ` ` ` ` ` ` ` ` ` ` ` ` ` ` ` ` ` ` ` ` ` ` ` ` ` ` ` ` ` ` ` ` ` ` ` ` ` ` ` ` ` ` ` ` ` ` ` ` _ _ _ _ ` ` ` ` ` ` _ _ _ _ _ _ ` ` ` ` ` ` ` ` ] ` ` ` ` ` ` ` ` ` ` ` ` ` ` ` ` ` ` ` ` ` ` ` ` ` ` ` ` ` ` ` ` ` _ T T _ _ _ _ T ` ` ` ` _ ` ` ` ` ` ` ` ` ` ` ` ` ` ` ` ` ` ` ` ` ` ` ` ` ` ` ` ` ` ` ` ` ` ` ` ` ` ` ` ` ` ` ` ` ` ` ` ` ` ` ` ` _ ` ` ' ' ' ` ' ' ' ' ' ' ` ' ) _ ' ` _ ' ` ` ) ] ] ] ] ] ] ] ] ] ] ] ] ] ] ] ] ] ] ] ] ] ] ] ` ` ` ` ` ` ` ` ` ` ` ` ` ` ` ` ` ` ` ` ` ` ` ` ` ` ) ) ' ` ] ]  . .(.+X+X#X8X7X7X7X7X7X7X%X%X%XXXXX@X7XzXzXzX7XzXzXzX7X7XXXXX X#X#X#X(.(.(. . . . .] ] ] T ] ` ` ` ` ` ` ` ` ` ` ` ` ` ` ` ` ` ` ` ` ` ` ` ` ` ` ` ` ` ` ` ` ` ` ` ` ` ` ` ` ` ` ` ` ` ` ` ` ` _ _ _ _ _ _ ` ` ` ` ` ` ` ` ` ` ` ` ` ` ` ` ` ` ` ` ` ` ` ` ` ` ` ` ` ` ` ` ` ` ` ` ` ` ` ` ` ` ` ` ` ` ` ` ` ` ` ` ` ` ` ` ` ` ` ` ` ` ` ` ` ` ` ` ` ` ` ` ` ` ` ` ` ` ` ` ` ` ` ` ` ` ` ` ` ` ` ` ` ` ` ` ` ` ` ` ` ` ` ` ` ` ` ` ` ` ` ` ` ` ` ` ` ` ` ` ` ` ` ` ` ` ` ` ` ` ` ` ` ` ` ` ` ` ` ` ` ` ` ` ` ` ` ` ` ` ` ` ` ` ` ` ` ` ` ` ` ",
"` ` ` ` ` ` ` ` ` ` ` ` ` ` ` ` ` ` ` ` ` ` ` ` ` ` ` ` ` ` ` ` ` ` ` ` ` ` ` ` ` ` ` ` ` ` ` ` ` ` ` ` ` ` ` ` ` ` ` ` ` ` ` ` ` ` ` ` ` ` ` ` ` ` ` ` ` ` ` ` ` ` ` ` ` ` ` ` ` ` ` ` ` ` ` ` ` ` ` ` ` ` ` ` ` ` ` ` ` ` ` ` ` ` ` ` ` ` ` ` ` ` ` ` ` ` ` ` ` ` ` ` ` ` _ _ _ _ ` ` ` ` ` ` _ _ _ _ _ _ ` ` ` ` ` ` ` ` ] ` ` ` ` ` ` ` ` ` ` ` ` ` ` ` ` ` ` ` ` ` ` ` ` ` ` ` ` ` ` ` ` ` ` ` ` ` ` ` ` ` ` ` ` ` ` ` ` ` ` ` ` ` ` ` ` ` ` ` ` ` ` ` ` ` ` ` ` ` ` ` ` ` ` ` ` ` ` ` ` ` ` ` ` ` ` ` ` ` ` ` ` ` ` ` ` ` ` _ ` ' ' ' ' ` ' ' ' ' ' ' ` ` _ _ _ _ _ ' _ ` ` ` ` ` ] ] ] ] ` ` ` ` ] ] ] ] ` ` ` ] ] ] ] ] ` ` ` ` ` ` ` ` ` ` ` ` ` ` ` ` ` ` ` ` ` ` ` ` ` ` ` ` ` ' ` ] ] ]  . ...$X+X+X#X#X#X#X@X@X@X@X@X@X@X7X@X7X@X7X8X7X#X#XoX X(.(.(..... . . .] ] ] ] ] ] ] ` ] ] ` ` ` ` ` ` ` ` ` ` ` ` ` ` ` ` ` ` ` ` ` ` ` ` ` ` ` ` ` ` ` ` ` ` ` ` ` ` ` ` ` ` ` ` ` ` ` ` _ _ _ _ _ _ ` ` ` ` ` ` ` ` ` ` ` ` ` ` ` ` ` ` ` ` ` ` ` ` ` ` ` ` ` ` ` ` ` ` ` ` ` ` ` ` ` ` ` ` ` ` ` ` ` ` ` ` ` ` ` ` ` ` ` ` ` ` ` ` ` ` ` ` ` ` ` ` ` ` ` ` ` ` ` ` ` ` ` ` ` ` ` ` ` ` ` ` ` ` ` ` ` ` ` ` ` ` ` ` ` ` ` ` ` ` ` ` ` ` ` ` ` ` ` ` ` ` ` ` ` ` ` ` ` ` ` ` ` ` ` ` ` ` ` ` ` ` ` ` ` ` ` ` ` ` ` ` ` ` ` ` ` ` ` ` ` ",
"` ` ` ` ` ` ` ` ` ` ` ` ` ` ` ` ` ` ` ` ` ` ` ` ` ` ` ` ` ` ` ` ` ` ` ` ` ` ` ` ` ` ` ` ` ` ` ` ` ` ` ` ` ` ` ` ` ` ` ` ` ` ` ` ` ` ` ` ` ` ` ` ` ` ` ` ` ` ` ` ` ` ` ` ` ` ` ` ` ` ` ` ` ` ` ` ` ` ` ` ` ` ` ` ` ` ` ` ` ` ` ` ` ` ` ` ` ` ` ` ` ` ` ` ` ` ` ` ` ` ` ` ` ` _ _ _ _ ` ` ` ` ` ` ` _ _ _ ` ` ` ` ` ` ` ` ` ` ` ` ` ` ` ` ` ` ` ` ` ` ` ` ` ` ` ` ` ` ` ` ` ` ` ` ` ` ` ` ` ` ` ` ` ` ` ` ` ` ` ` ` ` ` ` ` ` ` ` ` ` ` ` ` ` ` ` ` ` ` ` ` ` ` ` ` ` ` ` ` ` ` ` ` ` ` ` ` ` ` ` ` ` ` ` ` ` ` ` ` ` ` ` ` ` ` ` ` ' ' ' ` ` ` ` ' ' ` ` ` ` ` ` _ _ _ _ _ _ _ _ _ ` ` ` ` ` ` ` ` ` ` ` ` ` ` ` ` ` ` ` ` ` ` ` ` ` ` ` ` ` ` ` ` ` ` ` ` ` ` ` ` ` ` ` ` ` ` ` ` ` ` ` ` ` ) ] ] ] ] ] ]  . . ... ...(.$X$X$X+X+X+X+X+X+X+X+X+X+X$X(... ... . .] ] ] ] ] ] ] ] ] ] ` ` ` ` ` ` ` ` ` ` ` ` ` ` ` ` ` ` ` ` ` ` ` ` ` ` ` ` ` ` ` ` ` ` ` ` ` ` ` ` ` ` ` ` ` ` ` ` ` ` ` ` ` ` _ _ _ _ ` ` ` ` ` ` ` ` ` ` ` ` ` ` ` ` ` ` ` ` ` ` ` ` ` ` ` ` ` ` ` ` ` ` ` ` ` ` ` ` ` ` ` ` ` ` ` ` ` ` ` ` ` ` ` ` ` ` ` ` ` ` ` ` ` ` ` ` ` ` ` ` ` ` ` ` ` ` ` ` ` ` ` ` ` ` ` ` ` ` ` ` ` ` ` ` ` ` ` ` ` ` ` ` ` ` ` ` ` ` ` ` ` ` ` ` ` ` ` ` ` ` ` ` ` ` ` ` ` ` ` ` ` ` ` ` ` ` ` ` ` ` ` ` ` ` ` ` ` ` ` ` ` ` ` ` ` ` ` ` ` ` ` ",
"` ` ` ` ` ` ` ` ` ` ` ` ` ` ` ` ` ` ` ` ` ` ` ` ` ` ` ` ` ` ` ` ` ` ` ` ` ` ` ` ` ` ` ` ` ` ` ` ` ` ` ` ` ` ` ` ` ` ` ` ` ` ` ` ` ` ` ` ` ` ` ` ` ` ` ` ` ` ` ` ` ` ` ` ` ` ` ` ` ` ` ` ` ` ` ` ` ` ` ` ` ` ` ` ` ` ` ` ` ` ` ` ` ` ` ` ` ` ` ` ` ` ` ` ` ` ` ` ` ` ` ` ` ` _ _ _ _ ` ` ` ` ` ` ` _ _ _ ` ` ` ` ` ` ` ` ` ` ` ` ` ` ` ` ` ` ` ` ` ` ` ` ` ` ` ` ` ` ` ` ` ` ` ` ` ` ` ` ` ` ` ` ` ` ` ` ` ` ` ` ` ` ` ` ` ` ` ` ` ` ` ` ` ` ` ` ` ` ` ` ` ` ` ` ` ` ` ` ` ` ` ` ` ` ` ` ` ` ` ` ` ` ` ` ` ` ` ` ` ` ` ` ` ` ` ` ` ' ' ' ` ` ` ` ' ' ` ` ` ` ` ` _ _ _ _ _ _ _ _ ` o.` o.` o.` ` ` ` ` ` ` ` ` ` o.o.o.` ` ` ` ` ` ` ` ` ` ` ` ` ` ` ` ` ` ` ` ` ` ` ` ` ` ` ` ` ` ] ] ` ' ' ) ' ` ` ] ] ] ] ] ] ] ] ] ]  . .[ [  . . .[ [ [ [ [ ] ] ] ] ] ] ] ] ) ) ) ) ) ` ` ` o.o.` ` ` ` ` ` ` ` ` ` ` ` ` ` ` ` ` ` ` ` ` ` ` ` ` ` ` ` ` ` ` ` ` ` ` ` ` ` ` ` ` ` ` ` ` ` ` ` ` ` ` ` ` ` _ _ _ _ ` ` ` ` ` ` ` ` ` ` ` ` ` ` ` ` ` ` ` ` ` ` ` ` ` ` ` ` ` ` ` ` ` ` ` ` ` ` ` ` ` ` ` ` ` ` ` ` ` ` ` ` ` ` ` ` ` ` ` ` ` ` ` ` ` ` ` ` ` ` ` ` ` ` ` ` ` ` ` ` ` ` ` ` ` ` ` ` ` ` ` ` ` ` ` ` ` ` ` ` ` ` ` ` ` ` ` ` ` ` ` ` ` ` ` ` ` ` ` ` ` ` ` ` ` ` ` ` ` ` ` ` ` ` ` ` ` ` ` ` ` ` ` ` ` ` ` ` ` ` ` ` ` ` ` ` ` ` ` ` ` ` ` ",
"` ` ` ` ` ` ` ` ` ` ` ` ` ` ` ` ` ` ` ` ` ` ` ` ` ` ` ` ` ` ` ` ` ` ` ` ` ` ` ` ` ` ` ` ` ` ` ` ` ` ` ` ` ` ` ` ` ` ` ` ` ` ` ` ` ` ` ` ` ` ` ` ` ` ` ` ` ` ` ` ` ` ` ` ` ` ` ` ` ` ` ` ` ` ` ` ` ` ` ` ` ` ` ` ` ` ` ` ` ` ` ` ` ` ` ` ` ` ` ` ` ` ` ` ` ` ` ` ` ` ` ` ` ` _ _ _ _ ` ` ` ` ` ` ` ` ` ` ` ` ` ` ` ` ` ` ` ` ` ` ` ` ` ` ` ` ` ` ` ` ` ` ` ` ` ` ` ` ` ` ` ` ` ` ` ` ` ` ` ` ` ` ` ` ` ` ` ` ` ` ` ` ` ` ` ` ` ` ` ` ` ` ` ` ` ` ` ` ` ` ` ` ` ` ` ` ` ` ` ` ` ` ` ` ` ` ` ` ` ` ` ` ` ` ` ` ` ` ` ` ` ` ` ` ` ` ` ' ' ' ' ' ` ` ` ` ` ` ` ` ` ` _ _ _ _ _ _ _ _ _ ` ` ` ` ` ` ` ` ` ` ` ` ` ` ` ` ` ` ` ` ` ` ` ` ` ` ` ` ` ` ` ` ` ` ` ` ` ` ` ` ` ` ` ` ` ` ` ` ` ) ) ) ) ' ` ` ] ` ` ` ` ` ) ` ` ` ` ` ` _ _ ` ` ` ` _ _ _ _ ) ) _ ` ` ` ` ` ` _ ` ` _ _ ` ` ` ` ` ` ` ` ` ` ` ` ` ` ` ` ` ` ` ` ` ` ` ` ` ` ` ` ` ` ` ` ` ` ` ` ` ` ` ` ` ` ` ` ` ` ` ` ` ` ` ` ` ` ` ` ` ` _ _ _ _ ` ` ` ` ` ` ` ` ` ` ` ` ` ` ` ` ` ` ` ` ` ` ` ` ` ` ` ` ` ` ` ` ` ` ` ` ` ` ` ` ` ` ` ` ` ` ` ` ` ` ` ` ` ` ` ` ` ` ` ` ` ` ` ` ` ` ` ` ` ` ` ` ` ` ` ` ` ` ` ` ` ` ` ` ` ` ` ` ` ` ` ` ` ` ` ` ` ` ` ` ` ` ` ` ` ` ` ` ` ` ` ` ` ` ` ` ` ` ` ` ` ` ` ` ` ` ` ` ` ` ` ` ` ` ` ` ` ` ` ` ` ` ` ` ` ` ` ` ` ` ` ` ` ` ` ` ` ` ` ` ` ` ` "
};
